mpv/luts/FG_CineBright.cube
#Generated with IWLTBAP LUT Generator
#Website: http://luts.iwltbap.com
TITLE "FG_CineBright"
#LUT size
LUT_3D_SIZE 9
#LUT data points
0.070588 0.117647 0.117647
0.113725 0.121569 0.117647
0.250980 0.129412 0.109804
0.529412 0.164706 0.094118
0.796078 0.215686 0.066667
0.929412 0.254902 0.074510
1.000000 0.301961 0.129412
0.996078 0.364706 0.215686
1.000000 0.454902 0.341176
0.047059 0.133333 0.113725
0.113725 0.152941 0.109804
0.278431 0.172549 0.098039
0.568627 0.235294 0.074510
0.796078 0.278431 0.047059
0.945098 0.298039 0.078431
1.000000 0.341176 0.129412
1.000000 0.396078 0.231373
1.000000 0.474510 0.356863
0.015686 0.203922 0.156863
0.062745 0.207843 0.137255
0.282353 0.270588 0.062745
0.639216 0.360784 0.007843
0.823529 0.384314 0.000000
0.952941 0.388235 0.070588
1.000000 0.407843 0.160784
0.996078 0.450980 0.250980
1.000000 0.525490 0.380392
0.000000 0.333333 0.200000
0.000000 0.333333 0.172549
0.200000 0.380392 0.129412
0.623529 0.505882 0.000000
0.827451 0.513725 0.000000
0.976471 0.501961 0.105882
0.992157 0.517647 0.207843
1.000000 0.545098 0.313725
0.996078 0.600000 0.427451
0.000000 0.525490 0.278431
0.000000 0.529412 0.258824
0.003922 0.525490 0.215686
0.470588 0.607843 0.098039
0.800000 0.627451 0.003922
0.968627 0.615686 0.000000
0.996078 0.631373 0.235294
1.000000 0.658824 0.407843
1.000000 0.686275 0.494118
0.003922 0.662745 0.407843
0.003922 0.654902 0.396078
0.003922 0.662745 0.360784
0.305882 0.674510 0.329412
0.674510 0.725490 0.211765
0.949020 0.737255 0.007843
1.000000 0.729412 0.141176
0.992157 0.756863 0.419608
1.000000 0.756863 0.556863
0.364706 0.756863 0.545098
0.403922 0.756863 0.549020
0.411765 0.756863 0.529412
0.431373 0.749020 0.509804
0.576471 0.792157 0.474510
0.819608 0.850980 0.376471
1.000000 0.847059 0.003922
0.996078 0.835294 0.388235
0.996078 0.819608 0.572549
0.470588 0.886275 0.643137
0.494118 0.874510 0.654902
0.529412 0.878431 0.650980
0.521569 0.878431 0.615686
0.564706 0.878431 0.600000
0.764706 0.933333 0.572549
0.992157 0.980392 0.474510
1.000000 0.921569 0.447059
1.000000 0.886275 0.580392
0.560784 1.000000 0.784314
0.580392 0.992157 0.772549
0.619608 1.000000 0.784314
0.647059 0.996078 0.768627
0.662745 1.000000 0.752941
0.764706 1.000000 0.717647
0.921569 1.000000 0.658824
1.000000 1.000000 0.615686
0.996078 0.937255 0.666667
0.074510 0.117647 0.141176
0.125490 0.117647 0.121569
0.282353 0.156863 0.105882
0.580392 0.231373 0.074510
0.803922 0.278431 0.047059
0.937255 0.301961 0.082353
1.000000 0.337255 0.137255
0.996078 0.392157 0.227451
1.000000 0.462745 0.352941
0.054902 0.149020 0.149020
0.121569 0.156863 0.152941
0.294118 0.196078 0.117647
0.607843 0.286275 0.050980
0.819608 0.317647 0.031373
0.949020 0.337255 0.074510
1.000000 0.364706 0.141176
1.000000 0.411765 0.247059
0.996078 0.486275 0.352941
0.035294 0.223529 0.176471
0.090196 0.215686 0.164706
0.294118 0.270588 0.129412
0.647059 0.388235 0.007843
0.839216 0.400000 0.007843
0.960784 0.411765 0.070588
1.000000 0.431373 0.168627
1.000000 0.470588 0.262745
1.000000 0.537255 0.388235
0.000000 0.352941 0.215686
0.000000 0.352941 0.211765
0.196078 0.388235 0.172549
0.619608 0.498039 0.003922
0.835294 0.521569 0.000000
0.984314 0.521569 0.105882
1.000000 0.525490 0.215686
0.996078 0.556863 0.321569
1.000000 0.607843 0.443137
0.003922 0.541176 0.309804
0.003922 0.541176 0.309804
0.000000 0.537255 0.262745
0.462745 0.603922 0.188235
0.800000 0.627451 0.000000
0.968627 0.623529 0.000000
1.000000 0.635294 0.250980
1.000000 0.666667 0.411765
1.000000 0.686275 0.501961
0.000000 0.662745 0.431373
0.152941 0.666667 0.431373
0.172549 0.662745 0.403922
0.325490 0.670588 0.364706
0.658824 0.729412 0.298039
0.933333 0.733333 0.000000
1.000000 0.737255 0.145098
1.000000 0.764706 0.419608
0.996078 0.760784 0.564706
0.376471 0.756863 0.549020
0.411765 0.756863 0.560784
0.435294 0.760784 0.549020
0.454902 0.749020 0.525490
0.584314 0.788235 0.505882
0.827451 0.850980 0.419608
0.996078 0.854902 0.149020
1.000000 0.843137 0.403922
1.000000 0.819608 0.584314
0.474510 0.886275 0.658824
0.494118 0.874510 0.654902
0.549020 0.882353 0.658824
0.537255 0.882353 0.643137
0.580392 0.882353 0.615686
0.756863 0.937255 0.584314
0.992157 0.984314 0.501961
0.996078 0.925490 0.439216
0.992157 0.878431 0.572549
0.556863 1.000000 0.780392
0.568627 1.000000 0.784314
0.615686 1.000000 0.784314
0.662745 1.000000 0.788235
0.674510 0.996078 0.745098
0.756863 1.000000 0.705882
0.925490 1.000000 0.678431
1.000000 0.996078 0.631373
0.996078 0.929412 0.658824
0.094118 0.145098 0.215686
0.156863 0.141176 0.207843
0.274510 0.145098 0.188235
0.588235 0.235294 0.141176
0.827451 0.321569 0.027451
0.956863 0.352941 0.078431
1.000000 0.392157 0.149020
1.000000 0.427451 0.243137
1.000000 0.498039 0.360784
0.070588 0.160784 0.219608
0.141176 0.172549 0.215686
0.250980 0.188235 0.192157
0.611765 0.282353 0.172549
0.839216 0.364706 0.015686
0.960784 0.384314 0.078431
1.000000 0.415686 0.164706
1.000000 0.454902 0.262745
1.000000 0.513725 0.372549
0.003922 0.247059 0.243137
0.094118 0.247059 0.227451
0.274510 0.274510 0.227451
0.627451 0.380392 0.211765
0.850980 0.431373 0.133333
0.976471 0.447059 0.090196
1.000000 0.462745 0.180392
1.000000 0.505882 0.286275
1.000000 0.556863 0.400000
0.003922 0.396078 0.294118
0.000000 0.384314 0.286275
0.176471 0.384314 0.266667
0.603922 0.498039 0.219608
0.831373 0.525490 0.196078
0.984314 0.545098 0.086275
1.000000 0.552941 0.239216
0.996078 0.584314 0.337255
1.000000 0.619608 0.454902
0.000000 0.560784 0.372549
0.000000 0.560784 0.372549
0.149020 0.556863 0.349020
0.454902 0.603922 0.317647
0.784314 0.631373 0.258824
0.960784 0.639216 0.207843
1.000000 0.650980 0.243137
1.000000 0.682353 0.427451
1.000000 0.694118 0.505882
0.200000 0.678431 0.486275
0.270588 0.670588 0.482353
0.360784 0.662745 0.482353
0.384314 0.662745 0.443137
0.658824 0.721569 0.427451
0.925490 0.752941 0.341176
1.000000 0.745098 0.188235
0.996078 0.772549 0.431373
1.000000 0.764706 0.568627
0.415686 0.764706 0.584314
0.439216 0.764706 0.584314
0.490196 0.760784 0.580392
0.505882 0.756863 0.552941
0.584314 0.780392 0.541176
0.827451 0.850980 0.513725
1.000000 0.866667 0.403922
1.000000 0.843137 0.407843
1.000000 0.823529 0.576471
0.478431 0.890196 0.662745
0.501961 0.890196 0.670588
0.545098 0.886275 0.678431
0.572549 0.882353 0.658824
0.600000 0.890196 0.643137
0.756863 0.929412 0.619608
0.988235 0.988235 0.552941
1.000000 0.921569 0.447059
0.992157 0.882353 0.592157
0.537255 1.000000 0.792157
0.556863 0.996078 0.796078
0.611765 0.996078 0.796078
0.698039 1.000000 0.807843
0.694118 1.000000 0.772549
0.752941 1.000000 0.749020
0.917647 1.000000 0.705882
1.000000 0.996078 0.631373
1.000000 0.933333 0.662745
0.137255 0.164706 0.337255
0.215686 0.164706 0.345098
0.380392 0.149020 0.360784
0.564706 0.164706 0.317647
0.788235 0.309804 0.266667
0.960784 0.388235 0.188235
1.000000 0.427451 0.184314
1.000000 0.470588 0.282353
1.000000 0.537255 0.388235
0.098039 0.192157 0.333333
0.192157 0.203922 0.341176
0.360784 0.200000 0.356863
0.552941 0.235294 0.309804
0.796078 0.356863 0.301961
0.956863 0.423529 0.227451
1.000000 0.450980 0.188235
0.996078 0.490196 0.286275
0.996078 0.549020 0.403922
0.000000 0.266667 0.356863
0.090196 0.266667 0.349020
0.286275 0.294118 0.352941
0.509804 0.349020 0.341176
0.780392 0.458824 0.364706
0.949020 0.501961 0.329412
1.000000 0.509804 0.211765
0.992157 0.541176 0.317647
0.996078 0.584314 0.427451
0.007843 0.419608 0.431373
0.003922 0.419608 0.411765
0.243137 0.427451 0.388235
0.549020 0.490196 0.400000
0.772549 0.580392 0.462745
0.937255 0.615686 0.470588
1.000000 0.600000 0.329412
1.000000 0.615686 0.368627
1.000000 0.643137 0.466667
0.000000 0.588235 0.470588
0.094118 0.592157 0.462745
0.325490 0.584314 0.466667
0.447059 0.588235 0.447059
0.745098 0.650980 0.478431
0.917647 0.690196 0.501961
1.000000 0.705882 0.450980
1.000000 0.705882 0.443137
0.996078 0.709804 0.513725
0.329412 0.690196 0.545098
0.364706 0.682353 0.545098
0.439216 0.678431 0.545098
0.490196 0.666667 0.537255
0.647059 0.717647 0.529412
0.890196 0.764706 0.525490
1.000000 0.796078 0.509804
0.996078 0.776471 0.443137
1.000000 0.784314 0.572549
0.439216 0.780392 0.615686
0.458824 0.772549 0.619608
0.513725 0.772549 0.623529
0.564706 0.768627 0.619608
0.596078 0.776471 0.596078
0.815686 0.850980 0.588235
1.000000 0.886275 0.549020
0.996078 0.854902 0.478431
1.000000 0.827451 0.580392
0.470588 0.901961 0.701961
0.494118 0.901961 0.701961
0.541176 0.894118 0.694118
0.619608 0.890196 0.705882
0.627451 0.898039 0.682353
0.745098 0.929412 0.662745
0.972549 0.988235 0.619608
1.000000 0.937255 0.560784
1.000000 0.886275 0.596078
0.498039 1.000000 0.792157
0.529412 1.000000 0.800000
0.596078 1.000000 0.815686
0.682353 1.000000 0.823529
0.729412 1.000000 0.815686
0.756863 1.000000 0.780392
0.913725 1.000000 0.749020
1.000000 1.000000 0.647059
1.000000 0.941176 0.666667
0.215686 0.207843 0.494118
0.301961 0.196078 0.513725
0.454902 0.200000 0.529412
0.623529 0.203922 0.509804
0.772549 0.321569 0.450980
0.862745 0.474510 0.454902
0.996078 0.525490 0.431373
0.996078 0.521569 0.317647
1.000000 0.572549 0.419608
0.180392 0.239216 0.501961
0.270588 0.247059 0.498039
0.439216 0.243137 0.521569
0.615686 0.262745 0.513725
0.756863 0.372549 0.462745
0.862745 0.505882 0.486275
0.992157 0.560784 0.454902
0.992157 0.541176 0.317647
0.992157 0.588235 0.431373
0.000000 0.282353 0.482353
0.152941 0.294118 0.498039
0.364706 0.341176 0.513725
0.592157 0.364706 0.521569
0.713725 0.458824 0.482353
0.858824 0.576471 0.537255
0.996078 0.615686 0.509804
0.996078 0.580392 0.384314
0.996078 0.611765 0.458824
0.000000 0.427451 0.525490
0.011765 0.423529 0.529412
0.270588 0.431373 0.509804
0.529412 0.478431 0.517647
0.674510 0.560784 0.529412
0.866667 0.650980 0.572549
1.000000 0.682353 0.568627
0.992157 0.666667 0.454902
0.996078 0.647059 0.482353
0.003922 0.580392 0.576471
0.133333 0.580392 0.572549
0.337255 0.592157 0.560784
0.505882 0.600000 0.537255
0.698039 0.647059 0.584314
0.882353 0.725490 0.635294
1.000000 0.756863 0.627451
1.000000 0.741176 0.537255
1.000000 0.709804 0.533333
0.349020 0.690196 0.607843
0.396078 0.690196 0.607843
0.482353 0.698039 0.607843
0.552941 0.690196 0.603922
0.627451 0.698039 0.596078
0.866667 0.772549 0.623529
1.000000 0.819608 0.647059
1.000000 0.811765 0.592157
1.000000 0.772549 0.584314
0.466667 0.800000 0.666667
0.482353 0.792157 0.670588
0.521569 0.792157 0.670588
0.588235 0.788235 0.666667
0.623529 0.776471 0.654902
0.792157 0.847059 0.647059
0.996078 0.894118 0.654902
1.000000 0.878431 0.627451
1.000000 0.827451 0.592157
0.435294 0.917647 0.733333
0.462745 0.921569 0.749020
0.513725 0.917647 0.733333
0.596078 0.913725 0.745098
0.678431 0.909804 0.737255
0.721569 0.917647 0.709804
0.960784 0.992157 0.705882
1.000000 0.945098 0.666667
1.000000 0.890196 0.603922
0.407843 1.000000 0.819608
0.450980 1.000000 0.827451
0.533333 1.000000 0.823529
0.643137 1.000000 0.839216
0.776471 1.000000 0.870588
0.807843 0.996078 0.839216
0.898039 1.000000 0.811765
1.000000 0.996078 0.733333
1.000000 0.937255 0.662745
0.313725 0.274510 0.611765
0.364706 0.286275 0.627451
0.478431 0.290196 0.627451
0.662745 0.313725 0.643137
0.741176 0.400000 0.603922
0.862745 0.513725 0.584314
0.941176 0.596078 0.588235
1.000000 0.654902 0.592157
1.000000 0.639216 0.509804
0.294118 0.301961 0.627451
0.356863 0.313725 0.611765
0.470588 0.337255 0.643137
0.643137 0.360784 0.647059
0.741176 0.431373 0.607843
0.854902 0.533333 0.592157
0.941176 0.615686 0.600000
0.996078 0.662745 0.592157
1.000000 0.650980 0.525490
0.211765 0.341176 0.611765
0.282353 0.356863 0.615686
0.439216 0.403922 0.627451
0.611765 0.439216 0.631373
0.713725 0.505882 0.623529
0.831373 0.576471 0.607843
0.941176 0.647059 0.627451
1.000000 0.690196 0.607843
1.000000 0.674510 0.541176
0.137255 0.423529 0.623529
0.207843 0.427451 0.615686
0.352941 0.450980 0.611765
0.552941 0.533333 0.627451
0.682353 0.576471 0.611765
0.800000 0.619608 0.619608
0.964706 0.698039 0.654902
1.000000 0.741176 0.647059
1.000000 0.705882 0.560784
0.247059 0.564706 0.639216
0.301961 0.564706 0.631373
0.392157 0.572549 0.631373
0.501961 0.592157 0.623529
0.662745 0.631373 0.631373
0.800000 0.694118 0.658824
0.996078 0.764706 0.701961
1.000000 0.788235 0.678431
0.992157 0.721569 0.560784
0.376471 0.682353 0.682353
0.403922 0.686275 0.678431
0.470588 0.694118 0.670588
0.549020 0.694118 0.666667
0.647059 0.698039 0.658824
0.823529 0.772549 0.701961
0.996078 0.847059 0.756863
0.996078 0.850980 0.737255
0.996078 0.768627 0.592157
0.431373 0.788235 0.721569
0.458824 0.788235 0.725490
0.513725 0.792157 0.721569
0.588235 0.803922 0.721569
0.666667 0.803922 0.717647
0.741176 0.815686 0.701961
1.000000 0.905882 0.756863
0.996078 0.901961 0.760784
0.996078 0.847059 0.662745
0.435294 0.925490 0.807843
0.454902 0.921569 0.796078
0.505882 0.937255 0.800000
0.580392 0.941176 0.796078
0.670588 0.933333 0.792157
0.745098 0.925490 0.784314
0.929412 0.984314 0.784314
1.000000 0.964706 0.788235
1.000000 0.909804 0.721569
0.321569 1.000000 0.858824
0.360784 1.000000 0.847059
0.411765 1.000000 0.843137
0.549020 0.996078 0.854902
0.729412 1.000000 0.878431
0.890196 1.000000 0.913725
0.901961 1.000000 0.878431
0.996078 1.000000 0.843137
1.000000 0.937255 0.666667
0.431373 0.396078 0.713725
0.462745 0.403922 0.721569
0.549020 0.423529 0.725490
0.662745 0.454902 0.737255
0.815686 0.501961 0.749020
0.858824 0.568627 0.705882
0.992157 0.619608 0.705882
0.996078 0.674510 0.682353
0.992157 0.741176 0.694118
0.423529 0.419608 0.717647
0.462745 0.435294 0.709804
0.541176 0.450980 0.717647
0.658824 0.486275 0.725490
0.800000 0.529412 0.745098
0.854902 0.584314 0.713725
0.992157 0.635294 0.705882
1.000000 0.686275 0.682353
0.992157 0.741176 0.701961
0.388235 0.439216 0.705882
0.431373 0.462745 0.713725
0.533333 0.505882 0.705882
0.643137 0.533333 0.725490
0.784314 0.564706 0.749020
0.850980 0.615686 0.717647
0.980392 0.666667 0.717647
1.000000 0.709804 0.705882
0.992157 0.764706 0.717647
0.301961 0.466667 0.694118
0.364706 0.486275 0.705882
0.474510 0.533333 0.701961
0.611765 0.584314 0.717647
0.752941 0.615686 0.741176
0.823529 0.650980 0.709804
0.956863 0.694118 0.721569
1.000000 0.749020 0.741176
1.000000 0.788235 0.741176
0.368627 0.580392 0.721569
0.392157 0.584314 0.713725
0.447059 0.584314 0.709804
0.521569 0.588235 0.690196
0.682353 0.647059 0.721569
0.803922 0.694118 0.741176
0.941176 0.741176 0.729412
0.996078 0.807843 0.768627
1.000000 0.823529 0.760784
0.423529 0.686275 0.752941
0.443137 0.690196 0.756863
0.474510 0.682353 0.745098
0.541176 0.690196 0.741176
0.615686 0.698039 0.717647
0.764706 0.729412 0.741176
0.941176 0.811765 0.784314
1.000000 0.882353 0.835294
1.000000 0.858824 0.784314
0.443137 0.792157 0.800000
0.458824 0.792157 0.800000
0.498039 0.796078 0.788235
0.560784 0.796078 0.796078
0.643137 0.803922 0.780392
0.752941 0.823529 0.776471
0.976471 0.917647 0.843137
1.000000 0.949020 0.917647
1.000000 0.898039 0.823529
0.376471 0.929412 0.894118
0.396078 0.925490 0.890196
0.443137 0.937255 0.890196
0.537255 0.933333 0.870588
0.654902 0.949020 0.866667
0.784314 0.960784 0.870588
0.862745 0.960784 0.847059
0.996078 0.984314 0.917647
1.000000 0.949020 0.878431
0.301961 0.996078 0.952941
0.337255 0.992157 0.945098
0.423529 0.996078 0.937255
0.545098 1.000000 0.937255
0.690196 1.000000 0.917647
0.819608 1.000000 0.925490
0.968627 0.996078 0.968627
0.992157 1.000000 0.949020
1.000000 0.968627 0.847059
0.588235 0.556863 0.843137
0.603922 0.556863 0.839216
0.662745 0.560784 0.847059
0.729412 0.584314 0.854902
0.847059 0.600000 0.874510
1.000000 0.631373 0.905882
1.000000 0.682353 0.843137
1.000000 0.733333 0.839216
1.000000 0.756863 0.788235
0.588235 0.556863 0.850980
0.611765 0.572549 0.847059
0.647059 0.580392 0.847059
0.721569 0.596078 0.858824
0.847059 0.607843 0.878431
0.996078 0.631373 0.905882
0.996078 0.690196 0.847059
1.000000 0.737255 0.835294
1.000000 0.764706 0.792157
0.552941 0.572549 0.831373
0.584314 0.580392 0.843137
0.643137 0.603922 0.843137
0.713725 0.611765 0.850980
0.827451 0.631373 0.870588
0.976471 0.658824 0.898039
1.000000 0.705882 0.854902
1.000000 0.756863 0.839216
1.000000 0.800000 0.819608
0.490196 0.584314 0.835294
0.525490 0.596078 0.839216
0.580392 0.615686 0.831373
0.682353 0.643137 0.847059
0.796078 0.662745 0.862745
0.949020 0.686275 0.898039
0.992157 0.745098 0.858824
1.000000 0.792157 0.847059
1.000000 0.835294 0.839216
0.454902 0.631373 0.854902
0.466667 0.627451 0.839216
0.501961 0.623529 0.843137
0.588235 0.639216 0.843137
0.737255 0.694118 0.858824
0.898039 0.721569 0.890196
0.988235 0.776471 0.878431
0.996078 0.827451 0.866667
1.000000 0.878431 0.866667
0.447059 0.725490 0.894118
0.466667 0.721569 0.886275
0.490196 0.717647 0.866667
0.545098 0.705882 0.874510
0.615686 0.690196 0.847059
0.803922 0.752941 0.870588
0.980392 0.815686 0.901961
1.000000 0.874510 0.886275
1.000000 0.929412 0.913725
0.431373 0.827451 0.937255
0.443137 0.823529 0.929412
0.482353 0.823529 0.929412
0.533333 0.823529 0.921569
0.607843 0.811765 0.898039
0.701961 0.807843 0.874510
0.905882 0.850980 0.917647
1.000000 0.949020 0.945098
1.000000 0.980392 0.980392
0.392157 0.937255 0.988235
0.400000 0.937255 0.992157
0.454902 0.941176 0.988235
0.521569 0.945098 0.984314
0.607843 0.949020 0.976471
0.725490 0.960784 0.968627
0.882353 0.980392 0.964706
0.996078 1.000000 1.000000
1.000000 1.000000 1.000000
0.458824 1.000000 1.000000
0.482353 0.996078 0.996078
0.521569 0.996078 1.000000
0.588235 0.996078 1.000000
0.686275 1.000000 0.996078
0.839216 1.000000 0.988235
1.000000 1.000000 1.000000
1.000000 1.000000 1.000000
1.000000 0.992157 0.996078
0.745098 0.701961 1.000000
0.752941 0.705882 0.996078
0.792157 0.705882 1.000000
0.843137 0.713725 1.000000
0.925490 0.717647 0.992157
1.000000 0.741176 1.000000
1.000000 0.776471 1.000000
1.000000 0.850980 0.949020
1.000000 0.901961 0.937255
0.733333 0.709804 1.000000
0.752941 0.713725 1.000000
0.788235 0.721569 1.000000
0.843137 0.717647 1.000000
0.921569 0.725490 1.000000
1.000000 0.745098 1.000000
1.000000 0.784314 1.000000
0.996078 0.854902 0.956863
1.000000 0.913725 0.945098
0.709804 0.709804 1.000000
0.733333 0.709804 1.000000
0.772549 0.729412 1.000000
0.823529 0.737255 0.992157
0.905882 0.737255 1.000000
1.000000 0.756863 0.996078
0.996078 0.800000 1.000000
1.000000 0.870588 0.968627
1.000000 0.921569 0.956863
0.662745 0.717647 1.000000
0.682353 0.721569 1.000000
0.721569 0.741176 1.000000
0.800000 0.760784 1.000000
0.882353 0.764706 1.000000
0.980392 0.784314 1.000000
0.996078 0.827451 1.000000
1.000000 0.890196 0.976471
1.000000 0.945098 0.964706
0.564706 0.721569 0.996078
0.572549 0.725490 0.996078
0.627451 0.733333 0.996078
0.721569 0.760784 1.000000
0.843137 0.803922 1.000000
0.937255 0.811765 0.996078
1.000000 0.862745 1.000000
1.000000 0.921569 0.980392
0.992157 0.968627 0.976471
0.568627 0.784314 1.000000
0.580392 0.784314 1.000000
0.592157 0.792157 1.000000
0.627451 0.780392 0.996078
0.721569 0.788235 0.992157
0.886275 0.858824 0.992157
0.992157 0.890196 0.996078
0.992157 0.964706 0.996078
1.000000 1.000000 1.000000
0.552941 0.847059 1.000000
0.568627 0.850980 1.000000
0.588235 0.854902 1.000000
0.635294 0.850980 1.000000
0.698039 0.850980 1.000000
0.772549 0.858824 1.000000
0.949020 0.933333 1.000000
1.000000 0.996078 1.000000
1.000000 1.000000 1.000000
0.545098 0.901961 1.000000
0.552941 0.905882 1.000000
0.588235 0.909804 1.000000
0.635294 0.909804 1.000000
0.705882 0.921569 0.992157
0.803922 0.933333 1.000000
0.921569 0.952941 0.992157
0.996078 0.996078 0.996078
1.000000 0.996078 1.000000
0.501961 0.972549 1.000000
0.513725 0.972549 1.000000
0.549020 0.972549 1.000000
0.619608 0.972549 1.000000
0.709804 0.980392 0.992157
0.839216 0.984314 1.000000
0.980392 0.996078 0.992157
1.000000 1.000000 1.000000
1.000000 1.000000 0.992157
