mpv/luts/FG_CineVibrant.cube
#Generated with IWLTBAP LUT Generator
#Website: http://luts.iwltbap.com
TITLE "FG_CineVibrant1"
#LUT size
LUT_3D_SIZE 25
#LUT data points
0.066667 0.050980 0.047059
0.070588 0.054902 0.050980
0.086275 0.054902 0.043137
0.117647 0.058824 0.039216
0.156863 0.066667 0.047059
0.180392 0.066667 0.035294
0.227451 0.078431 0.035294
0.270588 0.082353 0.027451
0.301961 0.094118 0.023529
0.345098 0.101961 0.019608
0.380392 0.117647 0.015686
0.415686 0.121569 0.000000
0.447059 0.133333 0.000000
0.474510 0.141176 0.000000
0.513725 0.152941 0.000000
0.537255 0.164706 0.000000
0.576471 0.172549 0.011765
0.619608 0.184314 0.003922
0.654902 0.200000 0.000000
0.705882 0.215686 0.000000
0.764706 0.239216 0.000000
0.823529 0.254902 0.000000
0.886275 0.274510 0.003922
0.956863 0.301961 0.003922
1.000000 0.317647 0.000000
0.062745 0.058824 0.050980
0.074510 0.062745 0.043137
0.094118 0.066667 0.043137
0.125490 0.074510 0.050980
0.156863 0.078431 0.043137
0.196078 0.086275 0.035294
0.231373 0.090196 0.027451
0.266667 0.098039 0.031373
0.309804 0.105882 0.023529
0.352941 0.121569 0.007843
0.380392 0.125490 0.007843
0.419608 0.133333 0.003922
0.454902 0.141176 0.003922
0.486275 0.152941 0.000000
0.509804 0.160784 0.000000
0.541176 0.172549 0.000000
0.576471 0.180392 0.000000
0.615686 0.196078 0.000000
0.658824 0.207843 0.000000
0.713725 0.223529 0.003922
0.764706 0.239216 0.000000
0.823529 0.254902 0.007843
0.886275 0.282353 0.000000
0.956863 0.301961 0.000000
1.000000 0.325490 0.000000
0.070588 0.074510 0.054902
0.082353 0.082353 0.050980
0.101961 0.086275 0.039216
0.129412 0.090196 0.043137
0.160784 0.101961 0.027451
0.203922 0.105882 0.027451
0.235294 0.109804 0.027451
0.266667 0.121569 0.019608
0.309804 0.125490 0.015686
0.349020 0.133333 0.011765
0.384314 0.137255 0.000000
0.423529 0.152941 0.000000
0.450980 0.156863 0.000000
0.482353 0.164706 0.000000
0.517647 0.172549 0.000000
0.541176 0.188235 0.000000
0.576471 0.192157 0.000000
0.615686 0.203922 0.000000
0.658824 0.219608 0.000000
0.717647 0.231373 0.000000
0.764706 0.250980 0.000000
0.831373 0.274510 0.000000
0.894118 0.294118 0.000000
0.956863 0.313725 0.000000
1.000000 0.333333 0.000000
0.090196 0.101961 0.058824
0.098039 0.105882 0.062745
0.109804 0.113725 0.050980
0.149020 0.133333 0.035294
0.168627 0.121569 0.027451
0.200000 0.133333 0.031373
0.243137 0.137255 0.023529
0.278431 0.141176 0.015686
0.317647 0.152941 0.011765
0.352941 0.160784 0.003922
0.396078 0.172549 0.003922
0.431373 0.168627 0.003922
0.458824 0.172549 0.003922
0.490196 0.184314 0.000000
0.517647 0.188235 0.003922
0.549020 0.196078 0.000000
0.580392 0.207843 0.000000
0.619608 0.215686 0.007843
0.662745 0.231373 0.000000
0.709804 0.247059 0.000000
0.768627 0.262745 0.000000
0.831373 0.286275 0.000000
0.898039 0.305882 0.003922
0.956863 0.329412 0.000000
1.000000 0.345098 0.000000
0.105882 0.133333 0.070588
0.117647 0.133333 0.074510
0.125490 0.141176 0.047059
0.156863 0.152941 0.043137
0.188235 0.164706 0.023529
0.211765 0.156863 0.019608
0.250980 0.164706 0.011765
0.294118 0.168627 0.015686
0.321569 0.176471 0.000000
0.356863 0.184314 0.000000
0.392157 0.188235 0.003922
0.431373 0.196078 0.000000
0.458824 0.200000 0.000000
0.490196 0.203922 0.003922
0.521569 0.207843 0.000000
0.552941 0.219608 0.003922
0.584314 0.231373 0.003922
0.623529 0.239216 0.000000
0.670588 0.247059 0.000000
0.725490 0.266667 0.000000
0.780392 0.278431 0.000000
0.839216 0.301961 0.000000
0.901961 0.321569 0.000000
0.968627 0.341176 0.003922
1.000000 0.364706 0.000000
0.137255 0.172549 0.090196
0.145098 0.172549 0.101961
0.152941 0.172549 0.078431
0.172549 0.184314 0.062745
0.192157 0.196078 0.039216
0.231373 0.207843 0.003922
0.262745 0.200000 0.007843
0.286275 0.196078 0.000000
0.325490 0.207843 0.000000
0.360784 0.215686 0.003922
0.403922 0.219608 0.000000
0.427451 0.223529 0.000000
0.462745 0.227451 0.000000
0.490196 0.231373 0.000000
0.517647 0.235294 0.003922
0.556863 0.243137 0.003922
0.584314 0.250980 0.000000
0.623529 0.258824 0.000000
0.678431 0.274510 0.003922
0.721569 0.282353 0.000000
0.784314 0.309804 0.003922
0.839216 0.321569 0.000000
0.905882 0.345098 0.000000
0.976471 0.364706 0.000000
1.000000 0.384314 0.003922
0.164706 0.215686 0.109804
0.168627 0.219608 0.113725
0.188235 0.211765 0.109804
0.184314 0.223529 0.090196
0.207843 0.227451 0.070588
0.243137 0.243137 0.039216
0.286275 0.247059 0.000000
0.298039 0.235294 0.000000
0.333333 0.239216 0.000000
0.364706 0.239216 0.007843
0.400000 0.243137 0.000000
0.431373 0.254902 0.007843
0.462745 0.262745 0.007843
0.494118 0.262745 0.000000
0.525490 0.262745 0.000000
0.560784 0.270588 0.000000
0.592157 0.278431 0.000000
0.631373 0.286275 0.000000
0.682353 0.301961 0.000000
0.733333 0.313725 0.000000
0.792157 0.329412 0.000000
0.847059 0.349020 0.000000
0.917647 0.368627 0.000000
0.980392 0.388235 0.000000
0.996078 0.407843 0.000000
0.200000 0.258824 0.137255
0.203922 0.254902 0.137255
0.215686 0.258824 0.141176
0.223529 0.262745 0.129412
0.239216 0.270588 0.109804
0.250980 0.278431 0.078431
0.286275 0.286275 0.043137
0.325490 0.294118 0.000000
0.341176 0.274510 0.000000
0.372549 0.278431 0.000000
0.403922 0.274510 0.000000
0.431373 0.282353 0.000000
0.470588 0.290196 0.003922
0.501961 0.282353 0.000000
0.537255 0.294118 0.000000
0.564706 0.298039 0.003922
0.607843 0.305882 0.000000
0.643137 0.317647 0.003922
0.690196 0.329412 0.000000
0.741176 0.345098 0.000000
0.796078 0.364706 0.000000
0.858824 0.380392 0.007843
0.921569 0.400000 0.000000
0.992157 0.419608 0.000000
0.996078 0.435294 0.000000
0.235294 0.301961 0.168627
0.243137 0.301961 0.172549
0.247059 0.301961 0.172549
0.258824 0.301961 0.168627
0.258824 0.309804 0.141176
0.274510 0.313725 0.117647
0.294118 0.313725 0.086275
0.329412 0.337255 0.043137
0.372549 0.333333 0.000000
0.380392 0.313725 0.007843
0.411765 0.305882 0.000000
0.439216 0.309804 0.000000
0.474510 0.313725 0.000000
0.501961 0.317647 0.003922
0.537255 0.321569 0.000000
0.568627 0.333333 0.003922
0.615686 0.341176 0.000000
0.650980 0.349020 0.000000
0.701961 0.364706 0.000000
0.752941 0.376471 0.003922
0.807843 0.396078 0.000000
0.874510 0.407843 0.000000
0.933333 0.431373 0.003922
0.992157 0.450980 0.000000
0.996078 0.466667 0.003922
0.270588 0.329412 0.200000
0.278431 0.341176 0.200000
0.286275 0.341176 0.203922
0.294118 0.337255 0.203922
0.298039 0.345098 0.188235
0.301961 0.349020 0.168627
0.321569 0.364706 0.145098
0.337255 0.364706 0.101961
0.376471 0.372549 0.050980
0.396078 0.372549 0.000000
0.423529 0.345098 0.003922
0.439216 0.345098 0.000000
0.470588 0.345098 0.011765
0.501961 0.345098 0.000000
0.545098 0.349020 0.000000
0.564706 0.364706 0.000000
0.615686 0.368627 0.000000
0.658824 0.384314 0.007843
0.709804 0.400000 0.003922
0.772549 0.415686 0.000000
0.827451 0.435294 0.000000
0.886275 0.450980 0.000000
0.945098 0.466667 0.000000
1.000000 0.482353 0.007843
0.988235 0.498039 0.000000
0.309804 0.380392 0.223529
0.309804 0.380392 0.231373
0.313725 0.384314 0.235294
0.325490 0.380392 0.243137
0.337255 0.384314 0.235294
0.337255 0.388235 0.207843
0.337255 0.392157 0.192157
0.356863 0.403922 0.160784
0.380392 0.403922 0.121569
0.407843 0.400000 0.058824
0.435294 0.407843 0.000000
0.443137 0.384314 0.000000
0.474510 0.372549 0.000000
0.501961 0.376471 0.000000
0.537255 0.380392 0.000000
0.568627 0.392157 0.000000
0.615686 0.400000 0.003922
0.678431 0.415686 0.003922
0.721569 0.431373 0.003922
0.776471 0.450980 0.000000
0.839216 0.470588 0.000000
0.898039 0.486275 0.000000
0.956863 0.509804 0.000000
1.000000 0.521569 0.000000
1.000000 0.545098 0.000000
0.333333 0.415686 0.254902
0.352941 0.415686 0.270588
0.337255 0.415686 0.266667
0.360784 0.415686 0.278431
0.360784 0.415686 0.274510
0.372549 0.423529 0.254902
0.372549 0.427451 0.235294
0.376471 0.427451 0.207843
0.396078 0.435294 0.188235
0.419608 0.447059 0.141176
0.454902 0.443137 0.078431
0.478431 0.450980 0.000000
0.486275 0.423529 0.000000
0.505882 0.411765 0.000000
0.552941 0.407843 0.000000
0.584314 0.427451 0.000000
0.635294 0.439216 0.003922
0.674510 0.450980 0.000000
0.725490 0.466667 0.000000
0.796078 0.482353 0.000000
0.847059 0.505882 0.000000
0.917647 0.529412 0.000000
0.972549 0.545098 0.000000
1.000000 0.560784 0.000000
0.996078 0.572549 0.003922
0.376471 0.458824 0.290196
0.368627 0.466667 0.301961
0.384314 0.454902 0.298039
0.388235 0.458824 0.309804
0.400000 0.462745 0.309804
0.400000 0.466667 0.294118
0.403922 0.474510 0.270588
0.419608 0.470588 0.262745
0.419608 0.482353 0.227451
0.443137 0.482353 0.203922
0.466667 0.490196 0.145098
0.494118 0.486275 0.082353
0.525490 0.486275 0.003922
0.533333 0.470588 0.000000
0.552941 0.447059 0.000000
0.592157 0.454902 0.000000
0.635294 0.470588 0.000000
0.682353 0.482353 0.000000
0.741176 0.501961 0.003922
0.788235 0.521569 0.000000
0.854902 0.545098 0.000000
0.917647 0.564706 0.000000
0.980392 0.592157 0.000000
1.000000 0.607843 0.000000
1.000000 0.611765 0.003922
0.400000 0.517647 0.321569
0.407843 0.513725 0.337255
0.403922 0.517647 0.329412
0.411765 0.513725 0.329412
0.439216 0.513725 0.337255
0.427451 0.513725 0.329412
0.435294 0.525490 0.305882
0.443137 0.517647 0.290196
0.458824 0.533333 0.274510
0.478431 0.533333 0.231373
0.490196 0.545098 0.203922
0.525490 0.549020 0.156863
0.549020 0.549020 0.078431
0.580392 0.545098 0.000000
0.584314 0.517647 0.000000
0.607843 0.501961 0.000000
0.643137 0.505882 0.003922
0.705882 0.521569 0.003922
0.749020 0.541176 0.000000
0.811765 0.568627 0.007843
0.870588 0.580392 0.000000
0.933333 0.600000 0.000000
0.988235 0.619608 0.000000
1.000000 0.635294 0.000000
1.000000 0.647059 0.000000
0.427451 0.576471 0.345098
0.435294 0.572549 0.345098
0.439216 0.568627 0.352941
0.450980 0.568627 0.356863
0.458824 0.568627 0.368627
0.462745 0.576471 0.364706
0.470588 0.580392 0.341176
0.482353 0.584314 0.329412
0.486275 0.588235 0.309804
0.505882 0.596078 0.282353
0.525490 0.600000 0.250980
0.556863 0.603922 0.203922
0.580392 0.607843 0.152941
0.611765 0.607843 0.058824
0.643137 0.607843 0.000000
0.650980 0.584314 0.000000
0.662745 0.560784 0.000000
0.705882 0.556863 0.000000
0.764706 0.580392 0.000000
0.819608 0.596078 0.000000
0.878431 0.619608 0.007843
0.941176 0.635294 0.000000
1.000000 0.662745 0.000000
0.996078 0.678431 0.000000
1.000000 0.678431 0.000000
0.478431 0.643137 0.384314
0.478431 0.643137 0.384314
0.474510 0.639216 0.388235
0.486275 0.639216 0.392157
0.498039 0.639216 0.396078
0.509804 0.643137 0.407843
0.509804 0.647059 0.380392
0.525490 0.654902 0.376471
0.529412 0.650980 0.337255
0.556863 0.658824 0.317647
0.568627 0.670588 0.282353
0.596078 0.670588 0.250980
0.623529 0.678431 0.203922
0.658824 0.674510 0.141176
0.674510 0.682353 0.011765
0.717647 0.670588 0.000000
0.717647 0.643137 0.000000
0.733333 0.623529 0.000000
0.776471 0.619608 0.000000
0.831373 0.639216 0.000000
0.890196 0.658824 0.007843
0.956863 0.674510 0.000000
0.996078 0.694118 0.000000
1.000000 0.709804 0.000000
1.000000 0.717647 0.000000
0.509804 0.713725 0.423529
0.525490 0.721569 0.435294
0.525490 0.709804 0.435294
0.525490 0.709804 0.427451
0.549020 0.709804 0.443137
0.552941 0.713725 0.454902
0.552941 0.713725 0.439216
0.572549 0.725490 0.411765
0.576471 0.725490 0.392157
0.596078 0.733333 0.372549
0.611765 0.737255 0.341176
0.643137 0.737255 0.305882
0.658824 0.745098 0.258824
0.690196 0.745098 0.207843
0.713725 0.752941 0.129412
0.760784 0.749020 0.007843
0.788235 0.737255 0.000000
0.800000 0.713725 0.000000
0.803922 0.686275 0.000000
0.843137 0.686275 0.000000
0.905882 0.701961 0.000000
0.960784 0.717647 0.000000
1.000000 0.733333 0.000000
0.996078 0.749020 0.000000
1.000000 0.756863 0.000000
0.556863 0.784314 0.486275
0.580392 0.784314 0.494118
0.564706 0.788235 0.486275
0.584314 0.788235 0.505882
0.580392 0.784314 0.494118
0.603922 0.788235 0.513725
0.619608 0.784314 0.525490
0.627451 0.792157 0.501961
0.635294 0.788235 0.462745
0.635294 0.796078 0.427451
0.658824 0.796078 0.403922
0.670588 0.803922 0.360784
0.694118 0.807843 0.305882
0.721569 0.811765 0.254902
0.756863 0.819608 0.192157
0.792157 0.807843 0.121569
0.823529 0.815686 0.003922
0.866667 0.807843 0.003922
0.866667 0.776471 0.000000
0.882353 0.752941 0.000000
0.917647 0.745098 0.011765
0.972549 0.760784 0.000000
1.000000 0.772549 0.007843
1.000000 0.780392 0.000000
0.996078 0.788235 0.000000
0.623529 0.843137 0.556863
0.627451 0.847059 0.552941
0.635294 0.847059 0.552941
0.643137 0.847059 0.556863
0.650980 0.847059 0.568627
0.654902 0.850980 0.572549
0.678431 0.843137 0.584314
0.686275 0.847059 0.588235
0.682353 0.850980 0.541176
0.690196 0.854902 0.525490
0.713725 0.858824 0.482353
0.713725 0.862745 0.435294
0.729412 0.870588 0.384314
0.760784 0.870588 0.337255
0.780392 0.870588 0.274510
0.819608 0.870588 0.211765
0.850980 0.874510 0.105882
0.890196 0.870588 0.000000
0.925490 0.862745 0.000000
0.937255 0.847059 0.000000
0.949020 0.807843 0.000000
0.980392 0.796078 0.000000
1.000000 0.811765 0.000000
0.988235 0.815686 0.000000
0.996078 0.815686 0.000000
0.682353 0.898039 0.631373
0.694118 0.898039 0.639216
0.690196 0.894118 0.635294
0.690196 0.898039 0.631373
0.705882 0.898039 0.643137
0.717647 0.898039 0.647059
0.733333 0.894118 0.666667
0.741176 0.898039 0.650980
0.737255 0.898039 0.639216
0.741176 0.898039 0.611765
0.749020 0.901961 0.576471
0.760784 0.905882 0.529412
0.780392 0.909804 0.490196
0.792157 0.913725 0.447059
0.807843 0.917647 0.372549
0.839216 0.921569 0.313725
0.882353 0.921569 0.239216
0.913725 0.921569 0.117647
0.941176 0.917647 0.000000
0.984314 0.913725 0.000000
1.000000 0.894118 0.000000
1.000000 0.862745 0.000000
1.000000 0.850980 0.007843
1.000000 0.847059 0.007843
1.000000 0.858824 0.003922
0.713725 0.901961 0.666667
0.717647 0.905882 0.678431
0.721569 0.909804 0.682353
0.721569 0.909804 0.682353
0.737255 0.905882 0.698039
0.749020 0.905882 0.698039
0.756863 0.905882 0.713725
0.772549 0.905882 0.709804
0.780392 0.913725 0.705882
0.772549 0.909804 0.674510
0.772549 0.909804 0.643137
0.776471 0.921569 0.619608
0.792157 0.925490 0.588235
0.803922 0.929412 0.533333
0.819608 0.925490 0.482353
0.839216 0.941176 0.419608
0.874510 0.937255 0.356863
0.901961 0.941176 0.258824
0.937255 0.941176 0.149020
0.972549 0.945098 0.003922
1.000000 0.941176 0.000000
1.000000 0.925490 0.007843
1.000000 0.898039 0.000000
0.996078 0.882353 0.000000
1.000000 0.874510 0.000000
0.784314 0.949020 0.752941
0.788235 0.941176 0.756863
0.780392 0.952941 0.745098
0.796078 0.949020 0.764706
0.792157 0.949020 0.752941
0.811765 0.941176 0.764706
0.819608 0.949020 0.780392
0.823529 0.945098 0.780392
0.823529 0.945098 0.772549
0.819608 0.949020 0.764706
0.823529 0.952941 0.729412
0.823529 0.964706 0.713725
0.827451 0.949020 0.674510
0.839216 0.960784 0.647059
0.854902 0.968627 0.603922
0.858824 0.968627 0.533333
0.894118 0.972549 0.490196
0.909804 0.968627 0.411765
0.945098 0.972549 0.321569
0.972549 0.972549 0.203922
0.996078 0.976471 0.000000
1.000000 0.976471 0.011765
1.000000 0.956863 0.000000
1.000000 0.937255 0.003922
1.000000 0.913725 0.000000
0.839216 0.976471 0.811765
0.827451 0.968627 0.811765
0.843137 0.968627 0.815686
0.827451 0.972549 0.803922
0.854902 0.972549 0.823529
0.850980 0.968627 0.827451
0.862745 0.968627 0.831373
0.866667 0.960784 0.819608
0.870588 0.968627 0.843137
0.870588 0.972549 0.835294
0.866667 0.976471 0.815686
0.874510 0.976471 0.788235
0.862745 0.980392 0.776471
0.870588 0.984314 0.733333
0.882353 0.984314 0.705882
0.878431 0.988235 0.647059
0.901961 0.988235 0.603922
0.917647 0.984314 0.537255
0.945098 1.000000 0.470588
0.960784 1.000000 0.376471
1.000000 0.996078 0.258824
1.000000 0.992157 0.070588
1.000000 0.992157 0.000000
1.000000 0.988235 0.003922
0.996078 0.956863 0.000000
0.878431 0.992157 0.866667
0.874510 0.992157 0.858824
0.874510 0.988235 0.870588
0.874510 0.988235 0.862745
0.882353 0.988235 0.862745
0.886275 0.992157 0.866667
0.894118 0.992157 0.870588
0.898039 0.988235 0.870588
0.909804 0.988235 0.882353
0.917647 0.992157 0.878431
0.894118 0.984314 0.866667
0.898039 1.000000 0.854902
0.905882 0.984314 0.835294
0.901961 0.992157 0.811765
0.905882 0.996078 0.784314
0.905882 1.000000 0.756863
0.917647 0.996078 0.709804
0.929412 1.000000 0.654902
0.937255 1.000000 0.607843
0.956863 1.000000 0.521569
0.988235 1.000000 0.431373
1.000000 1.000000 0.321569
1.000000 1.000000 0.164706
1.000000 1.000000 0.007843
1.000000 0.988235 0.007843
0.905882 1.000000 0.901961
0.905882 1.000000 0.898039
0.905882 0.996078 0.886275
0.917647 0.996078 0.898039
0.913725 1.000000 0.909804
0.905882 1.000000 0.913725
0.917647 0.992157 0.905882
0.917647 0.992157 0.905882
0.937255 0.996078 0.905882
0.925490 0.996078 0.901961
0.925490 0.996078 0.909804
0.933333 0.996078 0.894118
0.925490 1.000000 0.882353
0.921569 1.000000 0.854902
0.933333 1.000000 0.847059
0.929412 1.000000 0.827451
0.925490 1.000000 0.784314
0.933333 0.996078 0.749020
0.941176 0.992157 0.709804
0.956863 0.996078 0.654902
0.968627 0.996078 0.580392
0.992157 1.000000 0.490196
1.000000 1.000000 0.364706
0.996078 1.000000 0.215686
0.996078 0.996078 0.000000
0.070588 0.062745 0.066667
0.074510 0.058824 0.062745
0.094118 0.054902 0.058824
0.129412 0.054902 0.062745
0.168627 0.058824 0.054902
0.207843 0.066667 0.066667
0.258824 0.074510 0.047059
0.294118 0.086275 0.062745
0.337255 0.094118 0.043137
0.376471 0.105882 0.047059
0.407843 0.125490 0.039216
0.450980 0.133333 0.027451
0.482353 0.145098 0.015686
0.517647 0.145098 0.019608
0.533333 0.168627 0.007843
0.568627 0.164706 0.000000
0.596078 0.180392 0.000000
0.631373 0.192157 0.003922
0.674510 0.203922 0.007843
0.717647 0.223529 0.003922
0.768627 0.235294 0.007843
0.831373 0.258824 0.000000
0.894118 0.274510 0.000000
0.956863 0.294118 0.000000
1.000000 0.317647 0.007843
0.070588 0.074510 0.054902
0.086275 0.070588 0.066667
0.101961 0.070588 0.062745
0.133333 0.074510 0.047059
0.176471 0.086275 0.062745
0.219608 0.090196 0.062745
0.254902 0.098039 0.058824
0.298039 0.105882 0.050980
0.337255 0.113725 0.047059
0.384314 0.125490 0.031373
0.419608 0.141176 0.039216
0.462745 0.137255 0.019608
0.494118 0.156863 0.027451
0.525490 0.164706 0.011765
0.545098 0.176471 0.003922
0.576471 0.180392 0.000000
0.603922 0.188235 0.000000
0.643137 0.203922 0.007843
0.682353 0.215686 0.000000
0.725490 0.231373 0.000000
0.784314 0.247059 0.000000
0.843137 0.258824 0.000000
0.901961 0.282353 0.000000
0.972549 0.301961 0.000000
1.000000 0.329412 0.000000
0.074510 0.094118 0.070588
0.098039 0.094118 0.074510
0.113725 0.105882 0.058824
0.141176 0.101961 0.066667
0.176471 0.105882 0.050980
0.223529 0.113725 0.058824
0.262745 0.125490 0.047059
0.298039 0.129412 0.054902
0.341176 0.141176 0.035294
0.384314 0.145098 0.035294
0.435294 0.149020 0.023529
0.462745 0.168627 0.023529
0.498039 0.172549 0.015686
0.529412 0.184314 0.007843
0.556863 0.188235 0.000000
0.588235 0.196078 0.003922
0.615686 0.203922 0.000000
0.650980 0.215686 0.000000
0.694118 0.227451 0.007843
0.733333 0.243137 0.000000
0.784314 0.254902 0.000000
0.839216 0.274510 0.000000
0.905882 0.298039 0.003922
0.964706 0.309804 0.000000
1.000000 0.333333 0.000000
0.101961 0.125490 0.078431
0.121569 0.121569 0.082353
0.129412 0.129412 0.090196
0.156863 0.137255 0.054902
0.184314 0.141176 0.054902
0.227451 0.149020 0.054902
0.262745 0.156863 0.043137
0.305882 0.164706 0.039216
0.360784 0.164706 0.035294
0.392157 0.172549 0.035294
0.435294 0.180392 0.023529
0.466667 0.188235 0.015686
0.501961 0.196078 0.007843
0.537255 0.200000 0.007843
0.560784 0.211765 0.000000
0.596078 0.215686 0.000000
0.619608 0.227451 0.000000
0.654902 0.231373 0.000000
0.694118 0.239216 0.000000
0.741176 0.258824 0.003922
0.792157 0.270588 0.007843
0.843137 0.286275 0.000000
0.905882 0.305882 0.000000
0.968627 0.325490 0.003922
1.000000 0.345098 0.000000
0.129412 0.160784 0.101961
0.145098 0.160784 0.101961
0.152941 0.160784 0.105882
0.168627 0.176471 0.082353
0.203922 0.188235 0.050980
0.239216 0.184314 0.047059
0.286275 0.184314 0.047059
0.317647 0.192157 0.039216
0.360784 0.200000 0.027451
0.396078 0.207843 0.019608
0.450980 0.215686 0.011765
0.474510 0.215686 0.019608
0.505882 0.219608 0.011765
0.537255 0.227451 0.003922
0.560784 0.231373 0.000000
0.584314 0.231373 0.003922
0.627451 0.239216 0.007843
0.658824 0.254902 0.000000
0.698039 0.270588 0.007843
0.745098 0.274510 0.000000
0.796078 0.290196 0.000000
0.858824 0.305882 0.000000
0.909804 0.317647 0.000000
0.980392 0.341176 0.000000
1.000000 0.364706 0.000000
0.141176 0.176471 0.109804
0.149020 0.176471 0.105882
0.156863 0.176471 0.098039
0.176471 0.192157 0.094118
0.192157 0.196078 0.070588
0.223529 0.207843 0.031373
0.254902 0.196078 0.035294
0.290196 0.203922 0.019608
0.317647 0.211765 0.011765
0.356863 0.211765 0.000000
0.396078 0.215686 0.011765
0.427451 0.223529 0.000000
0.466667 0.223529 0.000000
0.490196 0.231373 0.000000
0.517647 0.235294 0.003922
0.560784 0.247059 0.007843
0.584314 0.250980 0.000000
0.623529 0.270588 0.003922
0.674510 0.274510 0.000000
0.725490 0.286275 0.000000
0.772549 0.305882 0.000000
0.835294 0.321569 0.000000
0.909804 0.341176 0.000000
0.976471 0.360784 0.011765
1.000000 0.384314 0.003922
0.168627 0.219608 0.113725
0.180392 0.219608 0.117647
0.184314 0.215686 0.125490
0.200000 0.223529 0.113725
0.211765 0.235294 0.086275
0.239216 0.243137 0.078431
0.274510 0.247059 0.035294
0.294118 0.235294 0.011765
0.325490 0.239216 0.007843
0.364706 0.239216 0.000000
0.396078 0.239216 0.000000
0.431373 0.254902 0.000000
0.466667 0.250980 0.000000
0.505882 0.254902 0.011765
0.525490 0.262745 0.000000
0.556863 0.262745 0.000000
0.588235 0.274510 0.000000
0.631373 0.286275 0.000000
0.682353 0.301961 0.000000
0.729412 0.309804 0.000000
0.788235 0.325490 0.000000
0.847059 0.349020 0.000000
0.913725 0.372549 0.000000
0.976471 0.388235 0.007843
0.992157 0.403922 0.000000
0.211765 0.262745 0.145098
0.203922 0.254902 0.145098
0.223529 0.258824 0.152941
0.227451 0.262745 0.149020
0.243137 0.274510 0.129412
0.250980 0.278431 0.105882
0.286275 0.282353 0.062745
0.317647 0.290196 0.015686
0.341176 0.274510 0.000000
0.372549 0.278431 0.003922
0.400000 0.270588 0.000000
0.431373 0.282353 0.000000
0.466667 0.286275 0.000000
0.498039 0.286275 0.000000
0.533333 0.290196 0.000000
0.564706 0.298039 0.003922
0.603922 0.309804 0.000000
0.647059 0.321569 0.007843
0.690196 0.329412 0.000000
0.741176 0.345098 0.000000
0.796078 0.364706 0.000000
0.862745 0.376471 0.000000
0.933333 0.392157 0.003922
0.992157 0.419608 0.000000
0.996078 0.435294 0.000000
0.235294 0.301961 0.160784
0.243137 0.301961 0.180392
0.247059 0.301961 0.172549
0.262745 0.298039 0.176471
0.278431 0.309804 0.164706
0.278431 0.313725 0.145098
0.298039 0.325490 0.121569
0.329412 0.325490 0.066667
0.360784 0.337255 0.007843
0.380392 0.313725 0.000000
0.400000 0.309804 0.000000
0.439216 0.309804 0.000000
0.478431 0.309804 0.000000
0.501961 0.317647 0.003922
0.541176 0.317647 0.000000
0.564706 0.329412 0.000000
0.603922 0.341176 0.000000
0.650980 0.349020 0.000000
0.713725 0.364706 0.003922
0.752941 0.376471 0.003922
0.815686 0.392157 0.000000
0.874510 0.407843 0.000000
0.937255 0.431373 0.000000
1.000000 0.447059 0.000000
1.000000 0.466667 0.003922
0.266667 0.345098 0.200000
0.278431 0.345098 0.203922
0.286275 0.341176 0.203922
0.298039 0.341176 0.215686
0.298039 0.345098 0.203922
0.309804 0.352941 0.188235
0.321569 0.360784 0.156863
0.341176 0.364706 0.121569
0.368627 0.368627 0.086275
0.403922 0.368627 0.003922
0.415686 0.349020 0.003922
0.447059 0.345098 0.003922
0.466667 0.352941 0.000000
0.501961 0.345098 0.000000
0.541176 0.356863 0.003922
0.576471 0.360784 0.000000
0.615686 0.372549 0.000000
0.658824 0.384314 0.000000
0.713725 0.392157 0.000000
0.768627 0.411765 0.000000
0.823529 0.431373 0.000000
0.886275 0.450980 0.000000
0.945098 0.466667 0.000000
0.988235 0.478431 0.000000
0.996078 0.501961 0.000000
0.301961 0.388235 0.235294
0.317647 0.384314 0.243137
0.317647 0.380392 0.239216
0.325490 0.380392 0.243137
0.333333 0.388235 0.247059
0.337255 0.388235 0.219608
0.349020 0.396078 0.207843
0.360784 0.396078 0.180392
