mpv/luts/FG_CineBasic.cube
#Generated with IWLTBAP LUT Generator
#Website: http://luts.iwltbap.com
TITLE "FG_CineBasic"
#LUT size
LUT_3D_SIZE 25
#LUT data points
0.101961 0.101961 0.101961
0.105882 0.105882 0.105882
0.109804 0.109804 0.101961
0.145098 0.113725 0.101961
0.172549 0.121569 0.098039
0.200000 0.121569 0.094118
0.235294 0.121569 0.090196
0.270588 0.125490 0.086275
0.301961 0.125490 0.098039
0.333333 0.141176 0.086275
0.376471 0.141176 0.101961
0.407843 0.145098 0.109804
0.447059 0.160784 0.105882
0.490196 0.164706 0.109804
0.525490 0.176471 0.121569
0.568627 0.188235 0.113725
0.607843 0.196078 0.113725
0.643137 0.203922 0.109804
0.674510 0.223529 0.113725
0.705882 0.235294 0.109804
0.749020 0.239216 0.113725
0.788235 0.247059 0.105882
0.831373 0.262745 0.101961
0.901961 0.278431 0.113725
0.933333 0.349020 0.200000
0.211765 0.101961 0.098039
0.113725 0.125490 0.098039
0.133333 0.121569 0.101961
0.160784 0.125490 0.098039
0.180392 0.121569 0.094118
0.203922 0.125490 0.098039
0.223529 0.129412 0.090196
0.258824 0.133333 0.086275
0.290196 0.137255 0.086275
0.317647 0.145098 0.094118
0.349020 0.145098 0.094118
0.400000 0.156863 0.113725
0.435294 0.164706 0.105882
0.474510 0.168627 0.117647
0.513725 0.180392 0.109804
0.552941 0.192157 0.109804
0.592157 0.200000 0.109804
0.627451 0.211765 0.117647
0.670588 0.223529 0.113725
0.705882 0.231373 0.117647
0.752941 0.243137 0.109804
0.792157 0.250980 0.109804
0.819608 0.270588 0.094118
0.901961 0.286275 0.117647
0.866667 0.360784 0.207843
0.180392 0.121569 0.094118
0.129412 0.145098 0.090196
0.145098 0.149020 0.094118
0.168627 0.145098 0.090196
0.188235 0.141176 0.094118
0.203922 0.141176 0.090196
0.227451 0.141176 0.090196
0.250980 0.141176 0.090196
0.278431 0.149020 0.090196
0.317647 0.152941 0.098039
0.337255 0.156863 0.098039
0.372549 0.164706 0.101961
0.411765 0.172549 0.101961
0.447059 0.180392 0.105882
0.494118 0.188235 0.109804
0.533333 0.200000 0.117647
0.568627 0.211765 0.109804
0.607843 0.211765 0.109804
0.654902 0.227451 0.109804
0.690196 0.239216 0.117647
0.729412 0.250980 0.113725
0.780392 0.258824 0.105882
0.827451 0.266667 0.094118
0.901961 0.290196 0.109804
0.901961 0.352941 0.184314
0.223529 0.129412 0.090196
0.137255 0.168627 0.086275
0.149020 0.168627 0.074510
0.168627 0.176471 0.094118
0.196078 0.176471 0.090196
0.203922 0.172549 0.094118
0.223529 0.164706 0.090196
0.250980 0.160784 0.098039
0.270588 0.156863 0.094118
0.301961 0.160784 0.098039
0.321569 0.172549 0.098039
0.356863 0.172549 0.101961
0.396078 0.180392 0.101961
0.431373 0.188235 0.105882
0.466667 0.200000 0.109804
0.513725 0.207843 0.117647
0.552941 0.219608 0.109804
0.596078 0.227451 0.117647
0.639216 0.235294 0.109804
0.674510 0.250980 0.117647
0.725490 0.258824 0.109804
0.772549 0.266667 0.109804
0.803922 0.278431 0.094118
0.866667 0.294118 0.101961
0.835294 0.368627 0.203922
0.211765 0.152941 0.078431
0.152941 0.192157 0.090196
0.168627 0.192157 0.090196
0.176471 0.200000 0.090196
0.192157 0.200000 0.105882
0.215686 0.200000 0.086275
0.235294 0.196078 0.098039
0.258824 0.188235 0.101961
0.282353 0.184314 0.098039
0.294118 0.184314 0.098039
0.305882 0.180392 0.098039
0.333333 0.184314 0.094118
0.368627 0.188235 0.098039
0.400000 0.196078 0.109804
0.447059 0.203922 0.105882
0.490196 0.219608 0.105882
0.529412 0.227451 0.117647
0.576471 0.239216 0.117647
0.619608 0.250980 0.113725
0.662745 0.254902 0.109804
0.709804 0.266667 0.109804
0.756863 0.274510 0.109804
0.803922 0.286275 0.105882
0.854902 0.301961 0.101961
0.894118 0.313725 0.094118
0.137255 0.231373 0.105882
0.149020 0.231373 0.109804
0.156863 0.231373 0.113725
0.188235 0.231373 0.105882
0.215686 0.235294 0.109804
0.247059 0.235294 0.113725
0.266667 0.223529 0.113725
0.282353 0.215686 0.105882
0.305882 0.203922 0.105882
0.317647 0.192157 0.109804
0.341176 0.192157 0.109804
0.368627 0.196078 0.098039
0.400000 0.196078 0.109804
0.431373 0.207843 0.109804
0.474510 0.215686 0.113725
0.513725 0.227451 0.109804
0.549020 0.231373 0.113725
0.592157 0.247059 0.109804
0.623529 0.262745 0.117647
0.654902 0.266667 0.105882
0.698039 0.282353 0.098039
0.745098 0.290196 0.098039
0.796078 0.305882 0.094118
0.854902 0.313725 0.098039
0.870588 0.372549 0.172549
0.270588 0.176471 0.066667
0.176471 0.243137 0.101961
0.196078 0.254902 0.094118
0.211765 0.250980 0.105882
0.235294 0.262745 0.101961
0.258824 0.266667 0.109804
0.290196 0.270588 0.113725
0.305882 0.254902 0.121569
0.337255 0.239216 0.117647
0.337255 0.219608 0.109804
0.349020 0.215686 0.105882
0.349020 0.207843 0.105882
0.388235 0.207843 0.113725
0.407843 0.211765 0.105882
0.450980 0.219608 0.105882
0.494118 0.235294 0.109804
0.529412 0.239216 0.109804
0.572549 0.250980 0.098039
0.615686 0.266667 0.109804
0.662745 0.274510 0.109804
0.709804 0.294118 0.105882
0.752941 0.298039 0.098039
0.792157 0.313725 0.090196
0.854902 0.329412 0.098039
0.800000 0.384314 0.188235
0.262745 0.231373 0.078431
0.192157 0.274510 0.105882
0.215686 0.282353 0.105882
0.235294 0.286275 0.105882
0.247059 0.294118 0.105882
0.266667 0.298039 0.105882
0.298039 0.305882 0.113725
0.341176 0.309804 0.117647
0.356863 0.298039 0.129412
0.380392 0.290196 0.125490
0.384314 0.266667 0.117647
0.384314 0.243137 0.109804
0.388235 0.235294 0.113725
0.400000 0.223529 0.109804
0.439216 0.231373 0.109804
0.474510 0.239216 0.105882
0.509804 0.250980 0.113725
0.552941 0.262745 0.117647
0.596078 0.278431 0.101961
0.643137 0.286275 0.109804
0.682353 0.298039 0.105882
0.741176 0.313725 0.094118
0.788235 0.325490 0.086275
0.862745 0.337255 0.090196
0.843137 0.388235 0.149020
0.309804 0.235294 0.070588
0.211765 0.317647 0.109804
0.235294 0.325490 0.105882
0.243137 0.325490 0.105882
0.254902 0.329412 0.109804
0.274510 0.333333 0.109804
0.305882 0.341176 0.125490
0.349020 0.352941 0.125490
0.380392 0.356863 0.121569
0.403922 0.333333 0.137255
0.423529 0.321569 0.129412
0.435294 0.305882 0.129412
0.435294 0.282353 0.121569
0.435294 0.262745 0.117647
0.427451 0.247059 0.113725
0.454902 0.247059 0.113725
0.490196 0.258824 0.109804
0.521569 0.274510 0.105882
0.576471 0.286275 0.109804
0.623529 0.294118 0.109804
0.670588 0.305882 0.101961
0.725490 0.325490 0.098039
0.768627 0.329412 0.094118
0.839216 0.352941 0.082353
0.752941 0.392157 0.168627
0.309804 0.309804 0.074510
0.227451 0.352941 0.098039
0.254902 0.356863 0.109804
0.258824 0.360784 0.105882
0.262745 0.360784 0.101961
0.294118 0.368627 0.109804
0.325490 0.376471 0.105882
0.360784 0.388235 0.117647
0.388235 0.392157 0.129412
0.431373 0.407843 0.117647
0.450980 0.380392 0.137255
0.490196 0.380392 0.141176
0.490196 0.352941 0.133333
0.486275 0.329412 0.137255
0.486275 0.305882 0.113725
0.478431 0.286275 0.117647
0.470588 0.266667 0.109804
0.505882 0.274510 0.109804
0.549020 0.286275 0.109804
0.592157 0.305882 0.109804
0.647059 0.313725 0.101961
0.690196 0.329412 0.098039
0.752941 0.349020 0.090196
0.815686 0.360784 0.074510
0.862745 0.380392 0.086275
0.223529 0.403922 0.117647
0.227451 0.407843 0.113725
0.223529 0.411765 0.121569
0.239216 0.411765 0.117647
0.250980 0.411765 0.113725
0.290196 0.411765 0.109804
0.329412 0.411765 0.109804
0.368627 0.423529 0.121569
0.403922 0.431373 0.125490
0.447059 0.443137 0.129412
0.490196 0.443137 0.145098
0.501961 0.419608 0.156863
0.556863 0.427451 0.164706
0.541176 0.392157 0.149020
0.529412 0.364706 0.137255
0.525490 0.341176 0.137255
0.517647 0.321569 0.125490
0.513725 0.301961 0.121569
0.521569 0.294118 0.117647
0.556863 0.305882 0.117647
0.603922 0.317647 0.109804
0.658824 0.345098 0.113725
0.725490 0.356863 0.086275
0.780392 0.376471 0.074510
0.776471 0.407843 0.164706
0.423529 0.392157 0.058824
0.258824 0.435294 0.109804
0.223529 0.458824 0.105882
0.294118 0.450980 0.101961
0.313725 0.447059 0.105882
0.321569 0.447059 0.113725
0.345098 0.447059 0.105882
0.364706 0.458824 0.113725
0.407843 0.462745 0.117647
0.458824 0.478431 0.117647
0.498039 0.494118 0.141176
0.541176 0.490196 0.129412
0.549020 0.474510 0.164706
0.615686 0.474510 0.168627
0.600000 0.443137 0.160784
0.588235 0.411765 0.149020
0.584314 0.384314 0.137255
0.584314 0.364706 0.141176
0.572549 0.341176 0.121569
0.568627 0.321569 0.121569
0.607843 0.329412 0.109804
0.654902 0.349020 0.105882
0.709804 0.360784 0.094118
0.760784 0.376471 0.050980
0.749020 0.454902 0.192157
0.407843 0.454902 0.023529
0.282353 0.482353 0.086275
0.258824 0.494118 0.101961
0.298039 0.482353 0.105882
0.329412 0.486275 0.098039
0.333333 0.490196 0.109804
0.356863 0.490196 0.109804
0.380392 0.498039 0.105882
0.419608 0.498039 0.109804
0.474510 0.521569 0.129412
0.509804 0.529412 0.125490
0.560784 0.541176 0.133333
0.596078 0.545098 0.145098
0.619608 0.525490 0.172549
0.670588 0.529412 0.184314
0.658824 0.494118 0.172549
0.654902 0.462745 0.164706
0.650980 0.439216 0.149020
0.647059 0.419608 0.141176
0.650980 0.403922 0.133333
0.647059 0.384314 0.105882
0.639216 0.360784 0.109804
0.682353 0.368627 0.082353
0.737255 0.392157 0.062745
0.760784 0.447059 0.160784
0.490196 0.494118 0.027451
0.298039 0.513725 0.105882
0.247059 0.537255 0.094118
0.333333 0.525490 0.098039
0.349020 0.529412 0.105882
0.356863 0.525490 0.101961
0.376471 0.529412 0.101961
0.400000 0.533333 0.101961
0.439216 0.541176 0.113725
0.478431 0.549020 0.117647
0.521569 0.568627 0.129412
0.568627 0.568627 0.133333
0.615686 0.588235 0.133333
0.654902 0.592157 0.156863
0.670588 0.572549 0.180392
0.725490 0.588235 0.196078
0.725490 0.552941 0.176471
0.721569 0.509804 0.164706
0.709804 0.482353 0.152941
0.709804 0.454902 0.141176
0.705882 0.435294 0.129412
0.705882 0.419608 0.117647
0.729412 0.427451 0.090196
0.741176 0.411765 0.027451
0.882353 0.596078 0.227451
0.454902 0.537255 0.000000
0.333333 0.564706 0.062745
0.286275 0.576471 0.086275
0.333333 0.572549 0.098039
0.356863 0.572549 0.101961
0.372549 0.572549 0.098039
0.396078 0.568627 0.094118
0.431373 0.568627 0.098039
0.458824 0.584314 0.101961
0.501961 0.584314 0.109804
0.537255 0.603922 0.101961
0.576471 0.615686 0.125490
0.615686 0.619608 0.121569
0.666667 0.639216 0.129412
0.701961 0.639216 0.160784
0.725490 0.623529 0.180392
0.788235 0.627451 0.203922
0.792157 0.607843 0.192157
0.784314 0.576471 0.176471
0.780392 0.545098 0.160784
0.780392 0.521569 0.141176
0.784314 0.498039 0.129412
0.792157 0.482353 0.117647
0.792157 0.466667 0.090196
0.815686 0.466667 0.066667
0.329412 0.650980 0.109804
0.329412 0.650980 0.109804
0.329412 0.654902 0.105882
0.321569 0.650980 0.105882
0.337255 0.658824 0.125490
0.360784 0.650980 0.105882
0.403922 0.650980 0.101961
0.439216 0.654902 0.094118
0.474510 0.647059 0.094118
0.498039 0.658824 0.105882
0.533333 0.662745 0.101961
0.576471 0.666667 0.117647
0.615686 0.682353 0.125490
0.678431 0.694118 0.149020
0.717647 0.705882 0.152941
0.764706 0.713725 0.160784
0.788235 0.698039 0.192157
0.831373 0.694118 0.223529
0.874510 0.698039 0.247059
0.882353 0.674510 0.219608
0.894118 0.654902 0.200000
0.898039 0.619608 0.172549
0.894118 0.588235 0.156863
0.890196 0.552941 0.125490
0.988235 0.698039 0.278431
0.607843 0.670588 0.000000
0.172549 0.705882 0.078431
0.372549 0.690196 0.082353
0.396078 0.690196 0.082353
0.400000 0.694118 0.086275
0.403922 0.690196 0.094118
0.427451 0.698039 0.098039
0.439216 0.694118 0.090196
0.470588 0.690196 0.090196
0.517647 0.694118 0.094118
0.560784 0.705882 0.098039
0.588235 0.705882 0.117647
0.635294 0.713725 0.121569
0.670588 0.729412 0.129412
0.717647 0.745098 0.137255
0.768627 0.745098 0.156863
0.819608 0.756863 0.180392
0.843137 0.741176 0.207843
0.878431 0.741176 0.247059
0.921569 0.725490 0.243137
0.933333 0.701961 0.231373
0.933333 0.682353 0.200000
0.949020 0.654902 0.188235
0.941176 0.607843 0.141176
1.000000 0.839216 0.400000
0.564706 0.701961 0.000000
0.223529 0.749020 0.070588
0.352941 0.741176 0.070588
0.411765 0.733333 0.090196
0.415686 0.741176 0.090196
0.427451 0.737255 0.082353
0.443137 0.737255 0.090196
0.470588 0.733333 0.078431
0.494118 0.733333 0.082353
0.529412 0.733333 0.066667
0.580392 0.733333 0.074510
0.588235 0.749020 0.090196
0.639216 0.749020 0.105882
0.678431 0.760784 0.121569
0.717647 0.764706 0.129412
0.772549 0.780392 0.156863
0.815686 0.792157 0.172549
0.862745 0.796078 0.200000
0.894118 0.780392 0.231373
0.909804 0.776471 0.250980
0.972549 0.780392 0.274510
0.980392 0.764706 0.258824
0.988235 0.733333 0.231373
1.000000 0.694118 0.211765
1.000000 0.831373 0.380392
0.654902 0.752941 0.007843
0.000000 0.800000 0.043137
0.431373 0.780392 0.082353
0.439216 0.772549 0.062745
0.443137 0.768627 0.078431
0.454902 0.780392 0.082353
0.462745 0.776471 0.082353
0.474510 0.776471 0.078431
0.501961 0.780392 0.074510
0.549020 0.772549 0.070588
0.580392 0.772549 0.070588
0.611765 0.780392 0.082353
0.654902 0.788235 0.101961
0.690196 0.792157 0.121569
0.733333 0.803922 0.137255
0.776471 0.811765 0.149020
0.827451 0.823529 0.172549
0.866667 0.831373 0.176471
0.917647 0.847059 0.219608
0.945098 0.819608 0.250980
0.976471 0.811765 0.286275
1.000000 0.815686 0.313725
0.992157 0.792157 0.294118
1.000000 0.741176 0.215686
1.000000 0.913725 0.403922
0.600000 0.792157 0.000000
0.301961 0.823529 0.066667
0.407843 0.823529 0.054902
0.450980 0.807843 0.058824
0.462745 0.811765 0.066667
0.466667 0.815686 0.070588
0.486275 0.819608 0.078431
0.509804 0.819608 0.074510
0.533333 0.819608 0.062745
0.572549 0.815686 0.043137
0.607843 0.807843 0.050980
0.635294 0.811765 0.062745
0.670588 0.827451 0.094118
0.705882 0.831373 0.105882
0.733333 0.843137 0.125490
0.788235 0.847059 0.137255
0.823529 0.854902 0.168627
0.870588 0.866667 0.176471
0.917647 0.878431 0.200000
0.964706 0.882353 0.231373
0.980392 0.866667 0.266667
1.000000 0.847059 0.294118
1.000000 0.850980 0.329412
1.000000 0.819608 0.301961
1.000000 0.819608 0.309804
0.556863 0.886275 0.400000
0.549020 0.878431 0.392157
0.549020 0.886275 0.403922
0.556863 0.886275 0.407843
0.572549 0.878431 0.400000
0.600000 0.878431 0.400000
0.627451 0.886275 0.400000
0.658824 0.878431 0.388235
0.690196 0.878431 0.400000
0.721569 0.886275 0.396078
0.756863 0.890196 0.411765
0.784314 0.898039 0.427451
0.839216 0.894118 0.450980
0.862745 0.901961 0.454902
0.901961 0.909804 0.474510
0.941176 0.913725 0.498039
0.972549 0.913725 0.517647
0.984314 0.901961 0.537255
1.000000 0.890196 0.564706
1.000000 0.886275 0.588235
1.000000 0.866667 0.549020
0.992157 0.843137 0.517647
1.000000 0.800000 0.450980
1.000000 0.784314 0.431373
0.996078 0.886275 0.600000
0.870588 0.917647 0.415686
0.623529 0.933333 0.435294
0.627451 0.917647 0.427451
0.647059 0.929412 0.435294
0.647059 0.929412 0.427451
0.654902 0.929412 0.439216
0.666667 0.925490 0.439216
0.686275 0.921569 0.435294
0.717647 0.921569 0.435294
0.749020 0.929412 0.443137
0.776471 0.929412 0.462745
0.815686 0.929412 0.458824
0.835294 0.941176 0.490196
0.874510 0.941176 0.501961
0.913725 0.941176 0.525490
0.945098 0.949020 0.541176
0.980392 0.949020 0.560784
1.000000 0.949020 0.584314
1.000000 0.929412 0.600000
1.000000 0.925490 0.639216
1.000000 0.909804 0.635294
1.000000 0.890196 0.603922
1.000000 0.870588 0.564706
1.000000 0.796078 0.458824
1.000000 0.937255 0.698039
0.874510 0.956863 0.494118
0.674510 0.960784 0.498039
0.670588 0.960784 0.478431
0.666667 0.960784 0.486275
0.686275 0.964706 0.486275
0.690196 0.964706 0.486275
0.701961 0.956863 0.494118
0.725490 0.964706 0.490196
0.745098 0.956863 0.486275
0.788235 0.964706 0.498039
0.796078 0.964706 0.513725
0.843137 0.972549 0.521569
0.858824 0.968627 0.537255
0.901961 0.976471 0.556863
0.933333 0.976471 0.568627
0.960784 0.980392 0.588235
0.984314 0.972549 0.607843
1.000000 0.972549 0.615686
0.992157 0.960784 0.635294
1.000000 0.945098 0.643137
0.996078 0.949020 0.666667
1.000000 0.929412 0.682353
1.000000 0.917647 0.670588
0.988235 0.909804 0.623529
1.000000 0.941176 0.717647
0.909804 0.988235 0.545098
0.705882 0.996078 0.552941
0.705882 1.000000 0.537255
0.721569 0.996078 0.541176
0.733333 1.000000 0.545098
0.729412 1.000000 0.545098
0.749020 1.000000 0.552941
0.752941 0.996078 0.560784
0.784314 0.996078 0.556863
0.807843 0.996078 0.556863
0.835294 1.000000 0.560784
0.854902 0.996078 0.580392
0.886275 0.996078 0.596078
0.905882 0.992157 0.596078
0.925490 0.984314 0.611765
0.945098 0.980392 0.623529
0.960784 0.976471 0.643137
0.988235 0.968627 0.650980
0.996078 0.960784 0.666667
0.992157 0.956863 0.686275
0.992157 0.956863 0.701961
1.000000 0.945098 0.729412
1.000000 0.941176 0.737255
0.996078 0.917647 0.678431
1.000000 0.964706 0.733333
0.913725 0.996078 0.623529
0.764706 1.000000 0.615686
0.764706 1.000000 0.623529
0.764706 1.000000 0.615686
0.776471 1.000000 0.619608
0.784314 1.000000 0.623529
0.788235 1.000000 0.623529
0.803922 1.000000 0.623529
0.819608 1.000000 0.615686
0.839216 1.000000 0.623529
0.862745 1.000000 0.631373
0.878431 0.996078 0.643137
0.894118 0.996078 0.647059
0.913725 0.992157 0.658824
0.929412 0.988235 0.670588
0.941176 0.992157 0.682353
0.964706 0.972549 0.678431
0.976471 0.976471 0.701961
0.992157 0.972549 0.717647
0.992157 0.976471 0.729412
1.000000 0.964706 0.756863
1.000000 0.964706 0.772549
0.996078 0.960784 0.800000
0.992157 0.952941 0.811765
1.000000 0.945098 0.784314
0.086275 0.149020 0.098039
0.086275 0.149020 0.105882
0.078431 0.160784 0.101961
0.082353 0.172549 0.101961
0.086275 0.176471 0.105882
0.125490 0.172549 0.094118
0.160784 0.168627 0.078431
0.188235 0.172549 0.074510
0.211765 0.168627 0.082353
0.235294 0.164706 0.070588
0.262745 0.168627 0.058824
0.282353 0.164706 0.062745
0.290196 0.168627 0.054902
0.309804 0.164706 0.058824
0.333333 0.172549 0.062745
0.349020 0.172549 0.050980
0.368627 0.172549 0.066667
0.392157 0.172549 0.050980
0.407843 0.176471 0.050980
0.435294 0.184314 0.043137
0.478431 0.196078 0.047059
0.537255 0.215686 0.031373
0.607843 0.243137 0.039216
0.682353 0.258824 0.015686
0.521569 0.286275 0.090196
0.149020 0.149020 0.101961
0.050980 0.184314 0.086275
0.058824 0.184314 0.101961
0.058824 0.172549 0.086275
0.090196 0.184314 0.098039
0.125490 0.188235 0.086275
0.149020 0.192157 0.074510
0.176471 0.188235 0.066667
0.203922 0.192157 0.062745
0.223529 0.180392 0.062745
0.247059 0.184314 0.054902
0.274510 0.184314 0.062745
0.298039 0.184314 0.058824
0.309804 0.172549 0.047059
0.317647 0.176471 0.043137
0.337255 0.180392 0.050980
0.364706 0.172549 0.054902
0.368627 0.176471 0.047059
0.400000 0.188235 0.047059
0.427451 0.176471 0.027451
0.470588 0.188235 0.031373
0.525490 0.223529 0.019608
0.576471 0.235294 0.023529
0.643137 0.258824 0.011765
0.541176 0.329412 0.094118
0.125490 0.180392 0.090196
0.019608 0.200000 0.086275
0.023529 0.196078 0.090196
0.047059 0.200000 0.078431
0.082353 0.196078 0.070588
0.113725 0.207843 0.074510
0.141176 0.203922 0.062745
0.172549 0.203922 0.058824
0.196078 0.203922 0.058824
0.215686 0.207843 0.054902
0.247059 0.192157 0.047059
0.262745 0.203922 0.043137
0.286275 0.196078 0.035294
0.305882 0.200000 0.031373
0.317647 0.192157 0.031373
0.337255 0.184314 0.031373
0.352941 0.188235 0.047059
0.352941 0.180392 0.035294
0.380392 0.188235 0.031373
0.392157 0.192157 0.023529
0.435294 0.192157 0.031373
0.478431 0.215686 0.011765
0.537255 0.231373 0.000000
0.607843 0.250980 0.000000
0.592157 0.372549 0.031373
0.188235 0.188235 0.078431
0.000000 0.231373 0.058824
0.031373 0.219608 0.066667
0.054902 0.219608 0.070588
0.082353 0.219608 0.050980
0.098039 0.219608 0.054902
0.129412 0.219608 0.054902
0.156863 0.219608 0.043137
0.184314 0.211765 0.047059
0.215686 0.223529 0.027451
0.243137 0.219608 0.023529
0.258824 0.219608 0.011765
0.282353 0.211765 0.015686
0.294118 0.207843 0.011765
0.317647 0.211765 0.011765
0.337255 0.207843 0.007843
0.349020 0.207843 0.019608
0.360784 0.200000 0.019608
0.376471 0.192157 0.019608
0.392157 0.192157 0.023529
0.407843 0.196078 0.007843
0.458824 0.211765 0.003922
0.509804 0.235294 0.000000
0.572549 0.254902 0.000000
0.607843 0.411765 0.023529
0.137255 0.219608 0.058824
0.003922 0.235294 0.047059
0.019608 0.231373 0.039216
0.050980 0.231373 0.047059
0.074510 0.231373 0.035294
0.101961 0.235294 0.035294
0.121569 0.239216 0.027451
0.149020 0.243137 0.015686
0.180392 0.239216 0.023529
0.203922 0.239216 0.015686
0.235294 0.239216 0.011765
0.254902 0.239216 0.000000
0.274510 0.243137 0.000000
0.294118 0.231373 0.000000
0.317647 0.239216 0.003922
0.345098 0.223529 0.000000
0.345098 0.223529 0.000000
0.364706 0.219608 0.003922
0.376471 0.215686 0.003922
0.388235 0.207843 0.003922
0.400000 0.203922 0.003922
0.431373 0.215686 0.003922
0.486275 0.235294 0.000000
0.549020 0.247059 0.000000
0.603922 0.278431 0.011765
0.121569 0.215686 0.121569
0.117647 0.211765 0.117647
0.141176 0.215686 0.129412
0.160784 0.219608 0.129412
0.200000 0.219608 0.125490
0.227451 0.219608 0.129412
0.254902 0.211765 0.133333
0.270588 0.200000 0.121569
0.286275 0.196078 0.125490
0.301961 0.188235 0.125490
0.329412 0.188235 0.125490
0.352941 0.192157 0.113725
0.380392 0.196078 0.133333
0.407843 0.203922 0.121569
0.447059 0.211765 0.117647
0.486275 0.219608 0.129412
0.525490 0.231373 0.117647
0.572549 0.243137 0.133333
0.607843 0.254902 0.129412
0.643137 0.266667 0.129412
0.686275 0.282353 0.125490
0.737255 0.286275 0.125490
0.815686 0.294118 0.125490
0.874510 0.317647 0.137255
0.878431 0.372549 0.219608
0.262745 0.176471 0.082353
0.141176 0.227451 0.129412
0.180392 0.239216 0.117647
0.200000 0.243137 0.117647
0.215686 0.243137 0.113725
0.231373 0.243137 0.121569
0.262745 0.250980 0.121569
0.282353 0.235294 0.133333
0.305882 0.227451 0.133333
0.317647 0.223529 0.121569
0.321569 0.211765 0.125490
0.345098 0.207843 0.121569
0.360784 0.203922 0.113725
0.392157 0.203922 0.117647
0.427451 0.215686 0.121569
0.466667 0.223529 0.125490
0.501961 0.239216 0.125490
0.564706 0.254902 0.137255
0.596078 0.258824 0.121569
0.650980 0.278431 0.129412
0.690196 0.286275 0.125490
0.737255 0.294118 0.121569
0.784314 0.309804 0.133333
0.886275 0.325490 0.129412
0.788235 0.384314 0.215686
0.254902 0.219608 0.090196
0.172549 0.258824 0.109804
0.192157 0.262745 0.113725
0.203922 0.266667 0.113725
0.223529 0.262745 0.117647
0.239216 0.270588 0.117647
0.266667 0.274510 0.117647
0.301961 0.290196 0.129412
0.321569 0.270588 0.137255
0.345098 0.266667 0.137255
0.352941 0.250980 0.129412
0.364706 0.231373 0.121569
0.364706 0.223529 0.121569
0.376471 0.219608 0.117647
0.411765 0.227451 0.125490
0.443137 0.243137 0.121569
0.478431 0.239216 0.125490
0.533333 0.258824 0.129412
0.568627 0.274510 0.129412
0.615686 0.282353 0.129412
0.654902 0.290196 0.121569
0.705882 0.313725 0.121569
0.796078 0.317647 0.125490
0.870588 0.333333 0.121569
0.850980 0.388235 0.247059
0.290196 0.227451 0.086275
0.156863 0.282353 0.129412
0.188235 0.290196 0.113725
0.211765 0.298039 0.113725
0.231373 0.301961 0.113725
0.235294 0.305882 0.117647
0.274510 0.313725 0.117647
0.305882 0.321569 0.125490
0.349020 0.325490 0.121569
0.360784 0.301961 0.141176
0.396078 0.305882 0.141176
0.400000 0.282353 0.141176
0.407843 0.266667 0.125490
0.407843 0.254902 0.125490
0.411765 0.243137 0.117647
0.427451 0.243137 0.125490
0.462745 0.247059 0.125490
0.505882 0.258824 0.121569
0.556863 0.274510 0.125490
0.596078 0.294118 0.129412
0.650980 0.305882 0.125490
0.709804 0.317647 0.113725
0.749020 0.329412 0.117647
0.878431 0.345098 0.125490
0.756863 0.400000 0.235294
0.278431 0.278431 0.082353
0.188235 0.321569 0.113725
0.215686 0.329412 0.109804
0.227451 0.337255 0.109804
0.243137 0.333333 0.113725
0.254902 0.337255 0.113725
0.278431 0.349020 0.113725
0.321569 0.356863 0.133333
0.356863 0.360784 0.125490
0.403922 0.368627 0.137255
0.415686 0.349020 0.145098
0.454902 0.352941 0.152941
0.454902 0.337255 0.141176
0.454902 0.309804 0.133333
0.447059 0.294118 0.125490
0.454902 0.278431 0.125490
0.454902 0.258824 0.113725
0.478431 0.266667 0.117647
0.521569 0.278431 0.125490
0.572549 0.294118 0.125490
0.627451 0.313725 0.121569
0.682353 0.325490 0.121569
0.737255 0.345098 0.113725
0.796078 0.360784 0.113725
0.850980 0.368627 0.105882
0.203922 0.403922 0.133333
0.207843 0.407843 0.137255
0.211765 0.403922 0.137255
0.243137 0.411765 0.141176
0.262745 0.407843 0.137255
0.301961 0.407843 0.137255
0.337255 0.415686 0.137255
0.368627 0.419608 0.137255
