mpv/luts/FG_CineTeal&Orange1.cube
#Generated with IWLTBAP LUT Generator
#Website: http://luts.iwltbap.com
TITLE "FG_CineTeal&Orange1"
#LUT size
LUT_3D_SIZE 5
#LUT data points
0.066667 0.109804 0.125490
0.192157 0.121569 0.113725
0.607843 0.200000 0.054902
1.000000 0.298039 0.000000
1.000000 0.431373 0.168627
0.231373 0.141176 0.109804
0.203922 0.172549 0.121569
0.615686 0.227451 0.062745
0.992157 0.317647 0.003922
1.000000 0.439216 0.180392
0.329412 0.325490 0.113725
0.254902 0.392157 0.223529
0.705882 0.458824 0.101961
0.988235 0.407843 0.000000
0.996078 0.474510 0.125490
0.733333 0.686275 0.145098
0.400000 0.686275 0.407843
0.752941 0.733333 0.333333
1.000000 0.654902 0.172549
0.996078 0.721569 0.274510
0.949020 0.952941 0.678431
0.929412 0.956863 0.796078
1.000000 0.960784 0.760784
1.000000 0.921569 0.737255
1.000000 0.870588 0.654902
0.000000 0.133333 0.156863
0.113725 0.156863 0.180392
0.345098 0.160784 0.121569
0.843137 0.270588 0.031373
1.000000 0.396078 0.011765
0.227451 0.152941 0.129412
0.141176 0.192157 0.215686
0.501961 0.235294 0.192157
0.960784 0.325490 0.101961
1.000000 0.439216 0.180392
0.333333 0.325490 0.172549
0.207843 0.400000 0.313725
0.686275 0.462745 0.254902
0.992157 0.431373 0.172549
1.000000 0.486275 0.164706
0.741176 0.705882 0.200000
0.403922 0.701961 0.458824
0.725490 0.721569 0.396078
0.996078 0.662745 0.309804
1.000000 0.749020 0.407843
0.925490 0.949020 0.674510
0.898039 0.941176 0.784314
0.988235 0.960784 0.788235
1.000000 0.925490 0.768627
0.996078 0.882353 0.717647
0.000000 0.243137 0.341176
0.000000 0.235294 0.337255
0.396078 0.243137 0.364706
0.772549 0.376471 0.368627
1.000000 0.537255 0.466667
0.239216 0.200000 0.305882
0.000000 0.341176 0.450980
0.662745 0.419608 0.564706
0.952941 0.521569 0.486275
0.996078 0.725490 0.662745
0.325490 0.396078 0.396078
0.270588 0.576471 0.576471
0.615686 0.533333 0.513725
0.960784 0.556863 0.498039
1.000000 0.690196 0.592157
0.654902 0.709804 0.470588
0.682353 0.819608 0.701961
0.682353 0.737255 0.596078
0.996078 0.737255 0.549020
1.000000 0.827451 0.662745
0.913725 0.933333 0.807843
0.949020 0.960784 0.886275
0.949020 0.941176 0.843137
1.000000 0.937255 0.839216
1.000000 0.921569 0.827451
0.003922 0.447059 0.611765
0.000000 0.439216 0.611765
0.333333 0.431373 0.658824
0.890196 0.600000 0.745098
0.996078 0.815686 0.827451
0.000000 0.352941 0.556863
0.000000 0.529412 0.713725
0.517647 0.560784 0.768627
0.972549 0.717647 0.835294
0.992157 0.890196 0.925490
0.192157 0.568627 0.662745
0.000000 0.674510 0.792157
0.580392 0.674510 0.768627
0.941176 0.776471 0.815686
1.000000 0.890196 0.878431
0.650980 0.729412 0.721569
0.549020 0.815686 0.819608
0.698039 0.796078 0.784314
0.839216 0.733333 0.698039
1.000000 0.835294 0.788235
0.925490 0.945098 0.929412
0.894118 0.956863 0.945098
0.941176 0.949020 0.929412
0.988235 0.937255 0.901961
1.000000 0.949020 0.913725
0.000000 0.643137 0.890196
0.003922 0.650980 0.898039
0.627451 0.729412 0.917647
0.898039 0.803922 0.929412
0.996078 0.913725 0.980392
0.317647 0.639216 0.858824
0.000000 0.709804 0.937255
0.678431 0.772549 0.960784
0.913725 0.839216 0.964706
0.992157 0.925490 1.000000
0.007843 0.658824 0.854902
0.000000 0.737255 0.952941
0.592157 0.784314 0.941176
0.909804 0.858824 0.968627
1.000000 0.937255 0.988235
0.513725 0.803922 0.909804
0.325490 0.843137 0.964706
0.568627 0.839216 0.952941
0.819608 0.850980 0.929412
0.956863 0.945098 0.972549
0.776471 0.945098 0.980392
0.756863 0.960784 1.000000
0.831373 0.968627 0.992157
0.929412 0.976471 0.976471
1.000000 0.992157 1.000000
