mpv/luts/FG_CineTeal&Orange1.cube
#Generated with IWLTBAP LUT Generator
#Website: http://luts.iwltbap.com
TITLE "FG_CineTeal&Orange1"
#LUT size
LUT_3D_SIZE 9
#LUT data points
0.066667 0.109804 0.125490
0.070588 0.098039 0.121569
0.192157 0.121569 0.113725
0.364706 0.156863 0.101961
0.607843 0.200000 0.054902
0.870588 0.258824 0.000000
1.000000 0.298039 0.000000
1.000000 0.333333 0.000000
1.000000 0.431373 0.168627
0.160784 0.121569 0.117647
0.086275 0.125490 0.121569
0.176471 0.133333 0.109804
0.290196 0.149020 0.086275
0.521569 0.192157 0.058824
0.815686 0.254902 0.000000
0.972549 0.294118 0.000000
0.996078 0.321569 0.000000
1.000000 0.423529 0.180392
0.231373 0.141176 0.109804
0.117647 0.168627 0.129412
0.203922 0.172549 0.121569
0.360784 0.168627 0.109804
0.615686 0.227451 0.062745
0.843137 0.278431 0.000000
0.992157 0.317647 0.003922
1.000000 0.345098 0.000000
1.000000 0.439216 0.180392
0.219608 0.192157 0.082353
0.105882 0.235294 0.160784
0.219608 0.258824 0.152941
0.396078 0.290196 0.121569
0.623529 0.309804 0.070588
0.796078 0.290196 0.027451
0.945098 0.313725 0.000000
0.996078 0.349020 0.000000
1.000000 0.380392 0.000000
0.329412 0.325490 0.113725
0.082353 0.352941 0.223529
0.254902 0.392157 0.223529
0.509804 0.462745 0.164706
0.705882 0.458824 0.101961
0.862745 0.439216 0.023529
0.988235 0.407843 0.000000
1.000000 0.388235 0.000000
0.996078 0.474510 0.125490
0.180392 0.600000 0.380392
0.192157 0.607843 0.364706
0.341176 0.600000 0.349020
0.552941 0.619608 0.305882
0.784314 0.639216 0.223529
0.937255 0.596078 0.152941
0.992157 0.564706 0.031373
0.996078 0.529412 0.000000
0.996078 0.592157 0.156863
0.733333 0.686275 0.145098
0.329412 0.678431 0.411765
0.400000 0.686275 0.407843
0.560784 0.709804 0.384314
0.752941 0.733333 0.333333
0.921569 0.713725 0.258824
1.000000 0.654902 0.172549
1.000000 0.623529 0.011765
0.996078 0.721569 0.274510
0.988235 0.874510 0.513725
0.752941 0.862745 0.662745
0.780392 0.878431 0.662745
0.866667 0.882353 0.643137
0.972549 0.894118 0.607843
1.000000 0.850980 0.572549
1.000000 0.792157 0.517647
1.000000 0.733333 0.431373
1.000000 0.858824 0.631373
0.949020 0.952941 0.678431
0.901961 0.949020 0.800000
0.929412 0.956863 0.796078
0.941176 0.964706 0.784314
1.000000 0.960784 0.760784
1.000000 0.941176 0.737255
1.000000 0.921569 0.737255
1.000000 0.905882 0.725490
1.000000 0.870588 0.654902
0.066667 0.109804 0.125490
0.054902 0.113725 0.125490
0.113725 0.137255 0.121569
0.223529 0.152941 0.105882
0.349020 0.164706 0.062745
0.564706 0.196078 0.015686
0.807843 0.262745 0.000000
0.988235 0.313725 0.000000
0.996078 0.388235 0.000000
0.129412 0.137255 0.117647
0.035294 0.152941 0.121569
0.082353 0.176471 0.121569
0.188235 0.180392 0.090196
0.301961 0.188235 0.062745
0.439216 0.188235 0.011765
0.709804 0.239216 0.003922
0.917647 0.294118 0.003922
0.996078 0.407843 0.000000
0.235294 0.149020 0.098039
0.090196 0.172549 0.152941
0.172549 0.168627 0.149020
0.305882 0.180392 0.129412
0.533333 0.215686 0.098039
0.792157 0.270588 0.007843
0.952941 0.309804 0.000000
0.996078 0.341176 0.000000
0.996078 0.427451 0.180392
0.219608 0.196078 0.109804
0.090196 0.215686 0.172549
0.164706 0.231373 0.160784
0.309804 0.243137 0.141176
0.509804 0.278431 0.121569
0.729412 0.290196 0.070588
0.909804 0.309804 0.003922
0.996078 0.341176 0.000000
1.000000 0.380392 0.000000
0.301961 0.298039 0.117647
0.105882 0.341176 0.239216
0.231373 0.380392 0.235294
0.470588 0.439216 0.196078
0.666667 0.439216 0.160784
0.843137 0.439216 0.078431
0.972549 0.431373 0.003922
1.000000 0.392157 0.000000
0.992157 0.486275 0.086275
0.176471 0.552941 0.372549
0.184314 0.560784 0.372549
0.305882 0.552941 0.345098
0.525490 0.588235 0.305882
0.756863 0.623529 0.243137
0.925490 0.580392 0.196078
1.000000 0.549020 0.105882
1.000000 0.521569 0.000000
0.996078 0.588235 0.113725
0.709804 0.694118 0.023529
0.317647 0.654902 0.407843
0.372549 0.674510 0.392157
0.537255 0.690196 0.372549
0.733333 0.721569 0.317647
0.909804 0.701961 0.262745
0.992157 0.650980 0.207843
1.000000 0.615686 0.086275
1.000000 0.729412 0.270588
1.000000 0.839216 0.517647
0.764706 0.835294 0.670588
0.819608 0.854902 0.678431
0.909804 0.874510 0.650980
1.000000 0.862745 0.635294
1.000000 0.819608 0.600000
1.000000 0.768627 0.552941
0.996078 0.713725 0.486275
1.000000 0.854902 0.611765
0.949020 0.956863 0.670588
0.901961 0.933333 0.788235
0.929412 0.937255 0.792157
0.960784 0.949020 0.780392
1.000000 0.952941 0.764706
1.000000 0.929412 0.772549
1.000000 0.913725 0.760784
0.996078 0.901961 0.768627
1.000000 0.874510 0.721569
0.000000 0.133333 0.156863
0.003922 0.137255 0.172549
0.113725 0.156863 0.180392
0.211765 0.156863 0.156863
0.345098 0.160784 0.121569
0.592157 0.211765 0.105882
0.843137 0.270588 0.031373
0.996078 0.313725 0.000000
1.000000 0.396078 0.011765
0.164706 0.164706 0.117647
0.058824 0.172549 0.164706
0.094118 0.180392 0.168627
0.207843 0.180392 0.141176
0.329412 0.176471 0.109804
0.482353 0.188235 0.074510
0.760784 0.250980 0.007843
0.952941 0.305882 0.015686
1.000000 0.400000 0.000000
0.227451 0.152941 0.129412
0.078431 0.188235 0.203922
0.141176 0.192157 0.215686
0.278431 0.196078 0.192157
0.501961 0.235294 0.192157
0.768627 0.286275 0.164706
0.960784 0.325490 0.101961
0.992157 0.345098 0.000000
1.000000 0.439216 0.180392
0.211765 0.196078 0.149020
0.109804 0.235294 0.231373
0.133333 0.239216 0.219608
0.278431 0.247059 0.196078
0.470588 0.274510 0.184314
0.678431 0.282353 0.164706
0.894118 0.321569 0.121569
0.996078 0.349020 0.000000
1.000000 0.380392 0.000000
0.333333 0.325490 0.172549
0.149020 0.403922 0.317647
0.207843 0.400000 0.313725
0.462745 0.466667 0.294118
0.686275 0.462745 0.254902
0.858824 0.443137 0.219608
0.992157 0.431373 0.172549
1.000000 0.419608 0.043137
1.000000 0.486275 0.164706
0.227451 0.568627 0.403922
0.250980 0.572549 0.415686
0.290196 0.549020 0.392157
0.470588 0.584314 0.372549
0.725490 0.619608 0.341176
0.886275 0.580392 0.298039
1.000000 0.545098 0.243137
0.996078 0.513725 0.168627
1.000000 0.603922 0.282353
0.741176 0.705882 0.200000
0.384314 0.698039 0.458824
0.403922 0.701961 0.458824
0.529412 0.705882 0.435294
0.725490 0.721569 0.396078
0.917647 0.721569 0.349020
0.996078 0.662745 0.309804
0.992157 0.615686 0.243137
1.000000 0.749020 0.407843
0.949020 0.843137 0.541176
0.749020 0.850980 0.674510
0.768627 0.850980 0.682353
0.831373 0.870588 0.674510
0.964706 0.882353 0.666667
1.000000 0.862745 0.643137
1.000000 0.815686 0.619608
1.000000 0.772549 0.556863
0.996078 0.890196 0.682353
0.925490 0.949020 0.674510
0.894118 0.933333 0.796078
0.898039 0.941176 0.784314
0.925490 0.941176 0.796078
0.988235 0.960784 0.788235
1.000000 0.941176 0.772549
1.000000 0.925490 0.768627
1.000000 0.909804 0.768627
0.996078 0.882353 0.717647
0.000000 0.176471 0.215686
0.000000 0.184314 0.215686
0.027451 0.176471 0.219608
0.160784 0.188235 0.227451
0.309804 0.192157 0.192157
0.525490 0.227451 0.176471
0.788235 0.282353 0.160784
0.988235 0.329412 0.117647
1.000000 0.423529 0.223529
0.168627 0.192157 0.090196
0.003922 0.196078 0.211765
0.039216 0.211765 0.215686
0.156863 0.215686 0.196078
0.301961 0.207843 0.160784
0.474510 0.215686 0.129412
0.721569 0.270588 0.117647
0.933333 0.321569 0.062745
1.000000 0.439216 0.019608
0.207843 0.168627 0.200000
0.003922 0.235294 0.298039
0.070588 0.239216 0.305882
0.313725 0.270588 0.337255
0.517647 0.329412 0.329412
0.784314 0.356863 0.329412
0.976471 0.388235 0.294118
1.000000 0.407843 0.254902
0.996078 0.545098 0.431373
0.196078 0.215686 0.227451
0.000000 0.266667 0.301961
0.121569 0.278431 0.305882
0.258824 0.278431 0.290196
0.439216 0.286275 0.274510
0.662745 0.325490 0.282353
0.878431 0.360784 0.270588
1.000000 0.384314 0.239216
1.000000 0.392157 0.141176
0.321569 0.356863 0.274510
0.176471 0.533333 0.474510
0.337255 0.525490 0.470588
0.419608 0.494118 0.419608
0.682353 0.513725 0.396078
0.854902 0.486275 0.376471
0.992157 0.466667 0.337255
1.000000 0.458824 0.286275
1.000000 0.552941 0.407843
0.349020 0.631373 0.537255
0.376471 0.631373 0.537255
0.435294 0.607843 0.509804
0.427451 0.564706 0.447059
0.662745 0.619608 0.439216
0.862745 0.600000 0.423529
0.972549 0.568627 0.376471
1.000000 0.537255 0.317647
1.000000 0.635294 0.435294
0.729412 0.749020 0.278431
0.545098 0.768627 0.568627
0.549020 0.760784 0.564706
0.556863 0.729412 0.521569
0.717647 0.752941 0.505882
0.913725 0.764706 0.470588
1.000000 0.694118 0.431373
0.996078 0.647059 0.388235
1.000000 0.784314 0.462745
0.937255 0.839216 0.627451
0.858824 0.862745 0.792157
0.866667 0.874510 0.784314
0.874510 0.858824 0.760784
0.972549 0.882353 0.756863
0.996078 0.866667 0.745098
0.996078 0.850980 0.737255
1.000000 0.827451 0.705882
1.000000 0.913725 0.792157
0.937255 0.945098 0.749020
0.949020 0.945098 0.858824
0.945098 0.945098 0.850980
0.952941 0.929412 0.843137
0.996078 0.956863 0.827451
1.000000 0.941176 0.819608
0.996078 0.929412 0.827451
1.000000 0.925490 0.831373
1.000000 0.905882 0.811765
0.000000 0.243137 0.341176
0.000000 0.235294 0.345098
0.000000 0.235294 0.337255
0.137255 0.215686 0.345098
0.396078 0.243137 0.364706
0.619608 0.298039 0.384314
0.772549 0.376471 0.368627
0.972549 0.411765 0.356863
1.000000 0.537255 0.466667
0.192157 0.203922 0.082353
0.000000 0.254902 0.333333
0.000000 0.254902 0.325490
0.109804 0.247059 0.321569
0.317647 0.247059 0.301961
0.513725 0.309804 0.317647
0.756863 0.349020 0.313725
0.937255 0.388235 0.298039
1.000000 0.450980 0.329412
0.239216 0.200000 0.305882
0.000000 0.333333 0.443137
0.000000 0.341176 0.450980
0.317647 0.349020 0.501961
0.662745 0.419608 0.564706
0.870588 0.466667 0.541176
0.952941 0.521569 0.486275
0.996078 0.537255 0.466667
0.996078 0.725490 0.662745
0.145098 0.247059 0.305882
0.000000 0.372549 0.443137
0.007843 0.364706 0.435294
0.223529 0.345098 0.415686
0.454902 0.384314 0.431373
0.635294 0.415686 0.435294
0.854902 0.450980 0.423529
0.996078 0.470588 0.403922
1.000000 0.462745 0.352941
0.325490 0.396078 0.396078
0.101961 0.564706 0.572549
0.270588 0.576471 0.576471
0.462745 0.556863 0.556863
0.615686 0.533333 0.513725
0.803922 0.541176 0.505882
0.960784 0.556863 0.498039
0.996078 0.556863 0.462745
1.000000 0.690196 0.592157
0.321569 0.658824 0.607843
0.337255 0.658824 0.611765
0.443137 0.654902 0.600000
0.541176 0.647059 0.588235
0.564706 0.592157 0.521569
0.792157 0.611765 0.517647
0.929412 0.588235 0.482353
1.000000 0.564706 0.450980
1.000000 0.690196 0.572549
0.654902 0.709804 0.470588
0.666667 0.819608 0.705882
0.682353 0.819608 0.701961
0.713725 0.788235 0.674510
0.682353 0.737255 0.596078
0.882353 0.780392 0.580392
0.996078 0.737255 0.549020
1.000000 0.690196 0.521569
1.000000 0.827451 0.662745
0.847059 0.811765 0.690196
0.847059 0.890196 0.827451
0.870588 0.905882 0.839216
0.901961 0.894118 0.835294
0.913725 0.882353 0.800000
1.000000 0.901961 0.792157
1.000000 0.886275 0.792157
1.000000 0.866667 0.756863
1.000000 0.921569 0.847059
0.913725 0.933333 0.807843
0.941176 0.956863 0.898039
0.949020 0.960784 0.886275
0.956863 0.952941 0.874510
0.949020 0.941176 0.843137
1.000000 0.949020 0.843137
1.000000 0.937255 0.839216
0.996078 0.925490 0.839216
1.000000 0.921569 0.827451
0.000000 0.298039 0.400000
0.003922 0.298039 0.411765
0.000000 0.301961 0.403922
0.000000 0.290196 0.403922
0.294118 0.290196 0.447059
0.592157 0.368627 0.498039
0.800000 0.443137 0.509804
0.917647 0.517647 0.470588
1.000000 0.678431 0.635294
0.113725 0.207843 0.207843
0.000000 0.313725 0.388235
0.011765 0.313725 0.392157
0.011765 0.313725 0.384314
0.235294 0.305882 0.392157
0.533333 0.384314 0.443137
0.709804 0.431373 0.423529
0.898039 0.466667 0.423529
0.976471 0.596078 0.533333
0.176471 0.235294 0.403922
0.000000 0.443137 0.584314
0.000000 0.443137 0.596078
0.203922 0.447059 0.639216
0.607843 0.490196 0.686275
0.894118 0.572549 0.729412
1.000000 0.670588 0.729412
1.000000 0.670588 0.662745
1.000000 0.827451 0.823529
0.090196 0.305882 0.423529
0.003922 0.450980 0.560784
0.000000 0.450980 0.560784
0.145098 0.439216 0.552941
0.509804 0.474510 0.596078
0.768627 0.533333 0.635294
0.917647 0.580392 0.631373
0.968627 0.603922 0.572549
0.996078 0.631373 0.564706
0.278431 0.466667 0.513725
0.000000 0.623529 0.678431
0.121569 0.623529 0.674510
0.392157 0.603922 0.650980
0.580392 0.592157 0.627451
0.807843 0.654902 0.666667
0.905882 0.670588 0.639216
1.000000 0.694118 0.643137
0.996078 0.803922 0.745098
0.200000 0.670588 0.666667
0.219608 0.670588 0.674510
0.333333 0.670588 0.658824
0.470588 0.650980 0.639216
0.576471 0.623529 0.607843
0.690196 0.592157 0.572549
0.862745 0.611765 0.572549
1.000000 0.623529 0.560784
1.000000 0.741176 0.666667
0.588235 0.686275 0.533333
0.588235 0.827451 0.764706
0.615686 0.827451 0.756863
0.698039 0.827451 0.760784
0.756863 0.792157 0.717647
0.760784 0.737255 0.643137
0.929412 0.745098 0.635294
1.000000 0.721569 0.619608
0.996078 0.843137 0.721569
0.854902 0.815686 0.776471
0.792157 0.870588 0.866667
0.823529 0.886275 0.874510
0.862745 0.882353 0.866667
0.913725 0.878431 0.850980
0.956863 0.866667 0.835294
1.000000 0.886275 0.854902
1.000000 0.882353 0.835294
1.000000 0.937255 0.905882
0.952941 0.941176 0.882353
0.913725 0.952941 0.917647
0.921569 0.949020 0.917647
0.945098 0.949020 0.917647
0.972549 0.945098 0.905882
0.992157 0.945098 0.898039
1.000000 0.937255 0.886275
1.000000 0.933333 0.894118
0.996078 0.929412 0.890196
0.003922 0.447059 0.611765
0.000000 0.450980 0.603922
0.000000 0.439216 0.611765
0.007843 0.427451 0.623529
0.333333 0.431373 0.658824
0.690196 0.517647 0.709804
0.890196 0.600000 0.745098
0.972549 0.690196 0.745098
0.996078 0.815686 0.827451
0.000000 0.270588 0.333333
0.000000 0.458824 0.607843
0.000000 0.458824 0.607843
0.000000 0.450980 0.611765
0.360784 0.466667 0.643137
0.666667 0.529412 0.694118
0.878431 0.611765 0.717647
0.960784 0.686275 0.725490
0.996078 0.760784 0.768627
0.000000 0.352941 0.556863
0.000000 0.529412 0.701961
0.000000 0.529412 0.713725
0.047059 0.537255 0.749020
0.517647 0.560784 0.768627
0.835294 0.658824 0.827451
0.972549 0.717647 0.835294
1.000000 0.784314 0.827451
0.992157 0.890196 0.925490
0.000000 0.423529 0.556863
0.000000 0.552941 0.686275
0.000000 0.537255 0.694118
0.000000 0.545098 0.690196
0.509804 0.568627 0.729412
0.764706 0.623529 0.772549
0.925490 0.682353 0.780392
1.000000 0.752941 0.796078
1.000000 0.745098 0.729412
0.192157 0.568627 0.662745
0.000000 0.670588 0.780392
0.000000 0.674510 0.792157
0.341176 0.670588 0.772549
0.580392 0.674510 0.768627
0.823529 0.733333 0.811765
0.941176 0.776471 0.815686
1.000000 0.807843 0.803922
1.000000 0.890196 0.878431
0.000000 0.709804 0.768627
0.047059 0.717647 0.784314
0.258824 0.709804 0.780392
0.419608 0.705882 0.760784
0.533333 0.682353 0.725490
0.670588 0.670588 0.701961
0.874510 0.733333 0.741176
0.952941 0.745098 0.721569
0.996078 0.839216 0.803922
0.650980 0.729412 0.721569
0.525490 0.815686 0.811765
0.549020 0.815686 0.819608
0.615686 0.803922 0.803922
0.698039 0.796078 0.784314
0.760784 0.764706 0.741176
0.839216 0.733333 0.698039
0.956863 0.752941 0.701961
1.000000 0.835294 0.788235
0.807843 0.831373 0.831373
0.741176 0.886275 0.909804
0.756863 0.886275 0.913725
0.811765 0.894118 0.905882
0.866667 0.886275 0.898039
0.909804 0.890196 0.878431
0.992157 0.898039 0.898039
1.000000 0.905882 0.866667
1.000000 0.956863 0.949020
0.925490 0.945098 0.929412
0.882353 0.956863 0.949020
0.894118 0.956863 0.945098
0.913725 0.956863 0.941176
0.941176 0.949020 0.929412
0.960784 0.949020 0.913725
0.988235 0.937255 0.901961
0.996078 0.941176 0.905882
1.000000 0.949020 0.913725
0.003922 0.549020 0.749020
0.003922 0.549020 0.741176
0.000000 0.552941 0.741176
0.011765 0.549020 0.745098
0.376471 0.580392 0.764706
0.654902 0.627451 0.792157
0.870588 0.709804 0.835294
0.972549 0.764706 0.850980
0.996078 0.862745 0.929412
0.000000 0.443137 0.552941
0.007843 0.556863 0.733333
0.000000 0.560784 0.725490
0.000000 0.556863 0.729412
0.203922 0.568627 0.729412
0.611765 0.619608 0.768627
0.835294 0.701961 0.807843
0.952941 0.745098 0.815686
0.984314 0.854902 0.898039
0.003922 0.498039 0.725490
0.007843 0.615686 0.827451
0.000000 0.611765 0.831373
0.145098 0.635294 0.854902
0.588235 0.682353 0.870588
0.780392 0.713725 0.886275
0.925490 0.780392 0.909804
1.000000 0.827451 0.917647
0.996078 0.898039 0.972549
0.000000 0.541176 0.721569
0.003922 0.631373 0.811765
0.000000 0.635294 0.815686
0.043137 0.647059 0.819608
0.552941 0.690196 0.854902
0.760784 0.713725 0.870588
0.917647 0.776471 0.886275
1.000000 0.815686 0.894118
0.996078 0.850980 0.878431
0.000000 0.615686 0.752941
0.000000 0.705882 0.858824
0.007843 0.709804 0.866667
0.266667 0.705882 0.854902
0.549020 0.733333 0.850980
0.800000 0.776471 0.878431
0.929412 0.819608 0.905882
1.000000 0.858824 0.913725
0.996078 0.913725 0.949020
0.003922 0.752941 0.866667
0.000000 0.752941 0.866667
0.160784 0.760784 0.862745
0.376471 0.752941 0.850980
0.513725 0.741176 0.827451
0.690196 0.741176 0.815686
0.874510 0.788235 0.847059
0.976471 0.847059 0.882353
1.000000 0.905882 0.929412
0.600000 0.768627 0.800000
0.450980 0.827451 0.890196
0.505882 0.831373 0.886275
0.568627 0.827451 0.882353
0.654902 0.823529 0.858824
0.729412 0.800000 0.839216
0.823529 0.780392 0.811765
0.968627 0.854902 0.870588
0.992157 0.921569 0.913725
0.772549 0.858824 0.909804
0.717647 0.901961 0.972549
0.745098 0.894118 0.976471
0.780392 0.901961 0.972549
0.827451 0.898039 0.952941
0.890196 0.898039 0.945098
0.972549 0.913725 0.941176
1.000000 0.945098 0.964706
1.000000 0.964706 0.976471
0.890196 0.949020 0.960784
0.862745 0.956863 0.988235
0.874510 0.952941 0.980392
0.882353 0.956863 0.984314
0.913725 0.949020 0.968627
0.941176 0.945098 0.960784
0.968627 0.952941 0.956863
0.988235 0.964706 0.964706
1.000000 0.984314 0.988235
0.000000 0.643137 0.890196
0.003922 0.647059 0.894118
0.003922 0.650980 0.898039
0.317647 0.678431 0.894118
0.627451 0.729412 0.917647
0.796078 0.776471 0.933333
0.898039 0.803922 0.929412
0.976471 0.866667 0.952941
0.996078 0.913725 0.980392
0.003922 0.568627 0.741176
0.000000 0.635294 0.858824
0.000000 0.647059 0.862745
0.211765 0.670588 0.878431
0.580392 0.713725 0.894118
0.776471 0.768627 0.913725
0.878431 0.803922 0.921569
0.972549 0.862745 0.949020
0.980392 0.909804 0.972549
0.317647 0.639216 0.858824
0.003922 0.698039 0.941176
0.000000 0.709804 0.937255
0.411765 0.729412 0.945098
0.678431 0.772549 0.960784
0.823529 0.807843 0.952941
0.913725 0.839216 0.964706
0.980392 0.882353 0.964706
0.992157 0.925490 1.000000
0.003922 0.643137 0.850980
0.000000 0.705882 0.933333
0.000000 0.721569 0.933333
0.317647 0.737255 0.941176
0.643137 0.772549 0.941176
0.819608 0.815686 0.949020
0.909804 0.835294 0.952941
0.980392 0.882353 0.964706
1.000000 0.921569 0.968627
0.007843 0.658824 0.854902
0.003922 0.717647 0.933333
0.000000 0.737255 0.952941
0.227451 0.745098 0.925490
0.592157 0.784314 0.941176
0.815686 0.827451 0.956863
0.909804 0.858824 0.968627
0.988235 0.905882 0.972549
1.000000 0.937255 0.988235
0.000000 0.772549 0.945098
0.000000 0.768627 0.949020
0.003922 0.776471 0.941176
0.172549 0.772549 0.933333
0.494118 0.784314 0.929412
0.713725 0.811765 0.929412
0.890196 0.870588 0.949020
0.972549 0.909804 0.960784
0.992157 0.945098 0.984314
0.513725 0.803922 0.909804
0.203922 0.831373 0.956863
0.325490 0.843137 0.964706
0.443137 0.839216 0.956863
0.568627 0.839216 0.952941
0.678431 0.835294 0.925490
0.819608 0.850980 0.929412
0.960784 0.905882 0.956863
0.956863 0.945098 0.972549
0.701961 0.886275 0.956863
0.596078 0.917647 1.000000
0.619608 0.917647 1.000000
0.670588 0.925490 0.996078
0.749020 0.929412 0.988235
0.815686 0.925490 0.980392
0.866667 0.921569 0.964706
0.956863 0.933333 0.972549
0.972549 0.972549 0.980392
0.776471 0.945098 0.980392
0.737255 0.964706 1.000000
0.756863 0.960784 1.000000
0.780392 0.964706 0.996078
0.831373 0.968627 0.992157
0.890196 0.972549 0.992157
0.929412 0.976471 0.976471
0.972549 0.988235 0.984314
1.000000 0.992157 1.000000
