mpv/luts/FG_CineVibrant.cube
#Generated with IWLTBAP LUT Generator
#Website: http://luts.iwltbap.com
TITLE "FG_CineVibrant1"
#LUT size
LUT_3D_SIZE 5
#LUT data points
0.066667 0.050980 0.047059
0.227451 0.078431 0.035294
0.447059 0.133333 0.000000
0.654902 0.200000 0.000000
1.000000 0.317647 0.000000
0.164706 0.215686 0.109804
0.286275 0.247059 0.000000
0.462745 0.262745 0.007843
0.682353 0.301961 0.000000
0.996078 0.407843 0.000000
0.376471 0.458824 0.290196
0.403922 0.474510 0.270588
0.525490 0.486275 0.003922
0.741176 0.501961 0.003922
1.000000 0.611765 0.003922
0.623529 0.843137 0.556863
0.678431 0.843137 0.584314
0.729412 0.870588 0.384314
0.925490 0.862745 0.000000
0.996078 0.815686 0.000000
0.905882 1.000000 0.901961
0.917647 0.992157 0.905882
0.925490 1.000000 0.882353
0.941176 0.992157 0.709804
0.996078 0.996078 0.000000
0.043137 0.054902 0.223529
0.258824 0.039216 0.223529
0.482353 0.082353 0.184314
0.647059 0.215686 0.188235
1.000000 0.294118 0.117647
0.074510 0.227451 0.215686
0.247059 0.235294 0.200000
0.447059 0.254902 0.188235
0.670588 0.298039 0.180392
0.992157 0.384314 0.090196
0.345098 0.462745 0.329412
0.407843 0.466667 0.352941
0.498039 0.478431 0.219608
0.737255 0.501961 0.133333
0.996078 0.603922 0.000000
0.607843 0.850980 0.596078
0.666667 0.854902 0.627451
0.741176 0.866667 0.529412
0.917647 0.862745 0.101961
1.000000 0.815686 0.000000
0.905882 1.000000 0.905882
0.925490 0.992157 0.917647
0.945098 0.996078 0.917647
0.945098 1.000000 0.788235
0.992157 1.000000 0.219608
0.000000 0.050980 0.415686
0.200000 0.054902 0.427451
0.447059 0.094118 0.435294
0.647059 0.149020 0.419608
1.000000 0.000000 0.415686
0.003922 0.203922 0.388235
0.188235 0.203922 0.388235
0.427451 0.254902 0.400000
0.647059 0.266667 0.411765
0.996078 0.137255 0.364706
0.180392 0.423529 0.411765
0.274510 0.427451 0.415686
0.427451 0.431373 0.400000
0.701961 0.462745 0.392157
1.000000 0.525490 0.360784
0.407843 0.847059 0.647059
0.525490 0.847059 0.658824
0.760784 0.862745 0.756863
0.890196 0.850980 0.466667
1.000000 0.807843 0.325490
0.913725 0.996078 0.929412
0.929412 1.000000 0.945098
0.960784 1.000000 0.949020
0.964706 1.000000 0.925490
0.996078 1.000000 0.584314
0.003922 0.035294 0.705882
0.000000 0.023529 0.705882
0.411765 0.003922 0.729412
0.701961 0.058824 0.752941
0.996078 0.000000 0.792157
0.000000 0.176471 0.674510
0.000000 0.176471 0.674510
0.380392 0.200000 0.694118
0.694118 0.215686 0.745098
1.000000 0.074510 0.796078
0.003922 0.400000 0.643137
0.000000 0.396078 0.654902
0.313725 0.380392 0.701961
0.713725 0.415686 0.760784
1.000000 0.380392 0.780392
0.003922 0.745098 0.800000
0.000000 0.752941 0.803922
0.294118 0.756863 0.803922
0.741176 0.764706 0.764706
1.000000 0.803922 0.760784
0.843137 1.000000 0.956863
0.874510 1.000000 0.956863
0.949020 1.000000 0.972549
0.992157 1.000000 0.988235
1.000000 0.996078 0.909804
0.000000 0.000000 0.996078
0.003922 0.003922 1.000000
0.329412 0.003922 1.000000
0.694118 0.000000 0.996078
0.988235 0.003922 1.000000
0.000000 0.149020 1.000000
0.000000 0.141176 1.000000
0.301961 0.125490 1.000000
0.682353 0.125490 1.000000
0.996078 0.137255 0.996078
0.007843 0.403922 1.000000
0.007843 0.376471 1.000000
0.000000 0.341176 0.996078
0.647059 0.345098 1.000000
0.996078 0.427451 1.000000
0.003922 0.686275 1.000000
0.003922 0.678431 0.992157
0.003922 0.639216 1.000000
0.552941 0.635294 1.000000
0.996078 0.807843 0.996078
0.415686 0.976471 1.000000
0.513725 0.980392 1.000000
0.717647 0.984314 0.996078
0.909804 0.992157 0.996078
1.000000 1.000000 1.000000
