mpv/luts/FG_CineVibrant.cube
#Generated with IWLTBAP LUT Generator
#Website: http://luts.iwltbap.com
TITLE "FG_CineVibrant1"
#LUT size
LUT_3D_SIZE 9
#LUT data points
0.066667 0.050980 0.047059
0.117647 0.058824 0.039216
0.227451 0.078431 0.035294
0.345098 0.101961 0.019608
0.447059 0.133333 0.000000
0.537255 0.164706 0.000000
0.654902 0.200000 0.000000
0.823529 0.254902 0.000000
1.000000 0.317647 0.000000
0.090196 0.101961 0.058824
0.149020 0.133333 0.035294
0.243137 0.137255 0.023529
0.352941 0.160784 0.003922
0.458824 0.172549 0.003922
0.549020 0.196078 0.000000
0.662745 0.231373 0.000000
0.831373 0.286275 0.000000
1.000000 0.345098 0.000000
0.164706 0.215686 0.109804
0.184314 0.223529 0.090196
0.286275 0.247059 0.000000
0.364706 0.239216 0.007843
0.462745 0.262745 0.007843
0.560784 0.270588 0.000000
0.682353 0.301961 0.000000
0.847059 0.349020 0.000000
0.996078 0.407843 0.000000
0.270588 0.329412 0.200000
0.294118 0.337255 0.203922
0.321569 0.364706 0.145098
0.396078 0.372549 0.000000
0.470588 0.345098 0.011765
0.564706 0.364706 0.000000
0.709804 0.400000 0.003922
0.886275 0.450980 0.000000
0.988235 0.498039 0.000000
0.376471 0.458824 0.290196
0.388235 0.458824 0.309804
0.403922 0.474510 0.270588
0.443137 0.482353 0.203922
0.525490 0.486275 0.003922
0.592157 0.454902 0.000000
0.741176 0.501961 0.003922
0.917647 0.564706 0.000000
1.000000 0.611765 0.003922
0.478431 0.643137 0.384314
0.486275 0.639216 0.392157
0.509804 0.647059 0.380392
0.556863 0.658824 0.317647
0.623529 0.678431 0.203922
0.717647 0.670588 0.000000
0.776471 0.619608 0.000000
0.956863 0.674510 0.000000
1.000000 0.717647 0.000000
0.623529 0.843137 0.556863
0.643137 0.847059 0.556863
0.678431 0.843137 0.584314
0.690196 0.854902 0.525490
0.729412 0.870588 0.384314
0.819608 0.870588 0.211765
0.925490 0.862745 0.000000
0.980392 0.796078 0.000000
0.996078 0.815686 0.000000
0.784314 0.949020 0.752941
0.796078 0.949020 0.764706
0.819608 0.949020 0.780392
0.819608 0.949020 0.764706
0.827451 0.949020 0.674510
0.858824 0.968627 0.533333
0.945098 0.972549 0.321569
1.000000 0.976471 0.011765
1.000000 0.913725 0.000000
0.905882 1.000000 0.901961
0.917647 0.996078 0.898039
0.917647 0.992157 0.905882
0.925490 0.996078 0.901961
0.925490 1.000000 0.882353
0.929412 1.000000 0.827451
0.941176 0.992157 0.709804
0.992157 1.000000 0.490196
0.996078 0.996078 0.000000
0.062745 0.058824 0.113725
0.137255 0.054902 0.113725
0.254902 0.050980 0.109804
0.368627 0.101961 0.101961
0.478431 0.141176 0.090196
0.560784 0.168627 0.074510
0.666667 0.203922 0.054902
0.827451 0.250980 0.000000
0.996078 0.313725 0.003922
0.070588 0.133333 0.121569
0.152941 0.141176 0.121569
0.266667 0.149020 0.109804
0.388235 0.172549 0.101961
0.494118 0.192157 0.090196
0.584314 0.215686 0.078431
0.686275 0.243137 0.047059
0.843137 0.290196 0.000000
0.996078 0.341176 0.000000
0.160784 0.231373 0.145098
0.203922 0.219608 0.152941
0.266667 0.243137 0.101961
0.364706 0.239216 0.078431
0.458824 0.254902 0.062745
0.556863 0.270588 0.062745
0.678431 0.298039 0.019608
0.854902 0.349020 0.000000
1.000000 0.403922 0.000000
0.270588 0.345098 0.219608
0.294118 0.345098 0.227451
0.321569 0.352941 0.200000
0.396078 0.360784 0.090196
0.470588 0.345098 0.043137
0.572549 0.360784 0.015686
0.713725 0.392157 0.000000
0.882353 0.447059 0.003922
1.000000 0.494118 0.000000
0.372549 0.458824 0.309804
0.388235 0.466667 0.321569
0.415686 0.462745 0.313725
0.439216 0.478431 0.239216
0.517647 0.486275 0.098039
0.584314 0.458824 0.000000
0.725490 0.501961 0.000000
0.921569 0.564706 0.003922
0.996078 0.611765 0.000000
0.462745 0.643137 0.392157
0.490196 0.647059 0.403922
0.529412 0.643137 0.415686
0.537255 0.662745 0.337255
0.623529 0.674510 0.250980
0.709804 0.666667 0.000000
0.776471 0.619608 0.003922
0.952941 0.678431 0.000000
0.996078 0.713725 0.000000
0.611765 0.847059 0.564706
0.639216 0.847059 0.572549
0.682353 0.847059 0.600000
0.690196 0.850980 0.552941
0.737255 0.870588 0.439216
0.815686 0.870588 0.254902
0.921569 0.866667 0.003922
0.988235 0.803922 0.003922
0.996078 0.823529 0.000000
0.792157 0.956863 0.776471
0.796078 0.941176 0.768627
0.811765 0.949020 0.784314
0.847059 0.949020 0.796078
0.839216 0.956863 0.713725
0.866667 0.968627 0.572549
0.937255 0.976471 0.356863
1.000000 0.976471 0.003922
1.000000 0.913725 0.000000
0.901961 0.996078 0.901961
0.909804 1.000000 0.890196
0.917647 0.996078 0.898039
0.929412 0.996078 0.921569
0.925490 1.000000 0.898039
0.929412 1.000000 0.850980
0.941176 1.000000 0.737255
0.996078 1.000000 0.529412
1.000000 0.996078 0.003922
0.043137 0.054902 0.223529
0.133333 0.050980 0.219608
0.258824 0.039216 0.223529
0.376471 0.054902 0.215686
0.482353 0.082353 0.184314
0.552941 0.152941 0.176471
0.647059 0.215686 0.188235
0.815686 0.243137 0.160784
1.000000 0.294118 0.117647
0.035294 0.141176 0.223529
0.129412 0.129412 0.223529
0.270588 0.137255 0.231373
0.388235 0.149020 0.219608
0.490196 0.164706 0.196078
0.568627 0.227451 0.200000
0.670588 0.243137 0.184314
0.835294 0.286275 0.164706
1.000000 0.325490 0.113725
0.074510 0.227451 0.215686
0.145098 0.227451 0.207843
0.247059 0.235294 0.200000
0.352941 0.243137 0.192157
0.447059 0.254902 0.188235
0.533333 0.274510 0.188235
0.670588 0.298039 0.180392
0.839216 0.337255 0.145098
0.992157 0.384314 0.090196
0.219608 0.349020 0.243137
0.254902 0.341176 0.243137
0.325490 0.345098 0.266667
0.376471 0.356863 0.207843
0.466667 0.345098 0.172549
0.564706 0.360784 0.176471
0.690196 0.392157 0.156863
0.870588 0.435294 0.125490
1.000000 0.482353 0.039216
0.345098 0.462745 0.329412
0.364706 0.462745 0.337255
0.407843 0.466667 0.352941
0.431373 0.474510 0.317647
0.498039 0.478431 0.219608
0.580392 0.454902 0.160784
0.737255 0.501961 0.133333
0.925490 0.560784 0.054902
0.996078 0.603922 0.000000
0.443137 0.639216 0.423529
0.454902 0.647059 0.427451
0.513725 0.647059 0.450980
0.549020 0.658824 0.431373
0.596078 0.666667 0.329412
0.690196 0.662745 0.203922
0.772549 0.623529 0.094118
0.949020 0.674510 0.000000
0.996078 0.713725 0.007843
0.607843 0.850980 0.596078
0.623529 0.854902 0.603922
0.666667 0.854902 0.627451
0.713725 0.858824 0.647059
0.741176 0.866667 0.529412
0.815686 0.874510 0.368627
0.917647 0.862745 0.101961
0.984314 0.800000 0.000000
1.000000 0.815686 0.000000
0.788235 0.956863 0.788235
0.803922 0.945098 0.788235
0.819608 0.952941 0.807843
0.854902 0.952941 0.827451
0.858824 0.968627 0.776471
0.874510 0.968627 0.670588
0.941176 0.976471 0.486275
0.992157 0.968627 0.105882
1.000000 0.913725 0.007843
0.905882 1.000000 0.905882
0.913725 1.000000 0.917647
0.925490 0.992157 0.917647
0.941176 0.996078 0.929412
0.945098 0.996078 0.917647
0.945098 0.996078 0.878431
0.945098 1.000000 0.788235
0.992157 1.000000 0.603922
0.992157 1.000000 0.219608
0.011765 0.050980 0.329412
0.113725 0.050980 0.333333
0.231373 0.047059 0.329412
0.360784 0.058824 0.333333
0.474510 0.082353 0.325490
0.556863 0.129412 0.305882
0.658824 0.152941 0.274510
0.823529 0.156863 0.262745
1.000000 0.247059 0.274510
0.000000 0.121569 0.333333
0.113725 0.125490 0.341176
0.243137 0.129412 0.349020
0.384314 0.149020 0.349020
0.490196 0.164706 0.337255
0.572549 0.196078 0.313725
0.678431 0.200000 0.298039
0.831373 0.239216 0.282353
0.996078 0.286275 0.274510
0.000000 0.211765 0.294118
0.086275 0.215686 0.290196
0.215686 0.219608 0.298039
0.345098 0.239216 0.305882
0.435294 0.247059 0.301961
0.521569 0.262745 0.278431
0.643137 0.294118 0.286275
0.819608 0.317647 0.274510
1.000000 0.345098 0.262745
0.121569 0.337255 0.317647
0.168627 0.329412 0.305882
0.254902 0.337255 0.317647
0.352941 0.337255 0.301961
0.435294 0.349020 0.290196
0.533333 0.352941 0.290196
0.678431 0.388235 0.290196
0.858824 0.411765 0.270588
1.000000 0.462745 0.250980
0.270588 0.458824 0.356863
0.301961 0.458824 0.356863
0.356863 0.458824 0.360784
0.427451 0.454902 0.384314
0.474510 0.458824 0.321569
0.568627 0.454902 0.282353
0.733333 0.498039 0.270588
0.917647 0.541176 0.250980
0.996078 0.580392 0.219608
0.360784 0.635294 0.439216
0.384314 0.635294 0.439216
0.454902 0.639216 0.466667
0.541176 0.643137 0.498039
0.588235 0.654902 0.443137
0.670588 0.647059 0.309804
0.772549 0.623529 0.239216
0.956863 0.674510 0.211765
0.996078 0.705882 0.176471
0.572549 0.850980 0.615686
0.588235 0.850980 0.631373
0.643137 0.854902 0.650980
0.717647 0.858824 0.701961
0.756863 0.870588 0.658824
0.803922 0.866667 0.509804
0.905882 0.858824 0.286275
0.988235 0.803922 0.152941
0.996078 0.811765 0.121569
0.784314 0.956863 0.819608
0.792157 0.956863 0.811765
0.819608 0.960784 0.819608
0.850980 0.952941 0.847059
0.886275 0.956863 0.854902
0.890196 0.964706 0.776471
0.933333 0.976471 0.615686
1.000000 0.964706 0.317647
1.000000 0.913725 0.031373
0.913725 0.996078 0.921569
0.913725 0.996078 0.929412
0.929412 1.000000 0.929412
0.945098 1.000000 0.933333
0.956863 0.996078 0.952941
0.949020 0.992157 0.925490
0.952941 1.000000 0.850980
0.984314 1.000000 0.709804
1.000000 0.996078 0.392157
0.000000 0.050980 0.415686
0.035294 0.047059 0.411765
0.200000 0.054902 0.427451
0.317647 0.062745 0.423529
0.447059 0.094118 0.435294
0.541176 0.125490 0.419608
0.647059 0.149020 0.419608
0.819608 0.121569 0.427451
1.000000 0.000000 0.415686
0.000000 0.117647 0.439216
0.031373 0.113725 0.423529
0.207843 0.125490 0.427451
0.341176 0.141176 0.443137
0.466667 0.172549 0.443137
0.564706 0.196078 0.439216
0.674510 0.200000 0.431373
0.835294 0.164706 0.431373
0.996078 0.003922 0.392157
0.003922 0.203922 0.388235
0.062745 0.203922 0.392157
0.188235 0.203922 0.388235
0.301961 0.231373 0.396078
0.427451 0.254902 0.400000
0.517647 0.258824 0.400000
0.647059 0.266667 0.411765
0.831373 0.239216 0.415686
0.996078 0.137255 0.364706
0.011765 0.305882 0.388235
0.098039 0.301961 0.384314
0.196078 0.309804 0.372549
0.313725 0.317647 0.396078
0.427451 0.349020 0.396078
0.525490 0.341176 0.403922
0.666667 0.345098 0.403922
0.858824 0.325490 0.372549
1.000000 0.380392 0.380392
0.180392 0.423529 0.411765
0.219608 0.423529 0.415686
0.274510 0.427451 0.415686
0.352941 0.427451 0.411765
0.427451 0.431373 0.400000
0.549020 0.439216 0.388235
0.701961 0.462745 0.392157
0.901961 0.490196 0.384314
1.000000 0.525490 0.360784
0.156863 0.619608 0.513725
0.211765 0.623529 0.505882
0.305882 0.619608 0.505882
0.419608 0.619608 0.498039
0.568627 0.627451 0.552941
0.635294 0.619608 0.431373
0.772549 0.607843 0.372549
0.972549 0.662745 0.360784
1.000000 0.678431 0.341176
0.407843 0.847059 0.647059
0.447059 0.847059 0.650980
0.525490 0.847059 0.658824
0.635294 0.850980 0.690196
0.760784 0.862745 0.756863
0.792157 0.866667 0.678431
0.890196 0.850980 0.466667
0.992157 0.803922 0.325490
1.000000 0.807843 0.325490
0.745098 0.964706 0.819608
0.764706 0.956863 0.831373
0.792157 0.960784 0.843137
0.847059 0.964706 0.870588
0.894118 0.968627 0.894118
0.909804 0.968627 0.886275
0.933333 0.972549 0.764706
1.000000 0.968627 0.517647
1.000000 0.913725 0.305882
0.913725 0.996078 0.929412
0.913725 1.000000 0.941176
0.929412 1.000000 0.945098
0.945098 1.000000 0.949020
0.960784 1.000000 0.949020
0.968627 1.000000 0.956863
0.964706 1.000000 0.925490
0.980392 1.000000 0.831373
0.996078 1.000000 0.584314
0.000000 0.054902 0.513725
0.007843 0.054902 0.533333
0.141176 0.047059 0.533333
0.286275 0.050980 0.529412
0.423529 0.078431 0.549020
0.545098 0.121569 0.556863
0.658824 0.149020 0.545098
0.811765 0.109804 0.580392
1.000000 0.000000 0.619608
0.000000 0.109804 0.529412
0.000000 0.121569 0.549020
0.152941 0.121569 0.556863
0.301961 0.133333 0.556863
0.439216 0.152941 0.572549
0.568627 0.188235 0.576471
0.670588 0.196078 0.560784
0.835294 0.152941 0.596078
1.000000 0.000000 0.603922
0.000000 0.196078 0.490196
0.000000 0.192157 0.490196
0.133333 0.196078 0.490196
0.274510 0.211765 0.505882
0.407843 0.227451 0.513725
0.537255 0.250980 0.537255
0.639216 0.258824 0.541176
0.835294 0.223529 0.584314
0.996078 0.113725 0.600000
0.003922 0.286275 0.466667
0.003922 0.294118 0.478431
0.160784 0.294118 0.482353
0.274510 0.305882 0.498039
0.407843 0.317647 0.521569
0.533333 0.337255 0.545098
0.670588 0.341176 0.545098
0.850980 0.298039 0.576471
1.000000 0.243137 0.576471
0.000000 0.396078 0.498039
0.035294 0.403922 0.505882
0.160784 0.403922 0.494118
0.262745 0.396078 0.494118
0.384314 0.396078 0.517647
0.541176 0.423529 0.533333
0.701961 0.431373 0.560784
0.901961 0.407843 0.552941
1.000000 0.388235 0.501961
0.003922 0.564706 0.580392
0.011765 0.564706 0.572549
0.168627 0.564706 0.580392
0.282353 0.560784 0.568627
0.411765 0.560784 0.564706
0.556863 0.560784 0.541176
0.737255 0.580392 0.541176
0.945098 0.611765 0.541176
1.000000 0.635294 0.533333
0.000000 0.835294 0.749020
0.000000 0.835294 0.745098
0.125490 0.839216 0.721569
0.392157 0.839216 0.729412
0.603922 0.831373 0.733333
0.788235 0.850980 0.800000
0.850980 0.827451 0.631373
0.988235 0.796078 0.537255
0.996078 0.803922 0.545098
0.631373 0.972549 0.839216
0.643137 0.960784 0.835294
0.701961 0.960784 0.850980
0.784314 0.960784 0.870588
0.858824 0.964706 0.898039
0.929412 0.976471 0.937255
0.937255 0.984314 0.898039
1.000000 0.972549 0.717647
1.000000 0.909804 0.541176
0.917647 0.996078 0.952941
0.917647 1.000000 0.952941
0.921569 1.000000 0.945098
0.937255 1.000000 0.960784
0.960784 1.000000 0.968627
0.976471 1.000000 0.976471
0.980392 1.000000 0.972549
0.988235 1.000000 0.917647
1.000000 1.000000 0.776471
0.003922 0.035294 0.705882
0.000000 0.031373 0.701961
0.000000 0.023529 0.705882
0.235294 0.003922 0.709804
0.411765 0.003922 0.729412
0.552941 0.023529 0.737255
0.701961 0.058824 0.752941
0.823529 0.054902 0.752941
0.996078 0.000000 0.792157
0.000000 0.105882 0.737255
0.000000 0.109804 0.737255
0.000000 0.098039 0.741176
0.250980 0.101961 0.741176
0.423529 0.105882 0.752941
0.572549 0.121569 0.760784
0.717647 0.137255 0.772549
0.843137 0.125490 0.760784
0.996078 0.000000 0.792157
0.000000 0.176471 0.674510
0.000000 0.172549 0.662745
0.000000 0.176471 0.674510
0.219608 0.188235 0.666667
0.380392 0.200000 0.694118
0.545098 0.207843 0.729412
0.694118 0.215686 0.745098
0.827451 0.203922 0.741176
1.000000 0.074510 0.796078
0.000000 0.301961 0.647059
0.000000 0.294118 0.650980
0.003922 0.278431 0.662745
0.180392 0.278431 0.678431
0.376471 0.294118 0.698039
0.529412 0.305882 0.725490
0.705882 0.313725 0.752941
0.858824 0.290196 0.764706
0.996078 0.219608 0.796078
0.003922 0.400000 0.643137
0.000000 0.400000 0.631373
0.000000 0.396078 0.654902
0.070588 0.396078 0.670588
0.313725 0.380392 0.701961
0.521569 0.396078 0.729412
0.713725 0.415686 0.760784
0.890196 0.400000 0.768627
1.000000 0.380392 0.780392
0.003922 0.549020 0.709804
0.003922 0.549020 0.709804
0.003922 0.541176 0.705882
0.011765 0.537255 0.705882
0.196078 0.501961 0.682353
0.462745 0.505882 0.725490
0.733333 0.560784 0.760784
0.921569 0.556863 0.768627
0.996078 0.576471 0.749020
0.003922 0.745098 0.800000
0.007843 0.749020 0.796078
0.000000 0.752941 0.803922
0.000000 0.749020 0.792157
0.294118 0.756863 0.803922
0.541176 0.752941 0.784314
0.741176 0.764706 0.764706
0.945098 0.784314 0.768627
1.000000 0.803922 0.760784
0.117647 0.992157 0.909804
0.219608 0.960784 0.882353
0.384314 0.960784 0.886275
0.537255 0.964706 0.890196
0.713725 0.964706 0.898039
0.854902 0.964706 0.917647
0.956863 0.976471 0.952941
0.984314 0.968627 0.870588
1.000000 0.925490 0.796078
0.843137 1.000000 0.956863
0.854902 1.000000 0.952941
0.874510 1.000000 0.956863
0.913725 0.996078 0.960784
0.949020 1.000000 0.972549
0.976471 1.000000 0.984314
0.992157 1.000000 0.988235
0.992157 1.000000 0.980392
1.000000 0.996078 0.909804
0.000000 0.000000 0.941176
0.000000 0.000000 0.941176
0.000000 0.000000 0.933333
0.129412 0.000000 0.921569
0.384314 0.000000 0.929412
0.560784 0.000000 0.933333
0.721569 0.000000 0.933333
0.882353 0.000000 0.949020
1.000000 0.000000 0.949020
0.000000 0.062745 0.976471
0.000000 0.058824 0.980392
0.000000 0.047059 0.972549
0.109804 0.011765 0.960784
0.388235 0.000000 0.945098
0.568627 0.000000 0.952941
0.737255 0.003922 0.960784
0.894118 0.003922 0.964706
0.996078 0.003922 0.949020
0.007843 0.168627 0.905882
0.003922 0.164706 0.909804
0.000000 0.160784 0.905882
0.003922 0.164706 0.909804
0.352941 0.152941 0.909804
0.549020 0.149020 0.925490
0.717647 0.152941 0.949020
0.886275 0.141176 0.941176
0.996078 0.035294 0.949020
0.007843 0.282353 0.898039
0.000000 0.274510 0.901961
0.007843 0.258824 0.913725
0.003922 0.258824 0.901961
0.305882 0.262745 0.917647
0.529412 0.266667 0.925490
0.713725 0.266667 0.945098
0.898039 0.262745 0.945098
1.000000 0.227451 0.956863
0.007843 0.423529 0.890196
0.000000 0.411765 0.882353
0.000000 0.403922 0.894118
0.003922 0.364706 0.901961
0.129412 0.352941 0.913725
0.482353 0.356863 0.925490
0.694118 0.364706 0.952941
0.894118 0.396078 0.956863
0.996078 0.368627 0.956863
0.003922 0.552941 0.894118
0.007843 0.556863 0.898039
0.003922 0.541176 0.894118
0.003922 0.521569 0.894118
0.000000 0.486275 0.901961
0.337255 0.450980 0.921569
0.674510 0.501961 0.945098
0.909804 0.564706 0.972549
1.000000 0.572549 0.952941
0.000000 0.725490 0.937255
0.007843 0.721569 0.937255
0.007843 0.721569 0.937255
0.007843 0.701961 0.937255
0.000000 0.690196 0.925490
0.003922 0.654902 0.913725
0.607843 0.678431 0.937255
0.921569 0.772549 0.956863
1.000000 0.784314 0.945098
0.000000 0.913725 0.972549
0.003922 0.886275 0.933333
0.003922 0.886275 0.933333
0.003922 0.886275 0.933333
0.349020 0.898039 0.925490
0.592157 0.909804 0.925490
0.788235 0.925490 0.949020
0.929412 0.933333 0.941176
1.000000 0.949020 0.945098
0.650980 1.000000 0.984314
0.674510 0.996078 0.976471
0.705882 1.000000 0.980392
0.784314 1.000000 0.984314
0.870588 0.996078 0.984314
0.941176 1.000000 0.988235
0.988235 1.000000 1.000000
1.000000 1.000000 1.000000
1.000000 1.000000 0.992157
0.000000 0.000000 0.996078
0.000000 0.000000 0.996078
0.003922 0.003922 1.000000
0.000000 0.000000 0.996078
0.329412 0.003922 1.000000
0.529412 0.000000 1.000000
0.694118 0.000000 0.996078
0.847059 0.003922 1.000000
0.988235 0.003922 1.000000
0.000000 0.019608 1.000000
0.000000 0.007843 1.000000
0.000000 0.000000 0.996078
0.039216 0.000000 1.000000
0.360784 0.000000 1.000000
0.541176 0.003922 1.000000
0.701961 0.003922 1.000000
0.850980 0.000000 1.000000
0.992157 0.000000 1.000000
0.000000 0.149020 1.000000
0.003922 0.145098 1.000000
0.000000 0.141176 1.000000
0.000000 0.133333 1.000000
0.301961 0.125490 1.000000
0.505882 0.121569 0.996078
0.682353 0.125490 1.000000
0.843137 0.137255 1.000000
0.996078 0.137255 0.996078
0.000000 0.254902 0.992157
0.000000 0.254902 1.000000
0.000000 0.247059 1.000000
0.000000 0.247059 1.000000
0.223529 0.239216 0.996078
0.482353 0.243137 1.000000
0.674510 0.243137 1.000000
0.835294 0.250980 0.996078
0.996078 0.274510 1.000000
0.007843 0.403922 1.000000
0.000000 0.392157 1.000000
0.007843 0.376471 1.000000
0.000000 0.333333 1.000000
0.000000 0.341176 0.996078
0.419608 0.333333 1.000000
0.647059 0.345098 1.000000
0.827451 0.372549 0.996078
0.996078 0.427451 1.000000
0.003922 0.545098 1.000000
0.003922 0.537255 1.000000
0.003922 0.529412 1.000000
0.000000 0.501961 1.000000
0.000000 0.462745 1.000000
0.239216 0.447059 0.996078
0.596078 0.462745 0.996078
0.823529 0.529412 0.996078
0.992157 0.611765 1.000000
0.003922 0.686275 1.000000
0.003922 0.686275 1.000000
0.003922 0.678431 0.992157
0.000000 0.662745 0.988235
0.003922 0.639216 1.000000
0.000000 0.607843 1.000000
0.552941 0.635294 1.000000
0.843137 0.725490 1.000000
0.996078 0.807843 0.996078
0.015686 0.839216 1.000000
0.000000 0.835294 1.000000
0.007843 0.831373 0.992157
0.000000 0.831373 0.996078
0.003922 0.839216 1.000000
0.270588 0.839216 1.000000
0.556863 0.827451 0.996078
0.874510 0.898039 1.000000
1.000000 0.960784 1.000000
0.415686 0.976471 1.000000
0.443137 0.968627 0.996078
0.513725 0.980392 1.000000
0.611765 0.976471 1.000000
0.717647 0.984314 0.996078
0.835294 0.992157 0.992157
0.909804 0.992157 0.996078
0.988235 1.000000 1.000000
1.000000 1.000000 1.000000
