mpv/luts/FG_CineBright.cube
#Generated with IWLTBAP LUT Generator
#Website: http://luts.iwltbap.com
TITLE "FG_CineBright"
#LUT size
LUT_3D_SIZE 5
#LUT data points
0.070588 0.117647 0.117647
0.250980 0.129412 0.109804
0.796078 0.215686 0.066667
1.000000 0.301961 0.129412
1.000000 0.454902 0.341176
0.015686 0.203922 0.156863
0.282353 0.270588 0.062745
0.823529 0.384314 0.000000
1.000000 0.407843 0.160784
1.000000 0.525490 0.380392
0.000000 0.525490 0.278431
0.003922 0.525490 0.215686
0.800000 0.627451 0.003922
0.996078 0.631373 0.235294
1.000000 0.686275 0.494118
0.364706 0.756863 0.545098
0.411765 0.756863 0.529412
0.576471 0.792157 0.474510
1.000000 0.847059 0.003922
0.996078 0.819608 0.572549
0.560784 1.000000 0.784314
0.619608 1.000000 0.784314
0.662745 1.000000 0.752941
0.921569 1.000000 0.658824
0.996078 0.937255 0.666667
0.094118 0.145098 0.215686
0.274510 0.145098 0.188235
0.827451 0.321569 0.027451
1.000000 0.392157 0.149020
1.000000 0.498039 0.360784
0.003922 0.247059 0.243137
0.274510 0.274510 0.227451
0.850980 0.431373 0.133333
1.000000 0.462745 0.180392
1.000000 0.556863 0.400000
0.000000 0.560784 0.372549
0.149020 0.556863 0.349020
0.784314 0.631373 0.258824
1.000000 0.650980 0.243137
1.000000 0.694118 0.505882
0.415686 0.764706 0.584314
0.490196 0.760784 0.580392
0.584314 0.780392 0.541176
1.000000 0.866667 0.403922
1.000000 0.823529 0.576471
0.537255 1.000000 0.792157
0.611765 0.996078 0.796078
0.694118 1.000000 0.772549
0.917647 1.000000 0.705882
1.000000 0.933333 0.662745
0.215686 0.207843 0.494118
0.454902 0.200000 0.529412
0.772549 0.321569 0.450980
0.996078 0.525490 0.431373
1.000000 0.572549 0.419608
0.000000 0.282353 0.482353
0.364706 0.341176 0.513725
0.713725 0.458824 0.482353
0.996078 0.615686 0.509804
0.996078 0.611765 0.458824
0.003922 0.580392 0.576471
0.337255 0.592157 0.560784
0.698039 0.647059 0.584314
1.000000 0.756863 0.627451
1.000000 0.709804 0.533333
0.466667 0.800000 0.666667
0.521569 0.792157 0.670588
0.623529 0.776471 0.654902
0.996078 0.894118 0.654902
1.000000 0.827451 0.592157
0.407843 1.000000 0.819608
0.533333 1.000000 0.823529
0.776471 1.000000 0.870588
0.898039 1.000000 0.811765
1.000000 0.937255 0.662745
0.431373 0.396078 0.713725
0.549020 0.423529 0.725490
0.815686 0.501961 0.749020
0.992157 0.619608 0.705882
0.992157 0.741176 0.694118
0.388235 0.439216 0.705882
0.533333 0.505882 0.705882
0.784314 0.564706 0.749020
0.980392 0.666667 0.717647
0.992157 0.764706 0.717647
0.368627 0.580392 0.721569
0.447059 0.584314 0.709804
0.682353 0.647059 0.721569
0.941176 0.741176 0.729412
1.000000 0.823529 0.760784
0.443137 0.792157 0.800000
0.498039 0.796078 0.788235
0.643137 0.803922 0.780392
0.976471 0.917647 0.843137
1.000000 0.898039 0.823529
0.301961 0.996078 0.952941
0.423529 0.996078 0.937255
0.690196 1.000000 0.917647
0.968627 0.996078 0.968627
1.000000 0.968627 0.847059
0.745098 0.701961 1.000000
0.792157 0.705882 1.000000
0.925490 0.717647 0.992157
1.000000 0.776471 1.000000
1.000000 0.901961 0.937255
0.709804 0.709804 1.000000
0.772549 0.729412 1.000000
0.905882 0.737255 1.000000
0.996078 0.800000 1.000000
1.000000 0.921569 0.956863
0.564706 0.721569 0.996078
0.627451 0.733333 0.996078
0.843137 0.803922 1.000000
1.000000 0.862745 1.000000
0.992157 0.968627 0.976471
0.552941 0.847059 1.000000
0.588235 0.854902 1.000000
0.698039 0.850980 1.000000
0.949020 0.933333 1.000000
1.000000 1.000000 1.000000
0.501961 0.972549 1.000000
0.549020 0.972549 1.000000
0.709804 0.980392 0.992157
0.980392 0.996078 0.992157
1.000000 1.000000 0.992157
