mpv/luts/FG_CineBasic.cube
#Generated with IWLTBAP LUT Generator
#Website: http://luts.iwltbap.com
TITLE "FG_CineBasic"
#LUT size
LUT_3D_SIZE 5
#LUT data points
0.101961 0.101961 0.101961
0.235294 0.121569 0.090196
0.447059 0.160784 0.105882
0.674510 0.223529 0.113725
0.933333 0.349020 0.200000
0.270588 0.176471 0.066667
0.290196 0.270588 0.113725
0.388235 0.207843 0.113725
0.615686 0.266667 0.109804
0.800000 0.384314 0.188235
0.407843 0.454902 0.023529
0.356863 0.490196 0.109804
0.596078 0.545098 0.145098
0.647059 0.419608 0.141176
0.760784 0.447059 0.160784
0.654902 0.752941 0.007843
0.462745 0.776471 0.082353
0.654902 0.788235 0.101961
0.917647 0.847059 0.219608
1.000000 0.913725 0.403922
0.913725 0.996078 0.623529
0.788235 1.000000 0.623529
0.894118 0.996078 0.647059
0.992157 0.972549 0.717647
1.000000 0.945098 0.784314
0.047059 0.141176 0.180392
0.180392 0.160784 0.176471
0.325490 0.176471 0.164706
0.498039 0.207843 0.164706
0.552941 0.317647 0.184314
0.274510 0.188235 0.145098
0.235294 0.243137 0.239216
0.403922 0.250980 0.223529
0.647059 0.298039 0.243137
0.843137 0.423529 0.329412
0.411765 0.458824 0.137255
0.305882 0.486275 0.235294
0.572549 0.533333 0.286275
0.607843 0.403922 0.219608
0.772549 0.454902 0.270588
0.627451 0.752941 0.129412
0.443137 0.784314 0.235294
0.643137 0.784314 0.250980
0.913725 0.835294 0.345098
1.000000 0.913725 0.537255
0.929412 0.984314 0.690196
0.776471 1.000000 0.682353
0.886275 0.996078 0.698039
0.984314 0.972549 0.756863
1.000000 0.949020 0.819608
0.000000 0.145098 0.360784
0.160784 0.160784 0.364706
0.337255 0.156863 0.337255
0.552941 0.172549 0.349020
0.721569 0.392157 0.450980
0.301961 0.180392 0.313725
0.227451 0.239216 0.439216
0.431373 0.250980 0.443137
0.670588 0.250980 0.454902
0.890196 0.392157 0.568627
0.321569 0.415686 0.360784
0.235294 0.486275 0.490196
0.474510 0.474510 0.482353
0.662745 0.478431 0.450980
0.909804 0.584314 0.552941
0.541176 0.713725 0.403922
0.172549 0.776471 0.462745
0.556863 0.776471 0.482353
0.866667 0.831373 0.576471
1.000000 0.925490 0.749020
0.921569 0.980392 0.811765
0.741176 1.000000 0.819608
0.850980 1.000000 0.815686
0.976471 0.972549 0.850980
0.996078 0.952941 0.866667
0.000000 0.149020 0.576471
0.101961 0.156863 0.572549
0.341176 0.141176 0.537255
0.576471 0.160784 0.592157
0.729412 0.356863 0.717647
0.341176 0.156863 0.525490
0.223529 0.231373 0.662745
0.439216 0.243137 0.678431
0.674510 0.243137 0.694118
0.886275 0.384314 0.819608
0.317647 0.403922 0.635294
0.200000 0.474510 0.709804
0.462745 0.466667 0.725490
0.713725 0.486275 0.717647
0.929412 0.572549 0.811765
0.454902 0.694118 0.701961
0.145098 0.760784 0.764706
0.454902 0.760784 0.760784
0.729412 0.764706 0.752941
0.882353 0.811765 0.796078
0.890196 0.968627 0.960784
0.698039 0.996078 0.984314
0.784314 0.992157 0.952941
0.925490 0.972549 0.933333
0.988235 0.941176 0.886275
0.003922 0.141176 0.784314
0.062745 0.152941 0.772549
0.349020 0.145098 0.784314
0.611765 0.152941 0.854902
0.729412 0.384314 0.964706
0.349020 0.113725 0.803922
0.203922 0.235294 0.913725
0.439216 0.243137 0.937255
0.694118 0.231373 0.945098
0.847059 0.396078 0.996078
0.270588 0.380392 0.870588
0.113725 0.462745 0.964706
0.447059 0.466667 0.968627
0.705882 0.466667 0.972549
0.913725 0.560784 1.000000
0.486275 0.745098 0.980392
0.000000 0.737255 1.000000
0.411765 0.737255 0.996078
0.713725 0.733333 0.992157
0.905882 0.839216 1.000000
0.572549 0.984314 0.996078
0.443137 0.996078 1.000000
0.607843 0.996078 1.000000
0.807843 0.984314 1.000000
1.000000 1.000000 1.000000
