mpv/luts/FG_CineBasic.cube
#Generated with IWLTBAP LUT Generator
#Website: http://luts.iwltbap.com
TITLE "FG_CineBasic"
#LUT size
LUT_3D_SIZE 9
#LUT data points
0.101961 0.101961 0.101961
0.145098 0.113725 0.101961
0.235294 0.121569 0.090196
0.333333 0.141176 0.086275
0.447059 0.160784 0.105882
0.568627 0.188235 0.113725
0.674510 0.223529 0.113725
0.788235 0.247059 0.105882
0.933333 0.349020 0.200000
0.223529 0.129412 0.090196
0.168627 0.176471 0.094118
0.223529 0.164706 0.090196
0.301961 0.160784 0.098039
0.396078 0.180392 0.101961
0.513725 0.207843 0.117647
0.639216 0.235294 0.109804
0.772549 0.266667 0.109804
0.835294 0.368627 0.203922
0.270588 0.176471 0.066667
0.211765 0.250980 0.105882
0.290196 0.270588 0.113725
0.337255 0.219608 0.109804
0.388235 0.207843 0.113725
0.494118 0.235294 0.109804
0.615686 0.266667 0.109804
0.752941 0.298039 0.098039
0.800000 0.384314 0.188235
0.309804 0.309804 0.074510
0.258824 0.360784 0.105882
0.325490 0.376471 0.105882
0.431373 0.407843 0.117647
0.490196 0.352941 0.133333
0.478431 0.286275 0.117647
0.549020 0.286275 0.109804
0.690196 0.329412 0.098039
0.862745 0.380392 0.086275
0.407843 0.454902 0.023529
0.298039 0.482353 0.105882
0.356863 0.490196 0.109804
0.474510 0.521569 0.129412
0.596078 0.545098 0.145098
0.658824 0.494118 0.172549
0.647059 0.419608 0.141176
0.639216 0.360784 0.109804
0.760784 0.447059 0.160784
0.329412 0.650980 0.109804
0.321569 0.650980 0.105882
0.403922 0.650980 0.101961
0.498039 0.658824 0.105882
0.615686 0.682353 0.125490
0.764706 0.713725 0.160784
0.874510 0.698039 0.247059
0.898039 0.619608 0.172549
0.988235 0.698039 0.278431
0.654902 0.752941 0.007843
0.439216 0.772549 0.062745
0.462745 0.776471 0.082353
0.549020 0.772549 0.070588
0.654902 0.788235 0.101961
0.776471 0.811765 0.149020
0.917647 0.847059 0.219608
1.000000 0.815686 0.313725
1.000000 0.913725 0.403922
0.870588 0.917647 0.415686
0.647059 0.929412 0.435294
0.666667 0.925490 0.439216
0.749020 0.929412 0.443137
0.835294 0.941176 0.490196
0.945098 0.949020 0.541176
1.000000 0.929412 0.600000
1.000000 0.890196 0.603922
1.000000 0.937255 0.698039
0.913725 0.996078 0.623529
0.764706 1.000000 0.615686
0.788235 1.000000 0.623529
0.839216 1.000000 0.623529
0.894118 0.996078 0.647059
0.941176 0.992157 0.682353
0.992157 0.972549 0.717647
1.000000 0.964706 0.772549
1.000000 0.945098 0.784314
0.086275 0.149020 0.098039
0.066667 0.172549 0.098039
0.168627 0.176471 0.082353
0.243137 0.172549 0.078431
0.305882 0.168627 0.082353
0.352941 0.172549 0.070588
0.415686 0.184314 0.066667
0.552941 0.227451 0.054902
0.513725 0.286275 0.098039
0.200000 0.184314 0.078431
0.082353 0.219608 0.054902
0.149020 0.223529 0.043137
0.215686 0.227451 0.019608
0.290196 0.223529 0.019608
0.341176 0.215686 0.031373
0.376471 0.200000 0.039216
0.466667 0.219608 0.011765
0.611765 0.411765 0.054902
0.274510 0.176471 0.105882
0.192157 0.239216 0.145098
0.254902 0.247059 0.156863
0.309804 0.219608 0.149020
0.372549 0.211765 0.141176
0.478431 0.243137 0.149020
0.615686 0.278431 0.156863
0.745098 0.301961 0.145098
0.800000 0.388235 0.243137
0.294118 0.290196 0.109804
0.227451 0.329412 0.141176
0.278431 0.345098 0.141176
0.392157 0.364706 0.160784
0.447059 0.333333 0.168627
0.450980 0.274510 0.145098
0.537255 0.286275 0.137255
0.690196 0.337255 0.141176
0.854902 0.380392 0.133333
0.411765 0.450980 0.074510
0.294118 0.490196 0.149020
0.349020 0.490196 0.149020
0.462745 0.513725 0.160784
0.592157 0.552941 0.180392
0.670588 0.509804 0.200000
0.654902 0.431373 0.168627
0.650980 0.372549 0.129412
0.760784 0.447059 0.176471
0.321569 0.650980 0.164706
0.321569 0.650980 0.164706
0.407843 0.650980 0.152941
0.513725 0.650980 0.149020
0.635294 0.678431 0.168627
0.768627 0.709804 0.211765
0.878431 0.698039 0.262745
0.901961 0.623529 0.200000
0.992157 0.764706 0.341176
0.639216 0.756863 0.003922
0.439216 0.776471 0.105882
0.474510 0.776471 0.117647
0.556863 0.776471 0.105882
0.658824 0.788235 0.133333
0.776471 0.815686 0.184314
0.913725 0.839216 0.243137
1.000000 0.823529 0.333333
1.000000 0.921569 0.423529
0.866667 0.905882 0.525490
0.670588 0.909804 0.537255
0.705882 0.898039 0.529412
0.796078 0.913725 0.560784
0.894118 0.925490 0.600000
0.988235 0.921569 0.647059
0.992157 0.901961 0.690196
1.000000 0.831373 0.572549
1.000000 0.929412 0.733333
0.921569 0.984314 0.698039
0.792157 1.000000 0.686275
0.823529 1.000000 0.709804
0.870588 0.996078 0.709804
0.921569 0.988235 0.721569
0.964706 0.976471 0.760784
1.000000 0.960784 0.792157
0.996078 0.952941 0.843137
1.000000 0.933333 0.792157
0.047059 0.141176 0.180392
0.101961 0.160784 0.188235
0.180392 0.160784 0.176471
0.258824 0.172549 0.180392
0.325490 0.176471 0.164706
0.384314 0.188235 0.152941
0.498039 0.207843 0.164706
0.647059 0.254902 0.164706
0.552941 0.317647 0.184314
0.219608 0.180392 0.074510
0.101961 0.207843 0.133333
0.160784 0.211765 0.133333
0.235294 0.207843 0.137255
0.290196 0.200000 0.129412
0.349020 0.200000 0.125490
0.415686 0.200000 0.117647
0.568627 0.243137 0.117647
0.564706 0.380392 0.200000
0.274510 0.188235 0.145098
0.176471 0.239216 0.235294
0.235294 0.243137 0.239216
0.313725 0.243137 0.235294
0.403922 0.250980 0.223529
0.517647 0.270588 0.243137
0.647059 0.298039 0.243137
0.776471 0.321569 0.239216
0.843137 0.423529 0.329412
0.317647 0.305882 0.129412
0.180392 0.333333 0.219608
0.258824 0.337255 0.223529
0.376471 0.360784 0.247059
0.415686 0.309804 0.227451
0.447059 0.286275 0.207843
0.568627 0.317647 0.211765
0.717647 0.345098 0.219608
0.874510 0.396078 0.203922
0.411765 0.458824 0.137255
0.250980 0.486275 0.243137
0.305882 0.486275 0.235294
0.431373 0.505882 0.254902
0.572549 0.533333 0.286275
0.623529 0.482353 0.278431
0.607843 0.403922 0.219608
0.654902 0.380392 0.188235
0.772549 0.454902 0.270588
0.270588 0.650980 0.239216
0.274510 0.650980 0.250980
0.364706 0.658824 0.254902
0.486275 0.647059 0.239216
0.615686 0.674510 0.270588
0.752941 0.705882 0.313725
0.843137 0.678431 0.341176
0.858824 0.600000 0.270588
0.952941 0.674510 0.352941
0.627451 0.752941 0.129412
0.411765 0.776471 0.219608
0.443137 0.784314 0.235294
0.529412 0.776471 0.227451
0.643137 0.784314 0.250980
0.764706 0.807843 0.294118
0.913725 0.835294 0.345098
1.000000 0.815686 0.407843
1.000000 0.913725 0.537255
0.874510 0.913725 0.533333
0.623529 0.921569 0.537255
0.643137 0.921569 0.552941
0.725490 0.921569 0.541176
0.819608 0.933333 0.572549
0.933333 0.941176 0.615686
0.996078 0.933333 0.690196
1.000000 0.898039 0.658824
0.992157 0.937255 0.752941
0.929412 0.984314 0.690196
0.756863 1.000000 0.674510
0.776471 1.000000 0.682353
0.827451 0.996078 0.678431
0.886275 0.996078 0.698039
0.921569 0.980392 0.725490
0.984314 0.972549 0.756863
0.996078 0.960784 0.807843
1.000000 0.949020 0.819608
0.003922 0.168627 0.215686
0.035294 0.184314 0.223529
0.129412 0.184314 0.219608
0.223529 0.184314 0.219608
0.313725 0.184314 0.211765
0.368627 0.207843 0.200000
0.474510 0.239216 0.207843
0.635294 0.266667 0.219608
0.619608 0.352941 0.270588
0.215686 0.192157 0.137255
0.003922 0.227451 0.168627
0.070588 0.231373 0.160784
0.196078 0.231373 0.164706
0.274510 0.227451 0.164706
0.325490 0.215686 0.160784
0.400000 0.215686 0.145098
0.533333 0.262745 0.149020
0.529412 0.356863 0.219608
0.298039 0.172549 0.254902
0.176471 0.239216 0.341176
0.223529 0.239216 0.337255
0.317647 0.243137 0.329412
0.423529 0.247059 0.329412
0.552941 0.258824 0.337255
0.686275 0.286275 0.333333
0.815686 0.364706 0.360784
0.894118 0.435294 0.470588
0.274510 0.258824 0.262745
0.164706 0.329412 0.325490
0.223529 0.337255 0.329412
0.325490 0.333333 0.329412
0.415686 0.341176 0.325490
0.517647 0.349020 0.325490
0.643137 0.368627 0.329412
0.776471 0.396078 0.333333
0.913725 0.419608 0.325490
0.380392 0.431373 0.262745
0.164706 0.482353 0.352941
0.223529 0.486275 0.345098
0.380392 0.486275 0.356863
0.529412 0.509804 0.384314
0.568627 0.450980 0.349020
0.564706 0.376471 0.286275
0.698039 0.403922 0.282353
0.796078 0.482353 0.345098
0.015686 0.647059 0.364706
0.050980 0.650980 0.360784
0.286275 0.650980 0.376471
0.443137 0.647059 0.364706
0.584314 0.662745 0.376471
0.729412 0.694118 0.423529
0.819608 0.666667 0.435294
0.831373 0.580392 0.341176
0.952941 0.725490 0.474510
0.611765 0.737255 0.247059
0.337255 0.772549 0.352941
0.376471 0.780392 0.360784
0.482353 0.780392 0.352941
0.619608 0.772549 0.352941
0.745098 0.803922 0.392157
0.894118 0.839216 0.458824
0.984314 0.815686 0.505882
1.000000 0.917647 0.619608
0.839216 0.886275 0.690196
0.611765 0.882353 0.701961
0.647059 0.886275 0.713725
0.733333 0.898039 0.717647
0.839216 0.901961 0.725490
0.933333 0.917647 0.768627
0.988235 0.894118 0.760784
1.000000 0.807843 0.650980
1.000000 0.917647 0.792157
0.929412 0.980392 0.800000
0.780392 1.000000 0.807843
0.792157 0.996078 0.807843
0.839216 0.996078 0.800000
0.901961 0.988235 0.807843
0.949020 0.972549 0.823529
0.992157 0.964706 0.862745
1.000000 0.960784 0.882353
1.000000 0.937255 0.835294
0.000000 0.145098 0.360784
0.035294 0.164706 0.380392
0.160784 0.160784 0.364706
0.254902 0.149020 0.349020
0.337255 0.156863 0.337255
0.415686 0.160784 0.333333
0.552941 0.172549 0.349020
0.725490 0.180392 0.364706
0.721569 0.392157 0.450980
0.227451 0.184314 0.215686
0.062745 0.207843 0.309804
0.121569 0.215686 0.317647
0.211765 0.203922 0.298039
0.298039 0.203922 0.305882
0.372549 0.203922 0.282353
0.498039 0.211765 0.290196
0.654902 0.250980 0.294118
0.600000 0.439216 0.423529
0.301961 0.180392 0.313725
0.176471 0.231373 0.423529
0.227451 0.239216 0.439216
0.317647 0.239216 0.439216
0.431373 0.250980 0.443137
0.541176 0.250980 0.450980
0.670588 0.250980 0.454902
0.811765 0.254902 0.443137
0.890196 0.392157 0.568627
0.278431 0.270588 0.313725
0.160784 0.337255 0.427451
0.219608 0.337255 0.447059
0.321569 0.345098 0.447059
0.443137 0.341176 0.447059
0.545098 0.349020 0.454902
0.686275 0.364706 0.450980
0.815686 0.376471 0.435294
0.952941 0.458824 0.470588
0.321569 0.415686 0.360784
0.172549 0.482353 0.470588
0.235294 0.486275 0.490196
0.349020 0.482353 0.486275
0.474510 0.474510 0.482353
0.564706 0.470588 0.462745
0.662745 0.478431 0.450980
0.788235 0.482353 0.435294
0.909804 0.584314 0.552941
0.003922 0.643137 0.498039
0.003922 0.643137 0.505882
0.160784 0.647059 0.505882
0.337255 0.643137 0.490196
0.525490 0.643137 0.501961
0.682353 0.670588 0.541176
0.721569 0.600000 0.486275
0.725490 0.494118 0.368627
0.823529 0.572549 0.435294
0.541176 0.713725 0.403922
0.023529 0.768627 0.462745
0.172549 0.776471 0.462745
0.396078 0.776471 0.494118
0.556863 0.776471 0.482353
0.709804 0.796078 0.505882
0.866667 0.831373 0.576471
0.941176 0.788235 0.572549
1.000000 0.925490 0.749020
0.835294 0.878431 0.713725
0.517647 0.905882 0.721569
0.545098 0.901961 0.729412
0.631373 0.913725 0.729412
0.756863 0.905882 0.745098
0.874510 0.921569 0.772549
0.972549 0.925490 0.823529
1.000000 0.862745 0.737255
1.000000 0.941176 0.843137
0.921569 0.980392 0.811765
0.713725 1.000000 0.823529
0.741176 1.000000 0.819608
0.780392 1.000000 0.815686
0.850980 1.000000 0.815686
0.913725 0.980392 0.815686
0.976471 0.972549 0.850980
1.000000 0.968627 0.886275
0.996078 0.952941 0.866667
0.000000 0.180392 0.415686
0.007843 0.180392 0.419608
0.050980 0.184314 0.423529
0.211765 0.180392 0.411765
0.298039 0.176471 0.407843
0.396078 0.180392 0.396078
0.545098 0.200000 0.435294
0.701961 0.215686 0.466667
0.745098 0.384314 0.568627
0.219608 0.192157 0.321569
0.000000 0.231373 0.349020
0.000000 0.239216 0.352941
0.133333 0.231373 0.349020
0.254902 0.227451 0.349020
0.345098 0.231373 0.341176
0.482353 0.250980 0.368627
0.639216 0.262745 0.380392
0.650980 0.439216 0.509804
0.321569 0.156863 0.439216
0.168627 0.231373 0.533333
0.219608 0.231373 0.549020
0.325490 0.235294 0.549020
0.439216 0.247059 0.572549
0.549020 0.243137 0.572549
0.674510 0.247059 0.572549
0.807843 0.250980 0.592157
0.894118 0.372549 0.737255
0.333333 0.243137 0.462745
0.149020 0.325490 0.541176
0.200000 0.329412 0.537255
0.313725 0.333333 0.552941
0.447059 0.337255 0.564706
0.541176 0.349020 0.568627
0.666667 0.349020 0.576471
0.792157 0.349020 0.576471
0.925490 0.364706 0.552941
0.337255 0.419608 0.486275
0.149020 0.478431 0.588235
0.211765 0.482353 0.603922
0.329412 0.482353 0.611765
0.462745 0.474510 0.596078
0.576471 0.478431 0.600000
0.705882 0.486275 0.600000
0.850980 0.498039 0.596078
0.945098 0.580392 0.662745
0.003922 0.639216 0.627451
0.003922 0.647059 0.643137
0.152941 0.639216 0.639216
0.341176 0.639216 0.631373
0.478431 0.635294 0.631373
0.611765 0.635294 0.627451
0.701961 0.619608 0.607843
0.823529 0.611765 0.572549
0.858824 0.674510 0.611765
0.482353 0.709804 0.552941
0.000000 0.768627 0.619608
0.137255 0.772549 0.619608
0.294118 0.772549 0.627451
0.450980 0.772549 0.611765
0.635294 0.776471 0.619608
0.827451 0.815686 0.678431
0.882353 0.745098 0.619608
0.984314 0.917647 0.807843
0.784314 0.827451 0.843137
0.592157 0.870588 0.878431
0.615686 0.866667 0.874510
0.670588 0.870588 0.882353
0.752941 0.870588 0.878431
0.839216 0.870588 0.878431
0.925490 0.870588 0.866667
0.996078 0.858824 0.843137
0.996078 0.913725 0.894118
0.890196 0.968627 0.921569
0.729412 1.000000 0.925490
0.741176 1.000000 0.937255
0.788235 1.000000 0.929412
0.850980 0.984314 0.917647
0.909804 0.976471 0.913725
0.960784 0.960784 0.921569
1.000000 0.952941 0.905882
1.000000 0.929412 0.866667
0.000000 0.149020 0.576471
0.000000 0.156863 0.572549
0.101961 0.156863 0.572549
0.243137 0.156863 0.552941
0.341176 0.141176 0.537255
0.443137 0.149020 0.552941
0.576471 0.160784 0.592157
0.713725 0.152941 0.607843
0.729412 0.356863 0.717647
0.215686 0.172549 0.470588
0.007843 0.196078 0.529412
0.027451 0.203922 0.513725
0.176471 0.203922 0.517647
0.286275 0.196078 0.501961
0.403922 0.203922 0.513725
0.533333 0.211765 0.545098
0.666667 0.211765 0.560784
0.631373 0.407843 0.674510
0.341176 0.156863 0.525490
0.168627 0.235294 0.650980
0.223529 0.231373 0.662745
0.317647 0.243137 0.662745
0.439216 0.243137 0.678431
0.552941 0.247059 0.686275
0.674510 0.243137 0.694118
0.819608 0.243137 0.701961
0.886275 0.384314 0.819608
0.305882 0.262745 0.572549
0.137255 0.325490 0.658824
0.203922 0.329412 0.662745
0.329412 0.337255 0.678431
0.443137 0.341176 0.690196
0.552941 0.341176 0.686275
0.678431 0.341176 0.682353
0.811765 0.345098 0.698039
0.949020 0.352941 0.709804
0.317647 0.403922 0.635294
0.125490 0.474510 0.725490
0.200000 0.474510 0.709804
0.317647 0.478431 0.721569
0.462745 0.466667 0.725490
0.576471 0.474510 0.729412
0.713725 0.486275 0.717647
0.835294 0.482353 0.725490
0.929412 0.572549 0.811765
0.000000 0.631373 0.760784
0.000000 0.631373 0.760784
0.090196 0.631373 0.776471
0.309804 0.635294 0.768627
0.470588 0.627451 0.764706
0.600000 0.623529 0.756863
0.725490 0.627451 0.752941
0.858824 0.627451 0.737255
0.945098 0.690196 0.807843
0.454902 0.694118 0.701961
0.015686 0.764706 0.764706
0.145098 0.760784 0.764706
0.294118 0.760784 0.776471
0.454902 0.760784 0.760784
0.596078 0.760784 0.756863
0.729412 0.764706 0.752941
0.843137 0.745098 0.729412
0.882353 0.811765 0.796078
0.800000 0.831373 0.913725
0.525490 0.874510 0.929412
0.545098 0.882353 0.941176
0.611765 0.882353 0.933333
0.709804 0.878431 0.941176
0.784314 0.890196 0.933333
0.898039 0.886275 0.929412
1.000000 0.886275 0.925490
1.000000 0.933333 0.972549
0.890196 0.968627 0.960784
0.686275 0.996078 0.972549
0.698039 0.996078 0.984314
0.725490 1.000000 0.960784
0.784314 0.992157 0.952941
0.847059 0.988235 0.941176
0.925490 0.972549 0.933333
0.988235 0.968627 0.945098
0.988235 0.941176 0.886275
0.000000 0.176471 0.666667
0.000000 0.180392 0.658824
0.000000 0.180392 0.654902
0.180392 0.176471 0.643137
0.305882 0.176471 0.635294
0.443137 0.184314 0.670588
0.580392 0.192157 0.690196
0.713725 0.192157 0.721569
0.760784 0.341176 0.796078
0.211765 0.168627 0.576471
0.003922 0.219608 0.615686
0.000000 0.227451 0.607843
0.019608 0.227451 0.596078
0.243137 0.227451 0.600000
0.384314 0.243137 0.627451
0.529412 0.250980 0.650980
0.686275 0.258824 0.678431
0.654902 0.419608 0.764706
0.325490 0.137255 0.670588
0.160784 0.227451 0.784314
0.211765 0.235294 0.776471
0.321569 0.239216 0.792157
0.447059 0.239216 0.803922
0.552941 0.243137 0.811765
0.678431 0.231373 0.807843
0.819608 0.239216 0.819608
0.815686 0.364706 0.925490
0.345098 0.231373 0.701961
0.101961 0.325490 0.776471
0.180392 0.333333 0.800000
0.301961 0.337255 0.803922
0.435294 0.337255 0.803922
0.541176 0.341176 0.803922
0.678431 0.345098 0.811765
0.803922 0.341176 0.823529
0.933333 0.337255 0.831373
0.321569 0.423529 0.764706
0.054902 0.470588 0.839216
0.152941 0.470588 0.831373
0.298039 0.474510 0.831373
0.447059 0.462745 0.843137
0.572549 0.466667 0.839216
0.705882 0.462745 0.850980
0.843137 0.474510 0.850980
0.917647 0.564706 0.909804
0.003922 0.635294 0.890196
0.000000 0.627451 0.901961
0.007843 0.639216 0.894118
0.286275 0.627451 0.898039
0.447059 0.615686 0.874510
0.584314 0.627451 0.886275
0.737255 0.623529 0.882353
0.870588 0.627451 0.874510
0.941176 0.701961 0.937255
0.454902 0.713725 0.847059
0.000000 0.768627 0.886275
0.082353 0.764706 0.901961
0.258824 0.772549 0.882353
0.439216 0.764706 0.890196
0.580392 0.764706 0.882353
0.721569 0.756863 0.878431
0.870588 0.752941 0.886275
0.874510 0.843137 0.941176
0.811765 0.811765 1.000000
0.611765 0.843137 0.992157
0.635294 0.850980 1.000000
0.686275 0.866667 1.000000
0.764706 0.858824 0.992157
0.839216 0.862745 1.000000
0.925490 0.858824 1.000000
1.000000 0.854902 1.000000
0.996078 0.921569 1.000000
0.913725 0.964706 1.000000
0.768627 0.984314 1.000000
0.784314 0.984314 1.000000
0.819608 0.992157 1.000000
0.862745 0.976471 1.000000
0.901961 0.956863 0.992157
0.949020 0.956863 1.000000
0.992157 0.952941 0.996078
0.996078 0.968627 0.996078
0.003922 0.141176 0.784314
0.000000 0.145098 0.776471
0.062745 0.152941 0.772549
0.227451 0.145098 0.760784
0.349020 0.145098 0.784314
0.478431 0.152941 0.819608
0.611765 0.152941 0.854902
0.752941 0.141176 0.874510
0.729412 0.384314 0.964706
0.196078 0.152941 0.694118
0.000000 0.180392 0.749020
0.003922 0.188235 0.733333
0.184314 0.188235 0.737255
0.321569 0.196078 0.764706
0.443137 0.207843 0.792157
0.584314 0.211765 0.807843
0.721569 0.211765 0.839216
0.666667 0.431373 0.917647
0.349020 0.113725 0.803922
0.141176 0.223529 0.909804
0.203922 0.235294 0.913725
0.309804 0.239216 0.921569
0.439216 0.243137 0.937255
0.564706 0.239216 0.937255
0.694118 0.231373 0.945098
0.819608 0.227451 0.952941
0.847059 0.396078 0.996078
0.294118 0.258824 0.819608
0.054902 0.329412 0.913725
0.160784 0.337255 0.905882
0.298039 0.337255 0.921569
0.431373 0.337255 0.925490
0.552941 0.337255 0.945098
0.678431 0.341176 0.941176
0.811765 0.337255 0.960784
0.956863 0.329412 0.964706
0.270588 0.380392 0.870588
0.003922 0.450980 0.968627
0.113725 0.462745 0.964706
0.301961 0.462745 0.964706
0.447059 0.466667 0.968627
0.560784 0.458824 0.980392
0.705882 0.466667 0.972549
0.839216 0.466667 0.976471
0.913725 0.560784 1.000000
0.000000 0.603922 0.980392
0.003922 0.607843 0.984314
0.000000 0.600000 0.984314
0.235294 0.600000 0.996078
0.423529 0.596078 0.984314
0.572549 0.592157 0.984314
0.698039 0.596078 0.992157
0.854902 0.603922 0.992157
0.917647 0.686275 1.000000
0.486275 0.745098 0.980392
0.003922 0.745098 1.000000
0.000000 0.737255 1.000000
0.211765 0.741176 0.988235
0.411765 0.737255 0.996078
0.556863 0.733333 0.996078
0.713725 0.733333 0.992157
0.847059 0.733333 0.996078
0.905882 0.839216 1.000000
0.600000 0.874510 1.000000
0.356863 0.890196 1.000000
0.384314 0.898039 1.000000
0.450980 0.898039 1.000000
0.568627 0.886275 1.000000
0.682353 0.901961 1.000000
0.796078 0.905882 0.992157
0.905882 0.886275 1.000000
0.949020 0.933333 0.992157
0.572549 0.984314 0.996078
0.411765 0.996078 1.000000
0.443137 0.996078 1.000000
0.501961 0.996078 0.992157
0.607843 0.996078 1.000000
0.717647 0.996078 1.000000
0.807843 0.984314 1.000000
0.913725 0.992157 0.996078
1.000000 1.000000 1.000000
