mpv/luts/FG_CineTeal&Orange1.cube
#Generated with IWLTBAP LUT Generator
#Website: http://luts.iwltbap.com
TITLE "FG_CineTeal&Orange1"
#LUT size
LUT_3D_SIZE 25
#LUT data points
0.066667 0.109804 0.125490
0.062745 0.105882 0.121569
0.062745 0.105882 0.121569
0.070588 0.098039 0.121569
0.109804 0.105882 0.125490
0.149020 0.117647 0.117647
0.192157 0.121569 0.113725
0.239216 0.129412 0.113725
0.294118 0.145098 0.105882
0.364706 0.156863 0.101961
0.447059 0.168627 0.090196
0.525490 0.184314 0.078431
0.607843 0.200000 0.054902
0.705882 0.223529 0.023529
0.796078 0.243137 0.000000
0.870588 0.258824 0.000000
0.933333 0.274510 0.000000
0.972549 0.286275 0.000000
1.000000 0.298039 0.000000
1.000000 0.305882 0.000000
1.000000 0.317647 0.000000
1.000000 0.333333 0.000000
1.000000 0.337255 0.000000
0.996078 0.356863 0.007843
1.000000 0.431373 0.168627
0.113725 0.117647 0.125490
0.058824 0.113725 0.125490
0.062745 0.105882 0.129412
0.078431 0.105882 0.129412
0.113725 0.113725 0.121569
0.149020 0.117647 0.117647
0.184314 0.125490 0.113725
0.223529 0.133333 0.109804
0.270588 0.137255 0.101961
0.337255 0.149020 0.101961
0.411765 0.164706 0.094118
0.498039 0.176471 0.082353
0.584314 0.200000 0.047059
0.690196 0.219608 0.023529
0.780392 0.243137 0.000000
0.862745 0.254902 0.000000
0.917647 0.274510 0.000000
0.964706 0.286275 0.000000
0.996078 0.294118 0.000000
1.000000 0.305882 0.000000
1.000000 0.321569 0.003922
1.000000 0.333333 0.000000
0.996078 0.341176 0.000000
0.996078 0.360784 0.003922
1.000000 0.435294 0.211765
0.098039 0.113725 0.125490
0.054902 0.109804 0.121569
0.074510 0.113725 0.121569
0.082353 0.113725 0.121569
0.113725 0.121569 0.117647
0.149020 0.117647 0.105882
0.176471 0.121569 0.109804
0.211765 0.129412 0.109804
0.254902 0.137255 0.105882
0.301961 0.149020 0.098039
0.368627 0.160784 0.098039
0.450980 0.176471 0.078431
0.556863 0.192157 0.062745
0.662745 0.215686 0.039216
0.756863 0.239216 0.007843
0.835294 0.262745 0.000000
0.901961 0.274510 0.007843
0.949020 0.286275 0.000000
0.996078 0.294118 0.000000
1.000000 0.305882 0.000000
0.996078 0.313725 0.000000
1.000000 0.329412 0.000000
0.996078 0.341176 0.000000
0.996078 0.360784 0.003922
1.000000 0.419608 0.145098
0.160784 0.121569 0.117647
0.050980 0.113725 0.113725
0.070588 0.117647 0.117647
0.086275 0.125490 0.121569
0.121569 0.129412 0.117647
0.145098 0.133333 0.113725
0.176471 0.133333 0.109804
0.211765 0.133333 0.105882
0.254902 0.145098 0.101961
0.290196 0.149020 0.086275
0.356863 0.156863 0.090196
0.423529 0.172549 0.074510
0.521569 0.192157 0.058824
0.639216 0.223529 0.035294
0.733333 0.239216 0.007843
0.815686 0.254902 0.000000
0.874510 0.270588 0.000000
0.925490 0.282353 0.000000
0.972549 0.294118 0.000000
0.992157 0.298039 0.000000
0.996078 0.313725 0.000000
0.996078 0.321569 0.000000
1.000000 0.333333 0.000000
0.992157 0.364706 0.003922
1.000000 0.423529 0.180392
0.137255 0.121569 0.117647
0.062745 0.125490 0.113725
0.074510 0.133333 0.113725
0.086275 0.137255 0.109804
0.113725 0.141176 0.109804
0.156863 0.137255 0.121569
0.180392 0.149020 0.098039
0.215686 0.145098 0.098039
0.258824 0.149020 0.098039
0.298039 0.156863 0.094118
0.341176 0.156863 0.086275
0.407843 0.168627 0.086275
0.498039 0.200000 0.066667
0.611765 0.215686 0.043137
0.701961 0.235294 0.015686
0.784314 0.254902 0.000000
0.850980 0.266667 0.000000
0.913725 0.274510 0.003922
0.952941 0.290196 0.000000
0.996078 0.301961 0.000000
0.996078 0.313725 0.003922
0.996078 0.321569 0.000000
1.000000 0.333333 0.000000
1.000000 0.345098 0.000000
0.996078 0.360784 0.003922
0.043137 0.145098 0.141176
0.047059 0.152941 0.133333
0.054902 0.152941 0.137255
0.082353 0.160784 0.117647
0.129412 0.156863 0.125490
0.168627 0.160784 0.113725
0.207843 0.152941 0.109804
0.258824 0.156863 0.101961
0.298039 0.149020 0.098039
0.349020 0.156863 0.090196
0.415686 0.172549 0.082353
0.505882 0.188235 0.070588
0.607843 0.223529 0.047059
0.713725 0.239216 0.023529
0.772549 0.258824 0.000000
0.847059 0.274510 0.000000
0.898039 0.290196 0.000000
0.949020 0.294118 0.000000
0.992157 0.309804 0.000000
0.996078 0.321569 0.000000
1.000000 0.333333 0.000000
1.000000 0.337255 0.000000
1.000000 0.352941 0.000000
1.000000 0.372549 0.003922
1.000000 0.431373 0.137255
0.231373 0.141176 0.109804
0.054902 0.160784 0.141176
0.082353 0.164706 0.145098
0.117647 0.168627 0.129412
0.145098 0.176471 0.133333
0.168627 0.168627 0.121569
0.203922 0.172549 0.121569
0.254902 0.180392 0.117647
0.305882 0.184314 0.113725
0.360784 0.168627 0.109804
0.411765 0.188235 0.090196
0.517647 0.200000 0.082353
0.615686 0.227451 0.062745
0.698039 0.247059 0.023529
0.776471 0.266667 0.000000
0.843137 0.278431 0.000000
0.898039 0.290196 0.000000
0.949020 0.301961 0.003922
0.992157 0.317647 0.003922
0.996078 0.321569 0.007843
1.000000 0.333333 0.000000
1.000000 0.345098 0.000000
0.996078 0.360784 0.003922
1.000000 0.376471 0.000000
1.000000 0.439216 0.180392
0.200000 0.164706 0.098039
0.074510 0.176471 0.141176
0.090196 0.180392 0.141176
0.109804 0.188235 0.141176
0.137255 0.192157 0.125490
0.172549 0.200000 0.129412
0.207843 0.196078 0.121569
0.250980 0.203922 0.117647
0.309804 0.200000 0.117647
0.364706 0.207843 0.105882
0.435294 0.219608 0.109804
0.509804 0.223529 0.094118
0.600000 0.231373 0.082353
0.690196 0.250980 0.054902
0.764706 0.266667 0.027451
0.835294 0.290196 0.003922
0.890196 0.294118 0.000000
0.941176 0.309804 0.003922
0.984314 0.313725 0.003922
0.996078 0.329412 0.000000
1.000000 0.337255 0.003922
0.996078 0.349020 0.000000
0.996078 0.360784 0.003922
1.000000 0.368627 0.003922
0.996078 0.431373 0.121569
0.258824 0.172549 0.078431
0.054902 0.196078 0.156863
0.082353 0.200000 0.160784
0.109804 0.203922 0.149020
0.137255 0.207843 0.145098
0.172549 0.223529 0.145098
0.203922 0.223529 0.137255
0.254902 0.227451 0.117647
0.317647 0.243137 0.117647
0.384314 0.250980 0.113725
0.462745 0.258824 0.105882
0.533333 0.262745 0.094118
0.615686 0.258824 0.082353
0.674510 0.258824 0.070588
0.749020 0.270588 0.047059
0.815686 0.282353 0.023529
0.874510 0.294118 0.003922
0.921569 0.305882 0.003922
0.968627 0.317647 0.000000
1.000000 0.333333 0.000000
0.996078 0.341176 0.000000
1.000000 0.345098 0.000000
0.996078 0.360784 0.003922
1.000000 0.380392 0.000000
0.996078 0.435294 0.168627
0.219608 0.192157 0.082353
0.070588 0.211765 0.164706
0.090196 0.215686 0.156863
0.105882 0.235294 0.160784
0.125490 0.239216 0.160784
0.160784 0.247059 0.149020
0.219608 0.258824 0.152941
0.258824 0.254902 0.133333
0.329412 0.270588 0.141176
0.396078 0.290196 0.121569
0.482353 0.301961 0.101961
0.549020 0.309804 0.094118
0.623529 0.309804 0.070588
0.690196 0.305882 0.050980
0.741176 0.298039 0.039216
0.796078 0.290196 0.027451
0.850980 0.294118 0.003922
0.898039 0.305882 0.003922
0.945098 0.313725 0.000000
0.988235 0.333333 0.000000
0.996078 0.341176 0.000000
0.996078 0.349020 0.000000
1.000000 0.364706 0.007843
0.996078 0.368627 0.000000
1.000000 0.380392 0.000000
0.039216 0.282353 0.200000
0.047059 0.278431 0.200000
0.050980 0.282353 0.196078
0.070588 0.278431 0.200000
0.113725 0.294118 0.184314
0.176471 0.313725 0.196078
0.254902 0.333333 0.184314
0.337255 0.360784 0.172549
0.403922 0.360784 0.152941
0.494118 0.368627 0.145098
0.580392 0.388235 0.129412
0.654902 0.388235 0.109804
0.725490 0.388235 0.094118
0.776471 0.380392 0.066667
0.823529 0.376471 0.031373
0.862745 0.368627 0.000000
0.909804 0.360784 0.000000
0.945098 0.352941 0.003922
0.980392 0.349020 0.000000
0.988235 0.349020 0.000000
0.996078 0.360784 0.003922
1.000000 0.372549 0.003922
1.000000 0.380392 0.000000
0.992157 0.400000 0.003922
0.996078 0.454902 0.137255
0.368627 0.270588 0.058824
0.062745 0.278431 0.196078
0.054902 0.313725 0.207843
0.113725 0.321569 0.203922
0.152941 0.333333 0.192157
0.196078 0.352941 0.219608
0.243137 0.368627 0.207843
0.333333 0.388235 0.188235
0.415686 0.407843 0.176471
0.474510 0.403922 0.152941
0.580392 0.411765 0.141176
0.647059 0.415686 0.117647
0.713725 0.411765 0.098039
0.768627 0.407843 0.082353
0.819608 0.411765 0.039216
0.866667 0.400000 0.007843
0.913725 0.388235 0.000000
0.941176 0.388235 0.003922
0.984314 0.376471 0.000000
0.996078 0.368627 0.000000
0.996078 0.360784 0.000000
1.000000 0.372549 0.003922
0.996078 0.388235 0.003922
1.000000 0.400000 0.000000
0.992157 0.505882 0.192157
0.329412 0.325490 0.113725
0.070588 0.317647 0.203922
0.090196 0.349020 0.239216
0.082353 0.352941 0.223529
0.168627 0.368627 0.231373
0.207843 0.384314 0.231373
0.254902 0.392157 0.223529
0.337255 0.415686 0.207843
0.419608 0.439216 0.188235
0.509804 0.462745 0.164706
0.549020 0.443137 0.133333
0.650980 0.454902 0.121569
0.705882 0.458824 0.101961
0.776471 0.450980 0.090196
0.823529 0.439216 0.058824
0.862745 0.439216 0.023529
0.917647 0.415686 0.000000
0.956863 0.415686 0.000000
0.988235 0.407843 0.000000
0.996078 0.407843 0.000000
0.996078 0.407843 0.000000
1.000000 0.388235 0.000000
0.996078 0.388235 0.000000
1.000000 0.400000 0.000000
0.996078 0.474510 0.125490
0.466667 0.356863 0.070588
0.074510 0.349020 0.235294
0.043137 0.384314 0.247059
0.133333 0.400000 0.247059
0.192157 0.407843 0.243137
0.215686 0.415686 0.247059
0.250980 0.431373 0.239216
0.321569 0.439216 0.235294
0.396078 0.454902 0.200000
0.486275 0.482353 0.168627
0.580392 0.494118 0.156863
0.627451 0.482353 0.133333
0.705882 0.486275 0.105882
0.768627 0.478431 0.090196
0.819608 0.478431 0.066667
0.870588 0.470588 0.039216
0.909804 0.454902 0.011765
0.949020 0.454902 0.000000
0.984314 0.439216 0.003922
1.000000 0.427451 0.003922
0.996078 0.415686 0.000000
0.996078 0.411765 0.003922
0.996078 0.407843 0.000000
0.996078 0.407843 0.000000
1.000000 0.564706 0.172549
0.372549 0.392157 0.133333
0.090196 0.392157 0.258824
0.090196 0.423529 0.262745
0.105882 0.439216 0.278431
0.184314 0.443137 0.254902
0.223529 0.450980 0.254902
0.274510 0.458824 0.254902
0.341176 0.478431 0.250980
0.407843 0.490196 0.219608
0.494118 0.509804 0.207843
0.572549 0.529412 0.176471
0.639216 0.529412 0.133333
0.694118 0.517647 0.113725
0.764706 0.513725 0.090196
0.815686 0.509804 0.078431
0.862745 0.498039 0.050980
0.890196 0.498039 0.019608
0.937255 0.486275 0.000000
0.976471 0.482353 0.007843
1.000000 0.474510 0.000000
1.000000 0.458824 0.003922
1.000000 0.447059 0.003922
0.996078 0.435294 0.003922
0.992157 0.435294 0.003922
0.996078 0.435294 0.000000
0.180392 0.600000 0.380392
0.184314 0.607843 0.376471
0.184314 0.607843 0.376471
0.192157 0.607843 0.364706
0.215686 0.596078 0.376471
0.262745 0.588235 0.360784
0.341176 0.600000 0.349020
0.411765 0.603922 0.337255
0.474510 0.615686 0.325490
0.552941 0.619608 0.305882
0.619608 0.631373 0.282353
0.717647 0.647059 0.254902
0.784314 0.639216 0.223529
0.831373 0.619608 0.203922
0.898039 0.600000 0.172549
0.937255 0.596078 0.152941
0.980392 0.592157 0.101961
1.000000 0.576471 0.058824
0.992157 0.564706 0.031373
0.992157 0.556863 0.000000
0.992157 0.545098 0.000000
0.996078 0.529412 0.000000
0.992157 0.501961 0.000000
1.000000 0.494118 0.003922
0.996078 0.592157 0.156863
0.694118 0.600000 0.105882
0.117647 0.584314 0.356863
0.137255 0.615686 0.364706
0.254902 0.600000 0.360784
0.274510 0.611765 0.364706
0.301961 0.615686 0.368627
0.341176 0.623529 0.364706
0.400000 0.635294 0.360784
0.470588 0.635294 0.345098
0.545098 0.654902 0.325490
0.623529 0.658824 0.309804
0.701961 0.670588 0.282353
0.784314 0.678431 0.266667
0.835294 0.670588 0.231373
0.890196 0.647059 0.219608
0.949020 0.627451 0.200000
0.980392 0.615686 0.168627
1.000000 0.607843 0.121569
1.000000 0.596078 0.074510
1.000000 0.584314 0.035294
1.000000 0.568627 0.015686
1.000000 0.560784 0.000000
0.996078 0.549020 0.000000
1.000000 0.541176 0.007843
1.000000 0.678431 0.215686
0.556863 0.631373 0.172549
0.219608 0.619608 0.360784
0.117647 0.674510 0.384314
0.282353 0.643137 0.388235
0.294118 0.650980 0.388235
0.333333 0.650980 0.388235
0.372549 0.658824 0.380392
0.419608 0.658824 0.384314
0.482353 0.662745 0.368627
0.549020 0.674510 0.349020
0.615686 0.690196 0.341176
0.682353 0.701961 0.309804
0.768627 0.713725 0.294118
0.843137 0.721569 0.266667
0.886275 0.690196 0.247059
0.945098 0.670588 0.235294
0.984314 0.647059 0.211765
0.996078 0.635294 0.168627
1.000000 0.631373 0.137255
0.996078 0.623529 0.066667
1.000000 0.619608 0.039216
1.000000 0.592157 0.031373
1.000000 0.545098 0.000000
1.000000 0.560784 0.000000
1.000000 0.654902 0.145098
0.733333 0.686275 0.145098
0.184314 0.694118 0.411765
0.262745 0.694118 0.415686
0.329412 0.678431 0.411765
0.349020 0.686275 0.407843
0.364706 0.690196 0.407843
0.400000 0.686275 0.407843
0.427451 0.694118 0.392157
0.494118 0.698039 0.403922
0.560784 0.709804 0.384314
0.615686 0.709804 0.364706
0.698039 0.725490 0.349020
0.752941 0.733333 0.333333
0.827451 0.749020 0.305882
0.905882 0.749020 0.274510
0.921569 0.713725 0.258824
0.984314 0.690196 0.239216
0.996078 0.670588 0.215686
1.000000 0.654902 0.172549
1.000000 0.635294 0.121569
1.000000 0.631373 0.047059
1.000000 0.623529 0.011765
1.000000 0.564706 0.003922
0.996078 0.611765 0.000000
0.996078 0.721569 0.274510
0.592157 0.725490 0.180392
0.258824 0.721569 0.415686
0.305882 0.752941 0.450980
0.364706 0.717647 0.427451
0.384314 0.721569 0.435294
0.403922 0.725490 0.435294
0.431373 0.729412 0.435294
0.478431 0.729412 0.431373
0.517647 0.741176 0.431373
0.572549 0.737255 0.400000
0.627451 0.749020 0.384314
0.686275 0.752941 0.376471
0.756863 0.764706 0.345098
0.815686 0.768627 0.337255
0.882353 0.780392 0.313725
0.929412 0.772549 0.286275
0.968627 0.733333 0.254902
1.000000 0.705882 0.239216
1.000000 0.690196 0.223529
0.996078 0.678431 0.188235
1.000000 0.666667 0.129412
1.000000 0.627451 0.062745
1.000000 0.600000 0.058824
1.000000 0.576471 0.078431
0.996078 0.568627 0.023529
0.713725 0.858824 0.654902
0.721569 0.854902 0.658824
0.729412 0.854902 0.662745
0.725490 0.850980 0.666667
0.721569 0.847059 0.650980
0.733333 0.850980 0.647059
0.760784 0.850980 0.639216
0.780392 0.854902 0.627451
0.815686 0.862745 0.619608
0.854902 0.862745 0.607843
0.901961 0.866667 0.596078
0.949020 0.862745 0.576471
0.992157 0.866667 0.564706
0.996078 0.843137 0.533333
1.000000 0.827451 0.533333
0.996078 0.800000 0.513725
1.000000 0.784314 0.498039
0.992157 0.764706 0.478431
1.000000 0.741176 0.450980
1.000000 0.717647 0.419608
1.000000 0.701961 0.376471
0.996078 0.674510 0.337255
1.000000 0.647059 0.290196
1.000000 0.603922 0.345098
1.000000 0.788235 0.564706
0.988235 0.874510 0.513725
0.733333 0.886275 0.678431
0.745098 0.862745 0.658824
0.752941 0.862745 0.662745
0.756863 0.870588 0.658824
0.764706 0.870588 0.654902
0.780392 0.878431 0.662745
0.815686 0.874510 0.658824
0.843137 0.878431 0.662745
0.866667 0.882353 0.643137
0.898039 0.886275 0.623529
0.941176 0.890196 0.615686
0.972549 0.894118 0.607843
1.000000 0.890196 0.600000
0.992157 0.866667 0.572549
1.000000 0.850980 0.572549
1.000000 0.831373 0.564706
1.000000 0.815686 0.549020
1.000000 0.792157 0.517647
1.000000 0.768627 0.513725
1.000000 0.756863 0.474510
1.000000 0.733333 0.431373
1.000000 0.705882 0.380392
1.000000 0.627451 0.360784
1.000000 0.858824 0.631373
0.898039 0.913725 0.580392
0.780392 0.898039 0.701961
0.800000 0.894118 0.705882
0.784314 0.886275 0.698039
0.807843 0.898039 0.694118
0.807843 0.894118 0.701961
0.827451 0.898039 0.709804
0.847059 0.901961 0.694118
0.870588 0.905882 0.698039
0.894118 0.905882 0.682353
0.921569 0.913725 0.674510
0.945098 0.913725 0.670588
0.972549 0.921569 0.654902
1.000000 0.921569 0.650980
0.992157 0.913725 0.635294
0.996078 0.890196 0.611765
1.000000 0.870588 0.623529
1.000000 0.862745 0.627451
1.000000 0.839216 0.588235
1.000000 0.831373 0.584314
1.000000 0.811765 0.560784
1.000000 0.796078 0.529412
0.996078 0.749020 0.486275
1.000000 0.713725 0.443137
0.996078 0.862745 0.674510
0.988235 0.921569 0.600000
0.827451 0.937255 0.749020
0.843137 0.917647 0.737255
0.854902 0.913725 0.745098
0.854902 0.933333 0.733333
0.866667 0.917647 0.749020
0.862745 0.933333 0.745098
0.882353 0.929412 0.741176
0.898039 0.937255 0.729412
0.921569 0.937255 0.737255
0.945098 0.941176 0.721569
0.960784 0.941176 0.721569
0.992157 0.945098 0.709804
1.000000 0.945098 0.701961
1.000000 0.937255 0.694118
1.000000 0.929412 0.678431
0.988235 0.917647 0.674510
1.000000 0.905882 0.678431
1.000000 0.890196 0.662745
1.000000 0.878431 0.654902
1.000000 0.866667 0.647059
0.996078 0.854902 0.627451
1.000000 0.827451 0.592157
1.000000 0.780392 0.560784
1.000000 0.921569 0.713725
0.949020 0.952941 0.678431
0.886275 0.949020 0.796078
0.890196 0.952941 0.776471
0.901961 0.949020 0.800000
0.909804 0.952941 0.788235
0.913725 0.956863 0.792157
0.929412 0.956863 0.796078
0.933333 0.968627 0.800000
0.941176 0.952941 0.784314
0.941176 0.964706 0.784314
0.968627 0.964706 0.784314
0.980392 0.968627 0.768627
1.000000 0.960784 0.760784
1.000000 0.952941 0.749020
0.996078 0.945098 0.729412
1.000000 0.941176 0.737255
0.992157 0.941176 0.733333
1.000000 0.929412 0.733333
1.000000 0.921569 0.737255
1.000000 0.909804 0.729412
1.000000 0.909804 0.737255
1.000000 0.905882 0.725490
0.996078 0.894118 0.705882
1.000000 0.882353 0.686275
1.000000 0.870588 0.654902
0.058824 0.109804 0.133333
0.054902 0.105882 0.129412
0.058824 0.113725 0.125490
0.058824 0.113725 0.125490
0.058824 0.117647 0.129412
0.086275 0.133333 0.125490
0.117647 0.137255 0.113725
0.156863 0.145098 0.109804
0.188235 0.149020 0.109804
0.223529 0.152941 0.098039
0.266667 0.152941 0.098039
0.305882 0.156863 0.082353
0.356863 0.152941 0.066667
0.396078 0.164706 0.050980
0.466667 0.172549 0.019608
0.580392 0.196078 0.003922
0.666667 0.227451 0.007843
0.760784 0.247059 0.000000
0.831373 0.270588 0.011765
0.890196 0.282353 0.000000
0.945098 0.298039 0.000000
0.996078 0.313725 0.000000
1.000000 0.333333 0.007843
1.000000 0.352941 0.003922
1.000000 0.392157 0.007843
0.078431 0.117647 0.125490
0.054902 0.113725 0.133333
0.054902 0.113725 0.125490
0.058824 0.113725 0.125490
0.066667 0.129412 0.129412
0.074510 0.137255 0.125490
0.105882 0.149020 0.117647
0.141176 0.152941 0.117647
0.172549 0.156863 0.113725
0.215686 0.164706 0.094118
0.250980 0.160784 0.098039
0.298039 0.160784 0.082353
0.337255 0.160784 0.070588
0.384314 0.164706 0.043137
0.435294 0.160784 0.027451
0.552941 0.188235 0.019608
0.635294 0.219608 0.000000
0.733333 0.239216 0.007843
0.803922 0.258824 0.000000
0.870588 0.282353 0.003922
0.933333 0.294118 0.000000
0.988235 0.313725 0.000000
1.000000 0.325490 0.003922
0.996078 0.349020 0.000000
0.996078 0.392157 0.023529
0.066667 0.121569 0.125490
0.039216 0.133333 0.141176
0.039216 0.125490 0.117647
0.050980 0.137255 0.125490
0.043137 0.141176 0.125490
0.066667 0.149020 0.129412
0.094118 0.156863 0.117647
0.121569 0.168627 0.113725
0.176471 0.160784 0.117647
0.192157 0.164706 0.094118
0.239216 0.172549 0.101961
0.274510 0.172549 0.074510
0.325490 0.168627 0.066667
0.364706 0.164706 0.043137
0.427451 0.168627 0.035294
0.505882 0.180392 0.015686
0.600000 0.207843 0.003922
0.682353 0.227451 0.000000
0.768627 0.254902 0.011765
0.831373 0.274510 0.000000
0.894118 0.294118 0.000000
0.960784 0.305882 0.000000
1.000000 0.325490 0.003922
0.992157 0.341176 0.003922
1.000000 0.380392 0.003922
0.113725 0.137255 0.129412
0.003922 0.164706 0.133333
0.019608 0.141176 0.121569
0.031373 0.145098 0.125490
0.043137 0.149020 0.129412
0.047059 0.156863 0.101961
0.082353 0.168627 0.121569
0.105882 0.172549 0.109804
0.152941 0.180392 0.117647
0.192157 0.184314 0.098039
0.227451 0.180392 0.086275
0.270588 0.176471 0.082353
0.305882 0.184314 0.062745
0.345098 0.188235 0.047059
0.407843 0.184314 0.023529
0.474510 0.196078 0.015686
0.568627 0.211765 0.003922
0.643137 0.227451 0.000000
0.733333 0.243137 0.000000
0.792157 0.258824 0.000000
0.862745 0.282353 0.000000
0.929412 0.294118 0.000000
0.976471 0.317647 0.000000
0.992157 0.337255 0.000000
0.996078 0.403922 0.007843
0.066667 0.160784 0.109804
0.003922 0.168627 0.113725
0.000000 0.160784 0.113725
0.000000 0.164706 0.117647
0.011765 0.172549 0.117647
0.035294 0.180392 0.113725
0.062745 0.184314 0.113725
0.105882 0.180392 0.101961
0.133333 0.192157 0.101961
0.176471 0.192157 0.098039
0.215686 0.196078 0.078431
0.250980 0.192157 0.078431
0.290196 0.196078 0.054902
0.325490 0.196078 0.035294
0.384314 0.196078 0.015686
0.431373 0.207843 0.007843
0.533333 0.223529 0.000000
0.619608 0.235294 0.000000
0.701961 0.239216 0.000000
0.768627 0.262745 0.000000
0.850980 0.278431 0.003922
0.913725 0.298039 0.003922
0.960784 0.305882 0.000000
1.000000 0.325490 0.000000
1.000000 0.333333 0.000000
0.047059 0.149020 0.145098
0.054902 0.152941 0.141176
0.054902 0.156863 0.145098
0.078431 0.152941 0.145098
0.117647 0.160784 0.137255
0.156863 0.156863 0.125490
0.192157 0.160784 0.117647
0.227451 0.156863 0.109804
0.278431 0.152941 0.101961
0.321569 0.160784 0.094118
0.380392 0.164706 0.082353
0.454902 0.184314 0.070588
0.556863 0.207843 0.050980
0.654902 0.235294 0.023529
0.741176 0.250980 0.000000
0.815686 0.274510 0.000000
0.878431 0.282353 0.000000
0.921569 0.298039 0.000000
0.976471 0.305882 0.000000
0.996078 0.313725 0.000000
1.000000 0.333333 0.000000
0.996078 0.341176 0.003922
1.000000 0.345098 0.000000
0.996078 0.368627 0.000000
1.000000 0.423529 0.133333
0.223529 0.152941 0.105882
0.074510 0.156863 0.168627
0.074510 0.160784 0.149020
0.101961 0.168627 0.145098
0.109804 0.172549 0.133333
0.137255 0.168627 0.125490
0.172549 0.176471 0.121569
0.227451 0.172549 0.121569
0.266667 0.176471 0.105882
0.317647 0.180392 0.101961
0.380392 0.184314 0.086275
0.458824 0.196078 0.082353
0.556863 0.211765 0.062745
0.654902 0.235294 0.039216
0.729412 0.254902 0.007843
0.803922 0.270588 0.000000
0.870588 0.282353 0.011765
0.917647 0.301961 0.000000
0.956863 0.313725 0.003922
1.000000 0.317647 0.000000
1.000000 0.333333 0.000000
0.996078 0.341176 0.000000
0.996078 0.349020 0.000000
1.000000 0.372549 0.003922
1.000000 0.439216 0.188235
0.196078 0.168627 0.090196
0.066667 0.168627 0.164706
0.078431 0.176471 0.164706
0.090196 0.180392 0.149020
0.105882 0.184314 0.141176
0.145098 0.188235 0.133333
0.180392 0.188235 0.137255
0.219608 0.192157 0.121569
0.266667 0.203922 0.113725
0.333333 0.207843 0.109804
0.392157 0.215686 0.101961
0.478431 0.227451 0.090196
0.545098 0.235294 0.078431
0.635294 0.239216 0.058824
0.713725 0.258824 0.027451
0.792157 0.270588 0.000000
0.854902 0.294118 0.003922
0.913725 0.294118 0.007843
0.949020 0.309804 0.000000
0.992157 0.317647 0.000000
1.000000 0.333333 0.000000
1.000000 0.345098 0.000000
0.996078 0.349020 0.000000
1.000000 0.372549 0.003922
1.000000 0.423529 0.117647
0.262745 0.176471 0.082353
0.078431 0.188235 0.192157
0.078431 0.192157 0.172549
0.094118 0.196078 0.152941
0.109804 0.203922 0.152941
0.141176 0.203922 0.152941
0.172549 0.219608 0.133333
0.219608 0.215686 0.129412
0.270588 0.223529 0.121569
0.337255 0.231373 0.117647
0.407843 0.239216 0.113725
0.482353 0.254902 0.117647
0.549020 0.262745 0.094118
0.623529 0.270588 0.082353
0.690196 0.270588 0.058824
0.760784 0.270588 0.019608
0.827451 0.286275 0.000000
0.878431 0.301961 0.000000
0.925490 0.309804 0.000000
0.976471 0.325490 0.003922
1.000000 0.333333 0.011765
0.996078 0.341176 0.000000
1.000000 0.352941 0.000000
1.000000 0.376471 0.007843
0.996078 0.427451 0.164706
0.223529 0.200000 0.105882
0.078431 0.203922 0.184314
0.086275 0.215686 0.188235
0.090196 0.215686 0.164706
0.109804 0.219608 0.164706
0.137255 0.227451 0.156863
0.180392 0.239216 0.156863
0.235294 0.250980 0.152941
0.278431 0.239216 0.133333
0.337255 0.258824 0.121569
0.419608 0.270588 0.125490
0.474510 0.282353 0.113725
0.541176 0.290196 0.113725
0.611765 0.294118 0.086275
0.682353 0.294118 0.078431
0.737255 0.290196 0.047059
0.796078 0.286275 0.019608
0.866667 0.298039 0.003922
0.917647 0.313725 0.000000
0.968627 0.325490 0.003922
0.996078 0.329412 0.000000
1.000000 0.345098 0.000000
1.000000 0.352941 0.000000
1.000000 0.364706 0.007843
1.000000 0.380392 0.000000
0.015686 0.278431 0.200000
0.035294 0.282353 0.207843
0.050980 0.282353 0.203922
0.074510 0.274510 0.200000
0.129412 0.282353 0.207843
0.180392 0.298039 0.196078
0.239216 0.317647 0.180392
0.313725 0.337255 0.196078
