mpv/luts/FG_CineBright.cube
#Generated with IWLTBAP LUT Generator
#Website: http://luts.iwltbap.com
TITLE "FG_CineBright"
#LUT size
LUT_3D_SIZE 25
#LUT data points
0.070588 0.117647 0.117647
0.070588 0.117647 0.117647
0.078431 0.121569 0.105882
0.113725 0.121569 0.117647
0.156863 0.125490 0.117647
0.196078 0.125490 0.109804
0.250980 0.129412 0.109804
0.329412 0.137255 0.109804
0.419608 0.152941 0.101961
0.529412 0.164706 0.094118
0.643137 0.184314 0.078431
0.725490 0.192157 0.066667
0.796078 0.215686 0.066667
0.843137 0.227451 0.066667
0.890196 0.247059 0.070588
0.929412 0.254902 0.074510
0.964706 0.274510 0.090196
1.000000 0.286275 0.109804
1.000000 0.301961 0.129412
0.996078 0.317647 0.152941
1.000000 0.345098 0.188235
0.996078 0.364706 0.215686
1.000000 0.388235 0.258824
1.000000 0.419608 0.294118
1.000000 0.454902 0.341176
0.070588 0.117647 0.117647
0.070588 0.117647 0.117647
0.082353 0.121569 0.117647
0.117647 0.125490 0.113725
0.149020 0.129412 0.113725
0.200000 0.133333 0.105882
0.254902 0.137255 0.105882
0.333333 0.152941 0.101961
0.427451 0.164706 0.098039
0.537255 0.184314 0.090196
0.650980 0.200000 0.078431
0.729412 0.215686 0.062745
0.788235 0.227451 0.062745
0.847059 0.243137 0.070588
0.894118 0.258824 0.074510
0.929412 0.266667 0.074510
0.972549 0.282353 0.098039
0.996078 0.294118 0.105882
1.000000 0.309804 0.125490
1.000000 0.329412 0.156863
1.000000 0.345098 0.180392
1.000000 0.368627 0.219608
1.000000 0.396078 0.254902
0.996078 0.423529 0.294118
0.996078 0.450980 0.337255
0.062745 0.125490 0.113725
0.062745 0.125490 0.113725
0.090196 0.133333 0.109804
0.125490 0.133333 0.113725
0.168627 0.141176 0.109804
0.215686 0.149020 0.121569
0.262745 0.152941 0.101961
0.345098 0.164706 0.101961
0.443137 0.184314 0.090196
0.552941 0.203922 0.086275
0.654902 0.227451 0.074510
0.737255 0.235294 0.058824
0.796078 0.250980 0.058824
0.843137 0.258824 0.062745
0.894118 0.274510 0.066667
0.933333 0.286275 0.078431
0.972549 0.294118 0.090196
1.000000 0.305882 0.105882
1.000000 0.325490 0.137255
0.996078 0.337255 0.160784
0.996078 0.356863 0.188235
1.000000 0.376471 0.223529
0.996078 0.403922 0.258824
0.996078 0.431373 0.298039
0.996078 0.462745 0.337255
0.047059 0.133333 0.113725
0.054902 0.137255 0.117647
0.082353 0.141176 0.113725
0.113725 0.152941 0.109804
0.164706 0.156863 0.105882
0.215686 0.160784 0.109804
0.278431 0.172549 0.098039
0.356863 0.192157 0.098039
0.470588 0.207843 0.094118
0.568627 0.235294 0.074510
0.666667 0.250980 0.054902
0.745098 0.266667 0.050980
0.796078 0.278431 0.047059
0.854902 0.282353 0.058824
0.898039 0.294118 0.058824
0.945098 0.298039 0.078431
0.980392 0.305882 0.086275
1.000000 0.321569 0.113725
1.000000 0.341176 0.129412
1.000000 0.352941 0.156863
0.996078 0.368627 0.188235
1.000000 0.396078 0.231373
1.000000 0.411765 0.266667
0.996078 0.439216 0.305882
1.000000 0.474510 0.356863
0.039216 0.156863 0.117647
0.047059 0.152941 0.117647
0.066667 0.156863 0.117647
0.109804 0.164706 0.105882
0.160784 0.172549 0.105882
0.219608 0.188235 0.105882
0.286275 0.203922 0.082353
0.384314 0.227451 0.098039
0.494118 0.254902 0.082353
0.588235 0.270588 0.054902
0.686275 0.290196 0.039216
0.756863 0.298039 0.027451
0.811765 0.309804 0.031373
0.858824 0.309804 0.039216
0.901961 0.317647 0.050980
0.941176 0.325490 0.078431
0.980392 0.337255 0.098039
0.992157 0.341176 0.113725
0.996078 0.360784 0.141176
1.000000 0.368627 0.164706
1.000000 0.388235 0.200000
0.996078 0.407843 0.239216
1.000000 0.431373 0.278431
0.996078 0.454902 0.313725
0.996078 0.486275 0.352941
0.035294 0.176471 0.137255
0.035294 0.176471 0.129412
0.054902 0.180392 0.129412
0.078431 0.184314 0.117647
0.145098 0.196078 0.117647
0.211765 0.207843 0.090196
0.301961 0.243137 0.090196
0.396078 0.266667 0.066667
0.513725 0.294118 0.054902
0.623529 0.317647 0.035294
0.709804 0.325490 0.007843
0.768627 0.337255 0.011765
0.823529 0.337255 0.023529
0.862745 0.349020 0.027451
0.909804 0.349020 0.050980
0.952941 0.356863 0.070588
0.988235 0.368627 0.098039
1.000000 0.368627 0.117647
0.996078 0.380392 0.141176
1.000000 0.392157 0.172549
1.000000 0.407843 0.215686
1.000000 0.423529 0.243137
0.992157 0.447059 0.286275
0.996078 0.474510 0.321569
0.996078 0.501961 0.364706
0.015686 0.203922 0.156863
0.019608 0.203922 0.141176
0.031373 0.203922 0.137255
0.062745 0.207843 0.137255
0.117647 0.219608 0.121569
0.196078 0.235294 0.101961
0.282353 0.270588 0.062745
0.411765 0.305882 0.035294
0.521569 0.341176 0.003922
0.639216 0.360784 0.007843
0.721569 0.372549 0.003922
0.784314 0.376471 0.000000
0.823529 0.384314 0.000000
0.870588 0.384314 0.011765
0.917647 0.384314 0.047059
0.952941 0.388235 0.070588
0.992157 0.392157 0.098039
1.000000 0.403922 0.125490
1.000000 0.407843 0.160784
0.996078 0.423529 0.192157
0.996078 0.439216 0.219608
0.996078 0.450980 0.250980
1.000000 0.474510 0.290196
1.000000 0.501961 0.333333
1.000000 0.525490 0.380392
0.003922 0.227451 0.152941
0.000000 0.239216 0.156863
0.000000 0.239216 0.149020
0.023529 0.243137 0.145098
0.074510 0.250980 0.137255
0.164706 0.266667 0.113725
0.262745 0.298039 0.082353
0.400000 0.341176 0.023529
0.521569 0.388235 0.000000
0.639216 0.415686 0.003922
0.721569 0.423529 0.000000
0.788235 0.427451 0.000000
0.839216 0.419608 0.003922
0.886275 0.423529 0.000000
0.925490 0.423529 0.043137
0.960784 0.423529 0.078431
1.000000 0.427451 0.101961
1.000000 0.439216 0.141176
1.000000 0.447059 0.168627
1.000000 0.454902 0.200000
0.996078 0.462745 0.227451
0.996078 0.482353 0.278431
1.000000 0.498039 0.305882
1.000000 0.521569 0.356863
1.000000 0.549020 0.403922
0.000000 0.282353 0.176471
0.000000 0.286275 0.172549
0.007843 0.278431 0.164706
0.000000 0.274510 0.160784
0.007843 0.278431 0.149020
0.133333 0.301961 0.125490
0.231373 0.341176 0.101961
0.364706 0.380392 0.047059
0.513725 0.427451 0.000000
0.639216 0.462745 0.000000
0.713725 0.470588 0.003922
0.776471 0.462745 0.000000
0.843137 0.474510 0.000000
0.878431 0.462745 0.000000
0.933333 0.462745 0.050980
0.960784 0.470588 0.086275
0.996078 0.462745 0.125490
1.000000 0.466667 0.152941
0.996078 0.470588 0.184314
1.000000 0.490196 0.223529
0.996078 0.498039 0.250980
1.000000 0.509804 0.290196
1.000000 0.529412 0.325490
1.000000 0.552941 0.376471
1.000000 0.572549 0.411765
0.000000 0.333333 0.200000
0.000000 0.333333 0.188235
0.000000 0.329412 0.188235
0.000000 0.333333 0.172549
0.000000 0.337255 0.160784
0.039216 0.352941 0.152941
0.200000 0.380392 0.129412
0.337255 0.427451 0.074510
0.474510 0.466667 0.000000
0.623529 0.505882 0.000000
0.705882 0.509804 0.000000
0.776471 0.513725 0.000000
0.827451 0.513725 0.000000
0.886275 0.505882 0.000000
0.933333 0.505882 0.007843
0.976471 0.501961 0.105882
0.996078 0.501961 0.141176
1.000000 0.505882 0.176471
0.992157 0.517647 0.207843
1.000000 0.521569 0.243137
1.000000 0.533333 0.274510
1.000000 0.545098 0.313725
0.996078 0.560784 0.352941
1.000000 0.584314 0.396078
0.996078 0.600000 0.427451
0.000000 0.396078 0.215686
0.000000 0.396078 0.215686
0.000000 0.388235 0.203922
0.000000 0.396078 0.200000
0.000000 0.392157 0.172549
0.000000 0.396078 0.168627
0.117647 0.419608 0.145098
0.286275 0.466667 0.109804
0.435294 0.509804 0.007843
0.576471 0.541176 0.000000
0.694118 0.549020 0.000000
0.772549 0.556863 0.000000
0.819608 0.556863 0.003922
0.882353 0.549020 0.000000
0.929412 0.541176 0.003922
0.976471 0.541176 0.050980
0.996078 0.545098 0.141176
1.000000 0.549020 0.200000
1.000000 0.552941 0.235294
1.000000 0.560784 0.270588
1.000000 0.568627 0.298039
1.000000 0.580392 0.337255
0.996078 0.596078 0.368627
0.996078 0.615686 0.415686
1.000000 0.631373 0.450980
0.000000 0.458824 0.235294
0.000000 0.466667 0.243137
0.007843 0.454902 0.243137
0.000000 0.466667 0.215686
0.003922 0.458824 0.203922
0.000000 0.458824 0.184314
0.007843 0.466667 0.188235
0.211765 0.505882 0.141176
0.388235 0.545098 0.094118
0.529412 0.576471 0.000000
0.654902 0.596078 0.000000
0.749020 0.588235 0.000000
0.823529 0.588235 0.007843
0.866667 0.588235 0.000000
0.917647 0.580392 0.000000
0.976471 0.580392 0.000000
1.000000 0.580392 0.101961
1.000000 0.588235 0.192157
0.996078 0.596078 0.262745
1.000000 0.603922 0.298039
0.996078 0.611765 0.333333
0.996078 0.623529 0.372549
1.000000 0.627451 0.411765
1.000000 0.650980 0.439216
1.000000 0.654902 0.478431
0.000000 0.525490 0.278431
0.007843 0.525490 0.270588
0.003922 0.533333 0.274510
0.000000 0.529412 0.258824
0.003922 0.529412 0.231373
0.000000 0.525490 0.227451
0.003922 0.525490 0.215686
0.105882 0.549020 0.196078
0.329412 0.576471 0.164706
0.470588 0.607843 0.098039
0.603922 0.627451 0.000000
0.717647 0.627451 0.007843
0.800000 0.627451 0.003922
0.862745 0.627451 0.007843
0.917647 0.619608 0.000000
0.968627 0.615686 0.000000
0.996078 0.619608 0.015686
0.996078 0.619608 0.156863
0.996078 0.631373 0.235294
1.000000 0.643137 0.325490
0.996078 0.650980 0.368627
1.000000 0.658824 0.407843
1.000000 0.670588 0.435294
0.992157 0.682353 0.462745
1.000000 0.686275 0.494118
0.000000 0.584314 0.313725
0.003922 0.576471 0.321569
0.011765 0.580392 0.317647
0.000000 0.584314 0.298039
0.000000 0.576471 0.270588
0.003922 0.580392 0.262745
0.000000 0.580392 0.250980
0.000000 0.580392 0.235294
0.239216 0.611765 0.211765
0.400000 0.627451 0.184314
0.529412 0.654902 0.125490
0.662745 0.670588 0.000000
0.760784 0.666667 0.000000
0.847059 0.658824 0.000000
0.901961 0.666667 0.000000
0.968627 0.650980 0.000000
0.996078 0.658824 0.000000
0.996078 0.654902 0.109804
1.000000 0.662745 0.219608
1.000000 0.670588 0.305882
0.996078 0.686275 0.384314
1.000000 0.694118 0.435294
1.000000 0.705882 0.458824
0.996078 0.701961 0.486275
0.996078 0.709804 0.509804
0.003922 0.623529 0.364706
0.003922 0.623529 0.352941
0.003922 0.623529 0.360784
0.000000 0.619608 0.356863
0.003922 0.623529 0.325490
0.000000 0.623529 0.309804
0.000000 0.619608 0.309804
0.000000 0.615686 0.290196
0.176471 0.631373 0.274510
0.341176 0.647059 0.250980
0.482353 0.674510 0.223529
0.603922 0.690196 0.164706
0.713725 0.705882 0.039216
0.807843 0.701961 0.000000
0.894118 0.694118 0.000000
0.952941 0.698039 0.000000
0.996078 0.694118 0.000000
1.000000 0.694118 0.015686
1.000000 0.694118 0.188235
1.000000 0.705882 0.278431
1.000000 0.713725 0.372549
1.000000 0.729412 0.427451
1.000000 0.733333 0.490196
1.000000 0.741176 0.513725
1.000000 0.737255 0.545098
0.003922 0.662745 0.407843
0.000000 0.650980 0.407843
0.000000 0.658824 0.396078
0.003922 0.654902 0.396078
0.003922 0.658824 0.388235
0.000000 0.654902 0.380392
0.003922 0.662745 0.360784
0.090196 0.654902 0.345098
0.160784 0.666667 0.341176
0.305882 0.674510 0.329412
0.435294 0.694118 0.301961
0.545098 0.709804 0.270588
0.674510 0.725490 0.211765
0.768627 0.745098 0.125490
0.850980 0.737255 0.000000
0.949020 0.737255 0.007843
0.992157 0.725490 0.000000
0.996078 0.725490 0.000000
1.000000 0.729412 0.141176
0.992157 0.741176 0.266667
1.000000 0.745098 0.356863
0.992157 0.756863 0.419608
0.996078 0.768627 0.490196
1.000000 0.756863 0.533333
1.000000 0.756863 0.556863
0.141176 0.690196 0.450980
0.168627 0.694118 0.454902
0.203922 0.694118 0.474510
0.239216 0.690196 0.458824
0.235294 0.690196 0.443137
0.215686 0.682353 0.431373
0.215686 0.690196 0.419608
0.235294 0.686275 0.411765
0.258824 0.690196 0.411765
0.309804 0.694118 0.400000
0.415686 0.709804 0.384314
0.517647 0.733333 0.364706
0.603922 0.752941 0.325490
0.709804 0.768627 0.270588
0.827451 0.784314 0.192157
0.909804 0.780392 0.000000
0.996078 0.776471 0.000000
0.996078 0.768627 0.000000
1.000000 0.764706 0.074510
1.000000 0.772549 0.239216
1.000000 0.776471 0.329412
1.000000 0.784314 0.419608
0.996078 0.788235 0.482353
0.996078 0.780392 0.529412
1.000000 0.784314 0.564706
0.286275 0.721569 0.494118
0.298039 0.717647 0.505882
0.309804 0.721569 0.501961
0.333333 0.721569 0.501961
0.341176 0.721569 0.505882
0.337255 0.717647 0.498039
0.325490 0.725490 0.478431
0.349020 0.725490 0.478431
0.349020 0.721569 0.462745
0.364706 0.721569 0.458824
0.427451 0.733333 0.439216
0.505882 0.752941 0.435294
0.592157 0.764706 0.423529
0.682353 0.792157 0.388235
0.780392 0.811765 0.337255
0.870588 0.823529 0.243137
0.964706 0.819608 0.066667
1.000000 0.811765 0.000000
1.000000 0.800000 0.003922
0.996078 0.796078 0.196078
0.996078 0.803922 0.309804
1.000000 0.815686 0.407843
0.996078 0.807843 0.474510
1.000000 0.800000 0.533333
1.000000 0.800000 0.576471
0.364706 0.756863 0.545098
0.376471 0.756863 0.541176
0.376471 0.756863 0.541176
0.403922 0.756863 0.549020
0.411765 0.749020 0.556863
0.411765 0.752941 0.537255
0.411765 0.756863 0.529412
0.400000 0.756863 0.525490
0.419608 0.745098 0.517647
0.431373 0.749020 0.509804
0.439216 0.749020 0.490196
0.505882 0.772549 0.486275
0.576471 0.792157 0.474510
0.654902 0.803922 0.462745
0.745098 0.827451 0.431373
0.819608 0.850980 0.376471
0.933333 0.870588 0.294118
0.996078 0.870588 0.152941
1.000000 0.847059 0.003922
0.996078 0.847059 0.176471
1.000000 0.839216 0.298039
0.996078 0.835294 0.388235
1.000000 0.831373 0.470588
1.000000 0.823529 0.529412
0.996078 0.819608 0.572549
0.407843 0.796078 0.576471
0.423529 0.792157 0.588235
0.431373 0.796078 0.584314
0.443137 0.788235 0.584314
0.450980 0.792157 0.584314
0.466667 0.788235 0.588235
0.454902 0.788235 0.564706
0.454902 0.788235 0.556863
0.462745 0.788235 0.560784
0.474510 0.796078 0.545098
0.486275 0.792157 0.549020
0.513725 0.796078 0.537255
0.572549 0.815686 0.521569
0.643137 0.835294 0.509804
0.717647 0.862745 0.498039
0.800000 0.882353 0.470588
0.894118 0.898039 0.427451
0.980392 0.917647 0.349020
1.000000 0.901961 0.196078
1.000000 0.890196 0.215686
1.000000 0.874510 0.305882
1.000000 0.862745 0.400000
1.000000 0.854902 0.466667
0.992157 0.847059 0.529412
1.000000 0.835294 0.564706
0.450980 0.831373 0.615686
0.450980 0.839216 0.607843
0.462745 0.831373 0.627451
0.462745 0.831373 0.619608
0.490196 0.831373 0.623529
0.505882 0.839216 0.615686
0.494118 0.827451 0.603922
0.494118 0.827451 0.603922
0.494118 0.823529 0.588235
0.509804 0.827451 0.588235
0.509804 0.831373 0.580392
0.529412 0.827451 0.572549
0.564706 0.843137 0.568627
0.631373 0.858824 0.556863
0.709804 0.886275 0.552941
0.772549 0.905882 0.525490
0.858824 0.929412 0.490196
0.949020 0.941176 0.458824
1.000000 0.960784 0.384314
0.996078 0.941176 0.270588
0.992157 0.913725 0.329412
1.000000 0.894118 0.407843
1.000000 0.878431 0.454902
1.000000 0.866667 0.525490
1.000000 0.866667 0.576471
0.470588 0.886275 0.643137
0.474510 0.882353 0.650980
0.486275 0.874510 0.650980
0.494118 0.874510 0.654902
0.513725 0.866667 0.654902
0.525490 0.882353 0.658824
0.529412 0.878431 0.650980
0.529412 0.882353 0.643137
0.517647 0.878431 0.631373
0.521569 0.878431 0.615686
0.533333 0.882353 0.623529
0.549020 0.870588 0.611765
0.564706 0.878431 0.600000
0.619608 0.898039 0.592157
0.678431 0.921569 0.588235
0.764706 0.933333 0.572549
0.839216 0.949020 0.549020
0.905882 0.972549 0.525490
0.992157 0.980392 0.474510
1.000000 0.992157 0.415686
1.000000 0.960784 0.384314
1.000000 0.921569 0.447059
0.996078 0.901961 0.478431
1.000000 0.898039 0.533333
1.000000 0.886275 0.580392
0.498039 0.933333 0.694118
0.498039 0.929412 0.690196
0.509804 0.933333 0.701961
0.513725 0.929412 0.686275
0.537255 0.925490 0.694118
0.541176 0.929412 0.698039
0.560784 0.929412 0.694118
0.560784 0.929412 0.686275
0.556863 0.933333 0.686275
0.564706 0.929412 0.654902
0.564706 0.929412 0.654902
0.572549 0.925490 0.643137
0.588235 0.933333 0.643137
0.607843 0.929412 0.631373
0.682353 0.952941 0.627451
0.749020 0.968627 0.611765
0.823529 0.988235 0.596078
0.886275 0.992157 0.580392
0.968627 1.000000 0.537255
1.000000 1.000000 0.505882
1.000000 0.996078 0.470588
1.000000 0.960784 0.486275
0.996078 0.921569 0.509804
0.988235 0.913725 0.541176
1.000000 0.901961 0.588235
0.517647 0.988235 0.741176
0.517647 0.984314 0.733333
0.533333 0.980392 0.729412
0.533333 0.980392 0.729412
0.552941 0.984314 0.737255
0.568627 0.976471 0.737255
0.588235 0.980392 0.737255
0.600000 0.972549 0.737255
0.584314 0.988235 0.709804
0.588235 0.984314 0.709804
0.588235 0.988235 0.701961
0.607843 0.988235 0.705882
0.623529 0.984314 0.690196
0.627451 0.984314 0.674510
0.666667 0.992157 0.670588
0.741176 1.000000 0.650980
0.803922 1.000000 0.643137
0.874510 0.996078 0.627451
0.933333 0.996078 0.607843
0.992157 1.000000 0.572549
1.000000 1.000000 0.541176
1.000000 0.984314 0.545098
1.000000 0.952941 0.576471
0.996078 0.933333 0.600000
0.992157 0.917647 0.615686
0.560784 1.000000 0.784314
0.556863 1.000000 0.764706
0.572549 1.000000 0.776471
0.580392 0.992157 0.772549
0.592157 0.996078 0.780392
0.603922 0.996078 0.776471
0.619608 1.000000 0.784314
0.647059 1.000000 0.792157
0.650980 1.000000 0.780392
0.647059 0.996078 0.768627
0.647059 1.000000 0.756863
0.650980 0.996078 0.756863
0.662745 1.000000 0.752941
0.682353 1.000000 0.737255
0.701961 0.996078 0.725490
0.764706 1.000000 0.717647
0.823529 0.996078 0.701961
0.874510 0.996078 0.682353
0.921569 1.000000 0.658824
0.976471 0.996078 0.627451
1.000000 1.000000 0.615686
1.000000 1.000000 0.615686
1.000000 0.964706 0.650980
1.000000 0.949020 0.670588
0.996078 0.937255 0.666667
0.066667 0.113725 0.113725
0.066667 0.113725 0.113725
0.090196 0.125490 0.121569
0.121569 0.117647 0.109804
0.160784 0.129412 0.117647
0.192157 0.133333 0.113725
0.254902 0.137255 0.105882
0.337255 0.141176 0.105882
0.431373 0.168627 0.101961
0.541176 0.188235 0.094118
0.650980 0.207843 0.074510
0.729412 0.223529 0.066667
0.803922 0.239216 0.062745
0.835294 0.250980 0.054902
0.894118 0.262745 0.058824
0.929412 0.274510 0.070588
0.960784 0.282353 0.086275
0.996078 0.298039 0.109804
1.000000 0.309804 0.125490
0.992157 0.333333 0.160784
1.000000 0.352941 0.196078
0.996078 0.372549 0.219608
1.000000 0.396078 0.262745
0.996078 0.423529 0.294118
1.000000 0.454902 0.341176
0.070588 0.117647 0.117647
0.070588 0.117647 0.117647
0.086275 0.129412 0.113725
0.125490 0.133333 0.121569
0.160784 0.133333 0.101961
0.211765 0.137255 0.109804
0.262745 0.152941 0.101961
0.341176 0.160784 0.098039
0.447059 0.188235 0.101961
0.552941 0.203922 0.078431
0.662745 0.223529 0.078431
0.737255 0.235294 0.058824
0.792157 0.254902 0.058824
0.850980 0.258824 0.058824
0.894118 0.274510 0.066667
0.933333 0.286275 0.078431
0.972549 0.294118 0.098039
1.000000 0.305882 0.105882
0.996078 0.317647 0.121569
0.996078 0.337255 0.152941
1.000000 0.352941 0.188235
1.000000 0.376471 0.227451
0.992157 0.407843 0.250980
0.996078 0.431373 0.298039
0.996078 0.458824 0.349020
0.062745 0.125490 0.125490
0.066667 0.129412 0.125490
0.090196 0.133333 0.109804
0.125490 0.137255 0.109804
0.168627 0.141176 0.109804
0.215686 0.149020 0.109804
0.274510 0.160784 0.105882
0.356863 0.180392 0.098039
0.454902 0.200000 0.090196
0.568627 0.223529 0.086275
0.666667 0.243137 0.062745
0.741176 0.258824 0.054902
0.800000 0.266667 0.047059
0.850980 0.270588 0.050980
0.894118 0.282353 0.062745
0.941176 0.294118 0.074510
0.976471 0.305882 0.094118
1.000000 0.317647 0.101961
1.000000 0.329412 0.129412
1.000000 0.345098 0.160784
1.000000 0.360784 0.192157
1.000000 0.380392 0.227451
1.000000 0.407843 0.262745
1.000000 0.439216 0.305882
1.000000 0.462745 0.352941
0.054902 0.141176 0.121569
0.062745 0.145098 0.125490
0.078431 0.145098 0.105882
0.129412 0.149020 0.121569
0.164706 0.164706 0.117647
0.219608 0.168627 0.094118
0.294118 0.184314 0.101961
0.376471 0.207843 0.090196
0.478431 0.227451 0.090196
0.576471 0.247059 0.062745
0.674510 0.262745 0.047059
0.749020 0.278431 0.039216
0.819608 0.290196 0.043137
0.858824 0.294118 0.050980
0.901961 0.298039 0.054902
0.937255 0.309804 0.074510
0.976471 0.321569 0.078431
1.000000 0.329412 0.117647
1.000000 0.345098 0.133333
0.992157 0.356863 0.164706
0.996078 0.376471 0.192157
0.996078 0.396078 0.231373
0.996078 0.427451 0.274510
0.996078 0.450980 0.305882
1.000000 0.470588 0.352941
0.054902 0.160784 0.125490
0.058824 0.156863 0.133333
0.074510 0.164706 0.133333
0.105882 0.168627 0.117647
0.168627 0.180392 0.113725
0.235294 0.192157 0.105882
0.290196 0.207843 0.086275
0.403922 0.235294 0.078431
0.494118 0.258824 0.070588
0.607843 0.294118 0.047059
0.694118 0.301961 0.035294
0.756863 0.309804 0.023529
0.819608 0.317647 0.031373
0.862745 0.321569 0.039216
0.909804 0.329412 0.047059
0.941176 0.337255 0.070588
0.988235 0.345098 0.105882
1.000000 0.356863 0.125490
1.000000 0.364706 0.141176
0.996078 0.380392 0.172549
0.996078 0.396078 0.203922
0.996078 0.407843 0.239216
0.996078 0.435294 0.262745
0.992157 0.462745 0.313725
1.000000 0.490196 0.356863
0.039216 0.180392 0.141176
0.050980 0.180392 0.145098
0.054902 0.180392 0.137255
0.086275 0.192157 0.133333
0.137255 0.196078 0.113725
0.215686 0.219608 0.098039
0.301961 0.243137 0.082353
0.400000 0.274510 0.074510
0.517647 0.309804 0.050980
0.631373 0.329412 0.023529
0.713725 0.337255 0.007843
0.776471 0.345098 0.003922
0.819608 0.349020 0.011765
0.870588 0.352941 0.027451
0.905882 0.352941 0.043137
0.952941 0.356863 0.070588
0.988235 0.368627 0.090196
0.992157 0.376471 0.129412
1.000000 0.392157 0.149020
1.000000 0.396078 0.176471
0.996078 0.419608 0.215686
0.996078 0.431373 0.247059
1.000000 0.454902 0.286275
1.000000 0.478431 0.325490
1.000000 0.505882 0.368627
0.035294 0.207843 0.156863
0.035294 0.207843 0.149020
0.043137 0.211765 0.145098
0.062745 0.207843 0.141176
0.113725 0.223529 0.133333
0.188235 0.243137 0.113725
0.294118 0.270588 0.082353
0.415686 0.309804 0.031373
0.521569 0.345098 0.000000
0.635294 0.376471 0.000000
0.721569 0.388235 0.000000
0.788235 0.388235 0.003922
0.835294 0.392157 0.000000
0.874510 0.400000 0.019608
0.913725 0.392157 0.043137
0.952941 0.388235 0.070588
0.992157 0.396078 0.101961
1.000000 0.403922 0.125490
0.996078 0.411765 0.152941
0.996078 0.423529 0.184314
0.996078 0.439216 0.219608
1.000000 0.454902 0.270588
1.000000 0.478431 0.309804
1.000000 0.501961 0.341176
1.000000 0.525490 0.380392
0.003922 0.243137 0.172549
0.000000 0.243137 0.160784
0.007843 0.239216 0.152941
0.027451 0.235294 0.149020
0.078431 0.250980 0.145098
0.168627 0.270588 0.125490
0.270588 0.301961 0.101961
0.392157 0.341176 0.043137
0.537255 0.400000 0.007843
0.639216 0.415686 0.000000
0.717647 0.435294 0.003922
0.788235 0.427451 0.000000
0.843137 0.427451 0.000000
0.886275 0.427451 0.011765
0.921569 0.431373 0.047059
0.972549 0.427451 0.074510
1.000000 0.435294 0.117647
0.996078 0.435294 0.145098
1.000000 0.443137 0.164706
1.000000 0.454902 0.200000
1.000000 0.466667 0.239216
0.996078 0.482353 0.270588
1.000000 0.505882 0.317647
1.000000 0.525490 0.349020
1.000000 0.549020 0.396078
0.003922 0.290196 0.184314
0.000000 0.282353 0.188235
0.011765 0.286275 0.176471
0.003922 0.278431 0.164706
0.015686 0.286275 0.156863
0.121569 0.309804 0.145098
0.243137 0.341176 0.117647
0.368627 0.380392 0.070588
0.517647 0.423529 0.000000
0.643137 0.466667 0.000000
0.709804 0.474510 0.000000
0.784314 0.466667 0.007843
0.839216 0.470588 0.000000
0.894118 0.466667 0.000000
0.925490 0.466667 0.054902
0.976471 0.474510 0.094118
1.000000 0.470588 0.121569
0.996078 0.470588 0.152941
1.000000 0.474510 0.188235
1.000000 0.486275 0.223529
1.000000 0.501961 0.262745
1.000000 0.513725 0.294118
1.000000 0.529412 0.325490
1.000000 0.552941 0.376471
1.000000 0.584314 0.411765
0.003922 0.329412 0.211765
0.000000 0.337255 0.192157
0.000000 0.341176 0.192157
0.000000 0.341176 0.176471
0.000000 0.337255 0.172549
0.043137 0.345098 0.164706
0.196078 0.384314 0.141176
0.325490 0.423529 0.094118
0.482353 0.462745 0.000000
0.615686 0.494118 0.000000
0.713725 0.517647 0.003922
0.776471 0.513725 0.000000
0.835294 0.509804 0.000000
0.882353 0.513725 0.000000
0.937255 0.505882 0.000000
0.980392 0.505882 0.109804
1.000000 0.505882 0.133333
0.996078 0.513725 0.176471
0.996078 0.521569 0.211765
1.000000 0.525490 0.247059
1.000000 0.533333 0.274510
0.996078 0.549020 0.313725
1.000000 0.564706 0.349020
1.000000 0.584314 0.400000
1.000000 0.603922 0.423529
0.000000 0.396078 0.223529
0.000000 0.396078 0.223529
0.000000 0.396078 0.215686
0.000000 0.400000 0.211765
0.000000 0.400000 0.192157
0.000000 0.400000 0.184314
0.117647 0.427451 0.168627
0.278431 0.466667 0.129412
