mpv/luts/Presetpro - HDR Color.cube
#Created by: Adobe Photoshop Export Color Lookup Plugin
#Copyright: (C) Copyright 2018 https://www.presetpro.com and Tim Martin
TITLE "Presetpro - HDR Color"
#LUT size
LUT_3D_SIZE 5
#data domain
#LUT data points
DOMAIN_MIN 0.000000 0.000000 0.000000
DOMAIN_MAX 0.903226 0.903226 0.903226
0.000000 0.003937 0.000000
0.309418 0.000885 0.000000
0.653748 0.001770 0.002167
0.895660 0.002655 0.000000
0.996063 0.000000 0.000000
0.003052 0.316864 0.003052
0.304626 0.312073 0.000885
0.643250 0.249329 0.000000
0.886047 0.208344 0.001251
1.000000 0.236816 0.002655
0.000000 0.609222 0.000000
0.244141 0.607056 0.000000
0.614532 0.589233 0.000000
0.869446 0.557861 0.001251
0.997833 0.557861 0.000000
0.183197 0.826324 0.002655
0.371552 0.822784 0.000000
0.629333 0.814056 0.001770
0.876038 0.812042 0.000000
0.994690 0.799377 0.000366
0.437714 1.000000 0.000000
0.519165 1.000000 0.000000
0.682343 0.998230 0.000000
0.879333 1.000000 0.000366
1.000000 0.999237 0.003540
0.000885 0.003052 0.312073
0.268921 0.003052 0.299408
0.644531 0.000000 0.236664
0.887299 0.000885 0.181763
0.996063 0.000000 0.001770
0.000000 0.290680 0.307251
0.295502 0.287659 0.291565
0.629730 0.263245 0.242737
0.877808 0.221863 0.158997
0.999115 0.211365 0.003418
0.002167 0.600983 0.214417
0.261597 0.602264 0.192657
0.614532 0.585297 0.126862
0.865540 0.554810 0.004425
0.999115 0.550018 0.000000
0.192810 0.817963 0.093567
0.368744 0.817963 0.065216
0.631989 0.816345 0.003937
0.873383 0.809387 0.000885
0.998749 0.796204 0.001251
0.416199 0.996948 0.000000
0.502594 1.000000 0.000000
0.678925 1.000000 0.004425
0.878937 0.999634 0.002655
1.000000 0.999237 0.000000
0.001770 0.001770 0.618439
0.027679 0.000885 0.612366
0.579620 0.001770 0.599213
0.862000 0.000885 0.543793
0.997864 0.001770 0.475494
0.002655 0.229218 0.622742
0.202637 0.227936 0.609619
0.595306 0.201385 0.591766
0.858063 0.197449 0.534332
0.997833 0.180023 0.470551
0.003540 0.577850 0.573944
0.218445 0.577454 0.573547
0.595306 0.563934 0.554321
0.846832 0.551270 0.515991
0.998230 0.528656 0.434906
0.079468 0.812408 0.512054
0.327637 0.815063 0.509796
0.602264 0.806702 0.486267
0.861603 0.800629 0.443115
1.000000 0.783081 0.307465
0.287048 1.000000 0.407074
0.416962 0.999115 0.406952
0.640228 0.998230 0.383545
0.854156 0.998749 0.318634
1.000000 0.999237 0.168945
0.001251 0.000000 0.825073
0.000000 0.000000 0.821503
0.505096 0.000000 0.813171
0.830231 0.000000 0.794952
0.997345 0.002655 0.766235
0.002136 0.147736 0.823303
0.082062 0.139526 0.816315
0.540405 0.078278 0.808350
0.834167 0.002136 0.784454
1.000000 0.002136 0.756622
0.002533 0.513336 0.794312
0.174286 0.511688 0.787994
0.553040 0.504211 0.788361
0.843781 0.496368 0.773193
1.000000 0.474121 0.740051
0.001251 0.798859 0.781799
0.253632 0.798370 0.776215
0.558990 0.794952 0.766113
0.843262 0.788361 0.753082
1.000000 0.751801 0.691711
0.166718 1.000000 0.719940
0.366211 0.998230 0.730438
0.593170 0.999115 0.723114
0.813904 1.000000 0.688171
1.000000 0.998871 0.640228
0.000000 0.000000 0.996063
0.003937 0.002655 0.998749
0.492950 0.003540 0.998230
0.821503 0.000885 0.998749
1.000000 0.000366 0.994568
0.002655 0.000000 0.996063
0.000366 0.001770 0.994293
0.520782 0.000000 0.999634
0.831116 0.000366 0.997986
1.000000 0.000366 0.994568
0.004303 0.410980 0.999237
0.000366 0.403503 0.994446
0.521179 0.386047 0.999634
0.825439 0.354187 0.991913
0.998230 0.320526 0.987488
0.001770 0.753967 0.983917
0.003937 0.747009 0.994171
0.454132 0.731689 0.991394
0.788513 0.706543 0.983185
1.000000 0.694763 0.966370
0.000000 1.000000 0.974945
0.150269 1.000000 0.975342
0.536469 0.996460 0.969635
0.818115 0.998871 0.964081
0.989380 0.983948 0.963196
