mpv/luts/Presetpro - Moody Blue.cube
#Created by: Adobe Photoshop Export Color Lookup Plugin
#Copyright: (C) Copyright 2022 Tim Martin and Presetpro.com
TITLE "Presetpro - Moody Blue"
#LUT size
LUT_3D_SIZE 32
#data domain
DOMAIN_MIN 0.0 0.0 0.0
DOMAIN_MAX 1.0 1.0 1.0
#LUT data points
0.000000 0.000000 0.000000
0.000122 0.000000 0.000000
0.008606 0.003937 0.000000
0.020355 0.003937 0.000366
0.036804 0.004425 0.000000
0.062744 0.007843 0.003937
0.073608 0.012512 0.000000
0.100677 0.022644 0.006073
0.121674 0.026428 0.004944
0.157501 0.023529 0.002777
0.186707 0.023529 0.001251
0.229095 0.023529 0.003937
0.261597 0.025940 0.007843
0.302948 0.023529 0.000000
0.336853 0.023529 0.007843
0.368225 0.027466 0.000000
0.406219 0.025543 0.002014
0.436066 0.035309 0.001770
0.473511 0.037567 0.000000
0.502228 0.045532 0.006317
0.539551 0.050995 0.000000
0.571411 0.060211 0.000000
0.610016 0.073364 0.000000
0.643005 0.074524 0.000000
0.682739 0.085388 0.000000
0.721710 0.089447 0.000000
0.761536 0.097412 0.000000
0.797485 0.105377 0.003937
0.845154 0.117279 0.000000
0.881592 0.132843 0.000000
0.924866 0.144958 0.000000
0.960785 0.160797 0.000000
0.003937 0.011780 0.000000
0.003784 0.012024 0.000122
0.011902 0.012024 0.003784
0.019867 0.016205 0.000366
0.043640 0.013031 0.000122
0.056152 0.026703 0.003937
0.076782 0.025787 0.000763
0.103729 0.034546 0.003296
0.127625 0.030609 0.010620
0.155701 0.036438 0.003937
0.195923 0.032898 0.005188
0.231598 0.033020 0.003784
0.267670 0.035675 0.000122
0.307007 0.038574 0.000122
0.340027 0.039459 0.003784
0.376068 0.043243 0.001770
0.408264 0.043396 0.002014
0.437958 0.051483 0.000000
0.473755 0.051483 0.000122
0.509949 0.061493 0.003784
0.539795 0.063263 0.000122
0.576599 0.076172 0.000000
0.611023 0.082611 0.001129
0.642120 0.083740 0.001007
0.681976 0.090576 0.000122
0.722473 0.099182 0.000122
0.761688 0.109558 0.003296
0.801270 0.117889 0.003296
0.838196 0.125610 0.000000
0.885132 0.144958 0.000000
0.928650 0.156860 0.000122
0.964844 0.172668 0.000122
0.003662 0.024780 0.007599
0.000000 0.024292 0.007599
0.000763 0.024536 0.007843
0.019867 0.028320 0.008087
0.032898 0.032623 0.000763
0.056793 0.039978 0.004547
0.078308 0.043396 0.004181
0.110687 0.043640 0.003662
0.132690 0.044891 0.000519
0.162292 0.048706 0.001129
0.199219 0.046814 0.008087
0.236664 0.052612 0.000000
0.272980 0.049316 0.000244
0.304596 0.055664 0.000000
0.342163 0.053497 0.001526
0.375305 0.059082 0.005310
0.406586 0.061615 0.000000
0.440247 0.067413 0.000000
0.475800 0.071838 0.000000
0.509186 0.079193 0.000519
0.538391 0.084991 0.000000
0.574341 0.093109 0.000000
0.615051 0.097656 0.000519
0.651123 0.100067 0.002899
0.684143 0.109680 0.000000
0.725616 0.117401 0.000000
0.758759 0.125366 0.000244
0.805328 0.136749 0.000000
0.845428 0.144592 0.000366
0.888428 0.156860 0.003418
0.928528 0.165070 0.007324
0.961029 0.177216 0.003937
0.000000 0.048187 0.007843
0.000000 0.048187 0.007843
0.004303 0.052124 0.011780
0.011383 0.052124 0.008209
0.032379 0.056793 0.000763
0.053131 0.060333 0.004547
0.084259 0.059967 0.011017
0.108398 0.060455 0.003784
0.140930 0.064636 0.000366
0.172028 0.070221 0.000000
0.208832 0.063873 0.006958
0.240479 0.075256 0.005066
0.276642 0.071716 0.000000
0.307648 0.073364 0.000000
0.346100 0.076019 0.000000
0.380646 0.084625 0.000000
0.414429 0.085510 0.001648
0.445312 0.089935 0.000000
0.475891 0.097168 0.000000
0.512848 0.103088 0.000000
0.547394 0.107025 0.000366
0.578003 0.109314 0.000000
0.616333 0.118408 0.003540
0.651245 0.122711 0.002899
0.684509 0.130554 0.000000
0.723206 0.134094 0.000000
0.764221 0.147491 0.002899
0.799255 0.152679 0.003418
0.841614 0.157623 0.000763
0.885773 0.172791 0.000641
0.932190 0.181152 0.000000
0.972168 0.193298 0.000000
0.000000 0.072601 0.015686
0.000000 0.072601 0.007843
0.000519 0.072601 0.008362
0.003937 0.076019 0.011780
0.020111 0.076538 0.008850
0.052612 0.087402 0.018341
0.081451 0.088287 0.004181
0.117767 0.088806 0.007721
0.156464 0.088287 0.006836
0.184937 0.085510 0.003418
0.216827 0.092224 0.006073
0.245789 0.092224 0.006958
0.287415 0.095642 0.007324
0.320282 0.096130 0.006836
0.346588 0.101715 0.000000
0.384552 0.103973 0.004791
0.416595 0.111328 0.003418
0.448853 0.117401 0.001007
0.483124 0.121307 0.001007
0.517792 0.126495 0.000519
0.545990 0.127502 0.002014
0.583679 0.133575 0.003418
0.618347 0.144470 0.006195
0.654785 0.145111 0.003418
0.686279 0.150146 0.005310
0.730804 0.158112 0.001526
0.768768 0.168365 0.002777
0.809753 0.169647 0.000000
0.846039 0.181519 0.008209
0.886017 0.188751 0.000519
0.931946 0.201782 0.006592
0.969147 0.213776 0.004425
0.000000 0.105743 0.013031
0.000000 0.108398 0.015686
0.000000 0.101196 0.012390
0.003296 0.104492 0.015686
0.000641 0.111450 0.019470
0.037201 0.109039 0.018341
0.077789 0.115875 0.010498
0.122437 0.121429 0.007599
0.160156 0.124084 0.007477
0.187347 0.118011 0.000000
0.222778 0.119415 0.000641
0.253235 0.121552 0.001251
0.289673 0.127136 0.001770
0.321564 0.126740 0.004303
0.360535 0.130920 0.000000
0.383789 0.133331 0.000641
0.423920 0.139771 0.003937
0.455048 0.143066 0.000000
0.487549 0.144318 0.002899
0.522980 0.150909 0.003296
0.549805 0.154083 0.000000
0.582550 0.163452 0.000000
0.619629 0.167236 0.000641
0.659332 0.171783 0.004547
0.690582 0.174438 0.004791
0.732697 0.178986 0.003296
0.770020 0.188232 0.001251
0.811127 0.197479 0.004059
0.851349 0.205048 0.000000
0.893097 0.209747 0.000000
0.933197 0.221252 0.000641
0.965973 0.233887 0.000641
0.000763 0.136353 0.016449
0.000641 0.139648 0.019623
0.000244 0.140045 0.019623
0.000763 0.136353 0.016449
0.000000 0.143951 0.013794
0.019104 0.144958 0.013275
0.063507 0.148895 0.014160
0.113464 0.152924 0.015045
0.161926 0.161407 0.013672
0.204163 0.156738 0.000000
0.231995 0.160156 0.000763
0.268311 0.156738 0.000000
0.297028 0.159149 0.008728
0.332428 0.155457 0.005310
0.361542 0.161804 0.003662
0.396332 0.165344 0.002014
0.426056 0.169006 0.000763
0.460358 0.169250 0.000000
0.490601 0.173950 0.000000
0.528168 0.182800 0.000763
0.560669 0.183411 0.001770
0.593811 0.191162 0.001251
0.626434 0.195190 0.000000
0.661987 0.202271 0.002167
0.697418 0.204437 0.003052
0.737396 0.208466 0.001526
0.776489 0.214172 0.000000
0.814941 0.220856 0.000000
0.852997 0.228577 0.000000
0.898926 0.237579 0.000000
0.934357 0.242126 0.000000
0.973297 0.257935 0.001526
0.000000 0.170013 0.020477
0.003052 0.173035 0.023529
0.003052 0.173035 0.020477
0.000885 0.176086 0.020477
0.004303 0.170502 0.031250
0.000000 0.181519 0.021393
0.033783 0.184814 0.018585
0.100677 0.185699 0.018738
0.145599 0.192657 0.014679
0.208221 0.200989 0.003052
0.246399 0.204041 0.000000
0.280823 0.200500 0.000000
0.308899 0.203522 0.005432
0.334717 0.199738 0.000000
0.367859 0.198730 0.005188
0.399597 0.199615 0.000885
0.432404 0.203278 0.004944
0.467438 0.204407 0.001770
0.497925 0.206940 0.002533
0.536652 0.212891 0.001770
0.567627 0.215302 0.000000
0.602783 0.219727 0.000885
0.631897 0.226166 0.002014
0.662506 0.228088 0.004059
0.704102 0.231873 0.004791
0.745880 0.237183 0.003052
0.785706 0.243652 0.002411
0.822388 0.249207 0.003418
0.859467 0.253754 0.000000
0.900696 0.265137 0.000000
0.933716 0.277802 0.000000
0.969513 0.286774 0.000000
0.001007 0.207062 0.024536
0.003937 0.209991 0.027466
0.000000 0.209991 0.018707
0.000000 0.212891 0.018707
0.003418 0.212402 0.021118
0.000366 0.215820 0.021637
0.004425 0.221741 0.018341
0.072479 0.221741 0.018585
0.137360 0.229584 0.007965
0.187225 0.236542 0.008484
0.242615 0.248047 0.003662
0.288147 0.254639 0.001007
0.317993 0.250580 0.001007
0.345856 0.250214 0.001007
0.385956 0.246277 0.002167
0.415161 0.240356 0.000885
0.442535 0.239319 0.001892
0.472382 0.241364 0.001129
0.507172 0.244263 0.002899
0.538422 0.248199 0.002808
0.568512 0.249725 0.001526
0.605072 0.253510 0.001648
0.636444 0.257812 0.000000
0.673370 0.262878 0.000000
0.706268 0.269836 0.000000
0.744080 0.268799 0.000000
0.786713 0.274628 0.004547
0.821014 0.279053 0.003937
0.861847 0.286011 0.001007
0.899292 0.294250 0.000244
0.941681 0.299042 0.000000
0.976471 0.310944 0.000000
0.001129 0.251099 0.023010
0.002777 0.255524 0.027466
0.000000 0.252747 0.024658
0.000000 0.252747 0.024658
0.000000 0.254395 0.030243
0.000000 0.258301 0.027466
0.000000 0.264130 0.019989
0.035309 0.262238 0.019104
0.113098 0.269318 0.008972
0.174316 0.276276 0.012268
0.214142 0.287903 0.002655
0.279938 0.294098 0.001648
0.327637 0.302948 0.000000
0.362793 0.298157 0.000000
0.390381 0.293610 0.002258
0.423248 0.293213 0.003174
0.454407 0.283356 0.003937
0.483246 0.286255 0.000000
0.511078 0.282990 0.001129
0.539795 0.284485 0.000000
0.574585 0.288300 0.000000
0.614563 0.284119 0.001251
0.645294 0.286896 0.005585
0.678802 0.293610 0.000000
0.718140 0.301697 0.001129
0.757385 0.299805 0.000000
0.790771 0.308655 0.000000
0.830475 0.308777 0.000000
0.865540 0.317505 0.003540
0.905518 0.318512 0.000519
0.945618 0.332581 0.000000
0.977600 0.340668 0.000000
0.000000 0.300446 0.027588
0.005310 0.297760 0.030121
0.002655 0.295380 0.027466
0.000000 0.299042 0.027466
0.005310 0.297760 0.027588
0.002655 0.295105 0.026184
0.000000 0.300446 0.024780
0.000000 0.304871 0.020355
0.072601 0.311951 0.017212
0.147491 0.313446 0.005585
0.203644 0.323975 0.002655
0.264771 0.329132 0.003937
0.320038 0.339508 0.000519
0.368103 0.354431 0.000000
0.397064 0.351654 0.000000
0.438446 0.345459 0.005951
0.465027 0.337738 0.002655
0.498810 0.334320 0.000000
0.523102 0.331024 0.002655
0.550537 0.323700 0.001129
0.582672 0.322693 0.006439
0.617096 0.323975 0.003937
0.653015 0.322693 0.001129
0.685394 0.326233 0.001251
0.717163 0.332306 0.000000
0.760284 0.335724 0.001251
0.796082 0.338379 0.004547
0.833282 0.342316 0.005188
0.873871 0.347107 0.002655
0.910065 0.356476 0.000000
0.947113 0.363037 0.000000
0.977722 0.372284 0.002533
0.002533 0.341675 0.026062
0.002533 0.341675 0.026062
0.000000 0.339142 0.023529
0.000000 0.346741 0.028595
0.000000 0.348114 0.022400
0.000000 0.347504 0.024292
0.002533 0.342438 0.029602
0.000885 0.346466 0.031097
0.005035 0.356598 0.012024
0.112335 0.359619 0.013397
0.187469 0.365204 0.006714
0.240845 0.374420 0.000000
0.290192 0.384796 0.001404
0.348114 0.387451 0.000244
0.412384 0.408966 0.002136
0.439697 0.401245 0.002533
0.471741 0.395935 0.000000
0.507660 0.388336 0.000000
0.538269 0.384796 0.001404
0.567261 0.374176 0.001007
0.593292 0.371887 0.000000
0.626434 0.362549 0.000000
0.656189 0.365204 0.002533
0.697784 0.366730 0.002411
0.727264 0.370270 0.000885
0.770142 0.373413 0.001770
0.801514 0.375458 0.000000
0.839722 0.378113 0.000000
0.877686 0.384186 0.000000
0.917511 0.385071 0.001404
0.950928 0.394562 0.000000
0.988220 0.401642 0.000000
0.003937 0.387970 0.028961
0.003937 0.387970 0.028961
0.003662 0.388214 0.031372
0.002411 0.390625 0.032501
0.000000 0.389496 0.029358
0.003937 0.387970 0.032623
0.002411 0.389496 0.035919
0.002411 0.389496 0.031372
0.001007 0.394287 0.027954
0.051727 0.397186 0.016693
0.146851 0.412506 0.017090
0.220123 0.410492 0.002411
0.274231 0.420868 0.000000
0.331543 0.429596 0.000000
0.380615 0.429718 0.000000
0.448700 0.458923 0.008606
0.494385 0.453613 0.001892
0.521698 0.446777 0.000000
0.553314 0.437439 0.003174
0.582184 0.432617 0.001526
0.615570 0.423767 0.001007
0.645050 0.415405 0.000000
0.671722 0.413269 0.005432
0.700958 0.406189 0.001404
0.740051 0.403656 0.003296
0.778107 0.405304 0.000000
0.811890 0.409973 0.003296
0.846558 0.413025 0.003418
0.883881 0.417450 0.003540
0.918671 0.419983 0.000000
0.957001 0.424164 0.000000
0.988220 0.431091 0.005432
0.000000 0.433380 0.030731
0.002289 0.435669 0.033020
0.000000 0.433380 0.030731
0.000000 0.432983 0.030365
0.005066 0.434021 0.033020
0.006195 0.431732 0.033020
0.000885 0.434784 0.040863
0.001770 0.434784 0.035309
0.000641 0.437317 0.044403
0.006836 0.439087 0.030731
0.086151 0.447052 0.026825
0.191010 0.449310 0.019867
0.245789 0.462219 0.005432
0.314087 0.468658 0.006195
0.361664 0.476898 0.000000
0.423126 0.482452 0.000244
0.486938 0.504211 0.005188
0.536865 0.505615 0.004425
0.570892 0.491577 0.000000
0.603546 0.483459 0.000000
0.632263 0.475616 0.003662
0.659332 0.470551 0.000000
0.690582 0.459198 0.000000
0.720825 0.456635 0.000000
0.751038 0.449066 0.001404
0.786102 0.444397 0.000000
0.817078 0.449066 0.001648
0.850616 0.454773 0.005829
0.886414 0.450958 0.002289
0.924225 0.455658 0.002289
0.966370 0.461334 0.000244
0.996063 0.468658 0.003937
0.003937 0.479431 0.048828
0.003937 0.479431 0.044525
0.003937 0.477264 0.042358
0.003937 0.477264 0.042358
0.002167 0.477661 0.042755
0.001770 0.476654 0.047943
0.003937 0.479431 0.048828
0.003937 0.479431 0.048828
0.004303 0.478027 0.053009
0.001251 0.479919 0.055664
0.012787 0.485870 0.040344
0.137512 0.492584 0.034149
0.208984 0.501190 0.018585
0.284607 0.500916 0.014160
0.340027 0.512939 0.004303
0.403778 0.519165 0.001770
0.461365 0.529144 0.000000
0.527802 0.546478 0.003937
0.577881 0.549500 0.001770
0.612518 0.537598 0.001770
0.644043 0.531403 0.000000
0.676025 0.519531 0.000000
0.705994 0.510529 0.000000
0.731812 0.502197 0.002167
0.768250 0.496002 0.001770
0.798340 0.492950 0.000763
0.832642 0.490051 0.001770
0.859955 0.489410 0.000000
0.892975 0.486877 0.001770
0.932068 0.490936 0.000000
0.963928 0.493103 0.002014
0.995697 0.501190 0.005676
0.000000 0.519287 0.056793
0.000000 0.519287 0.056793
0.000000 0.519287 0.056793
0.000000 0.519287 0.056793
0.002533 0.516754 0.064636
0.007202 0.519897 0.064514
0.003937 0.519135 0.062469
0.001007 0.520294 0.059814
0.002014 0.517242 0.060577
0.002014 0.523193 0.070831
0.003296 0.523834 0.066040
0.052734 0.531036 0.060699
0.181274 0.530914 0.057434
0.246918 0.542816 0.041229
0.313965 0.543060 0.031616
0.382019 0.554565 0.013519
0.443665 0.560516 0.007721
0.499329 0.566589 0.000000
0.566895 0.584045 0.001648
0.629608 0.593262 0.004913
0.661713 0.582520 0.003418
0.693359 0.572906 0.001892
0.724091 0.563416 0.000000
0.751923 0.555573 0.002014
0.780640 0.543549 0.004944
0.812531 0.538879 0.003174
0.841095 0.535583 0.003296
0.871338 0.530548 0.000000
0.902344 0.529022 0.003540
0.936005 0.523193 0.000000
0.974060 0.529144 0.001892
0.998108 0.529144 0.000000
0.000000 0.559143 0.072754
0.000000 0.559296 0.072876
0.000000 0.559143 0.072754
0.000000 0.558899 0.076294
0.003540 0.556122 0.075287
0.000000 0.561188 0.076813
0.002014 0.557251 0.078705
0.000000 0.559296 0.078705
0.000000 0.559296 0.086273
0.003021 0.557129 0.087555
0.002014 0.555237 0.086548
0.008453 0.564972 0.084381
0.120087 0.569031 0.073883
0.218903 0.577850 0.074768
0.292297 0.580414 0.065674
0.350250 0.586609 0.057190
0.418121 0.596344 0.049347
0.477814 0.604187 0.043152
0.543732 0.608246 0.027100
0.602173 0.614685 0.014191
0.670837 0.631653 0.000519
0.704132 0.624573 0.000000
0.735870 0.613312 0.003174
0.770538 0.608246 0.000000
0.796478 0.595459 0.001007
0.829224 0.591431 0.000000
0.853149 0.585480 0.001892
0.882355 0.579407 0.001404
0.918152 0.572937 0.000000
0.947021 0.571045 0.000244
0.977997 0.569153 0.002014
0.996216 0.569031 0.000000
0.000000 0.596863 0.098419
0.000000 0.598999 0.100586
0.000000 0.598999 0.100586
0.000000 0.598236 0.102356
0.004547 0.598511 0.100586
0.001251 0.598389 0.101196
0.004547 0.593323 0.102722
0.003540 0.595093 0.102722
0.000000 0.597992 0.108032
0.005798 0.595093 0.108032
0.005585 0.598114 0.109283
0.000763 0.597626 0.105255
0.024506 0.605072 0.106018
0.174377 0.608490 0.107178
0.257874 0.617828 0.103119
0.322815 0.617096 0.089844
0.399628 0.628082 0.095032
0.461761 0.634308 0.092743
0.517670 0.640625 0.084778
0.577240 0.646301 0.081116
0.643768 0.650360 0.067078
0.711334 0.671356 0.042053
0.753204 0.667938 0.019379
0.783203 0.656311 0.011536
0.811279 0.646057 0.000885
0.842651 0.639099 0.002167
0.868073 0.630371 0.002167
0.896027 0.623047 0.000000
0.925751 0.618988 0.000000
0.954071 0.611420 0.000000
0.983795 0.611145 0.000000
1.000000 0.607239 0.000000
0.002289 0.636566 0.124481
0.002289 0.636566 0.124481
0.002289 0.636566 0.124481
0.003937 0.634918 0.124481
0.006195 0.632660 0.126129
0.003296 0.632660 0.127777
0.001648 0.634918 0.128418
0.002533 0.634033 0.128418
0.003296 0.630005 0.129303
0.001648 0.634918 0.128418
0.004181 0.632416 0.132965
0.002533 0.632385 0.133484
0.000000 0.639618 0.141693
0.117279 0.642120 0.137909
0.227661 0.649597 0.128937
0.304321 0.653900 0.133575
0.375732 0.660095 0.131195
0.441132 0.665924 0.130310
0.503876 0.666290 0.125122
0.564331 0.673492 0.132843
0.626312 0.680847 0.129425
0.681488 0.687042 0.116913
0.757751 0.700317 0.108948
0.802155 0.701965 0.091492
0.820892 0.690582 0.082275
0.853394 0.685669 0.071899
0.881744 0.679352 0.053802
0.906128 0.672516 0.039642
0.929932 0.661499 0.029633
0.963684 0.658447 0.027374
0.988617 0.654541 0.025208
1.000000 0.650604 0.022797
0.000000 0.666046 0.149902
0.002411 0.668457 0.152313
0.003937 0.668457 0.152313
0.003937 0.668457 0.152313
0.000519 0.670349 0.152313
0.003937 0.668457 0.152313
0.000000 0.666931 0.155609
0.000000 0.670868 0.155365
0.008484 0.665527 0.163574
0.002655 0.665649 0.158905
0.007355 0.668182 0.167389
0.000000 0.667419 0.166992
0.001770 0.669952 0.165863
0.049896 0.670105 0.169128
0.189819 0.683990 0.166870
0.275970 0.681244 0.164825
0.354248 0.687286 0.168152
0.420898 0.693481 0.168640
0.484131 0.696655 0.159790
0.550171 0.703735 0.169800
0.600128 0.707672 0.164612
0.658600 0.710693 0.166504
0.720184 0.718536 0.162445
0.786713 0.737122 0.167877
0.830231 0.739044 0.153229
0.862885 0.734497 0.144745
0.889191 0.722473 0.138153
0.915619 0.712982 0.132477
0.948395 0.708923 0.128052
0.968750 0.700958 0.117279
0.987854 0.698303 0.119568
1.000000 0.695892 0.115784
0.000000 0.705627 0.184082
0.000244 0.704132 0.189148
0.005066 0.701721 0.189148
0.005066 0.701721 0.189148
0.000000 0.704254 0.181305
0.001892 0.702362 0.180267
0.000000 0.706146 0.184052
0.001404 0.704498 0.189148
0.003418 0.708679 0.185455
0.002808 0.702850 0.184967
0.001251 0.704132 0.195709
0.000000 0.701477 0.195587
0.003021 0.699951 0.198364
0.003021 0.706787 0.197601
0.143738 0.706024 0.203308
0.257782 0.713867 0.199524
0.333862 0.717407 0.195099
0.402161 0.725616 0.201263
0.467438 0.727539 0.202545
0.527008 0.731567 0.203430
0.590515 0.736755 0.205963
0.648834 0.742188 0.208862
0.700714 0.746490 0.212402
0.753448 0.751678 0.214050
0.812012 0.765472 0.207855
0.870728 0.778137 0.214966
0.898682 0.770172 0.203308
0.923981 0.758270 0.189911
0.941040 0.751312 0.189911
0.965332 0.742584 0.183838
0.991638 0.740936 0.188751
1.000000 0.735626 0.188904
0.002655 0.738800 0.215820
0.002655 0.737518 0.214569
0.002655 0.737518 0.214569
0.005188 0.738800 0.215820
0.000000 0.739166 0.214050
0.002655 0.736755 0.220520
0.002014 0.732971 0.220642
0.004425 0.734344 0.223785
0.005951 0.737762 0.222778
0.002655 0.736115 0.224792
0.000000 0.733459 0.223663
0.001282 0.734741 0.223541
0.006836 0.738525 0.234314
0.002045 0.733856 0.226837
0.092102 0.740051 0.231628
0.232605 0.745728 0.234924
0.317566 0.747253 0.235565
0.387878 0.751801 0.236328
0.456055 0.755737 0.245697
0.516907 0.760925 0.249237
0.577240 0.762329 0.244934
0.632904 0.774078 0.245789
0.683624 0.772949 0.247589
0.735229 0.775330 0.259094
0.784058 0.780029 0.257324
0.846039 0.796478 0.266937
0.897400 0.808594 0.266296
0.927887 0.800629 0.256317
0.948761 0.794952 0.259613
0.975708 0.789001 0.256561
0.998230 0.781921 0.260376
1.000000 0.771423 0.255310
0.001129 0.769135 0.247559
0.001129 0.769135 0.247559
0.001129 0.769653 0.247559
0.001129 0.774323 0.249969
0.001129 0.772430 0.248077
0.003296 0.771301 0.249725
0.001892 0.769897 0.248322
0.002777 0.770782 0.249207
0.002899 0.770782 0.257050
0.002777 0.769653 0.255920
0.002258 0.768127 0.259064
0.000000 0.766876 0.262390
0.008453 0.766632 0.258972
0.002289 0.770142 0.263763
0.044464 0.772675 0.262360
0.206024 0.773071 0.274780
0.305664 0.773071 0.272003
0.374603 0.783691 0.279327
0.441772 0.783173 0.276154
0.507416 0.791168 0.285034
0.557770 0.789886 0.285400
0.616974 0.802032 0.292236
0.672760 0.802155 0.288422
0.715118 0.804565 0.286926
0.766479 0.806335 0.303253
0.816956 0.812653 0.310059
0.870087 0.824554 0.317413
0.917389 0.842010 0.322601
0.951813 0.836182 0.321472
0.977600 0.829865 0.317780
0.991272 0.824799 0.313110
1.000000 0.816711 0.311951
0.001007 0.803802 0.286163
0.001129 0.806580 0.289062
0.001251 0.801147 0.286407
0.000000 0.801910 0.286163
0.001007 0.800903 0.286163
0.000000 0.803162 0.286774
0.000000 0.806976 0.290588
0.000000 0.799896 0.289215
0.000000 0.805695 0.287048
0.000000 0.804443 0.289948
0.001007 0.800903 0.290710
0.004181 0.802429 0.298157
0.000000 0.801270 0.294373
0.001007 0.805450 0.301086
0.035980 0.792572 0.298431
0.193115 0.805695 0.310577
0.292755 0.804810 0.310699
0.363586 0.811890 0.316772
0.435944 0.811646 0.320435
0.499695 0.813660 0.324860
0.551941 0.820648 0.331451
0.605957 0.826080 0.333862
0.655151 0.829224 0.330444
0.706787 0.831268 0.331207
0.750549 0.835175 0.340302
0.796722 0.840485 0.352966
0.842773 0.841492 0.352570
0.891205 0.848969 0.363068
0.941925 0.867798 0.376099
0.970154 0.863892 0.377502
0.992920 0.861755 0.381287
1.000000 0.853760 0.374329
0.000885 0.834808 0.324982
0.001770 0.835693 0.325867
0.003937 0.831757 0.324982
0.003937 0.831757 0.324982
0.000885 0.835297 0.327271
0.000885 0.837189 0.327393
0.003937 0.831757 0.326263
0.004791 0.832642 0.334991
0.005951 0.833801 0.337891
0.000000 0.837708 0.339783
0.000000 0.835297 0.338531
0.003296 0.835693 0.333221
0.006317 0.834167 0.335236
0.000000 0.835175 0.341064
0.044952 0.834808 0.346863
0.184906 0.831512 0.347778
0.280121 0.834656 0.345612
0.357513 0.838715 0.352448
0.431396 0.840485 0.359528
0.495911 0.841125 0.362427
0.547638 0.851379 0.362427
0.596344 0.851379 0.367737
0.647827 0.852264 0.375092
0.699829 0.856049 0.383820
0.734589 0.855286 0.379883
0.782166 0.857056 0.389771
0.825439 0.867065 0.401276
0.866028 0.868835 0.400879
0.908539 0.880219 0.407104
0.961548 0.892487 0.433411
0.993408 0.898438 0.440125
1.000000 0.886658 0.436951
0.003174 0.863647 0.366486
0.003174 0.864380 0.367249
0.003937 0.865143 0.369507
0.003937 0.865143 0.368011
0.003418 0.864136 0.374084
0.000000 0.866791 0.366486
0.001526 0.865143 0.374329
0.001770 0.862244 0.367126
0.001526 0.864380 0.375854
0.000000 0.863647 0.376617
0.000763 0.868317 0.377106
0.003174 0.866791 0.382935
0.000763 0.868439 0.378998
0.000763 0.864380 0.382050
0.083679 0.860474 0.390015
0.207581 0.866150 0.387756
0.295929 0.860474 0.395203
0.364471 0.866547 0.393951
0.426849 0.870605 0.398499
0.489838 0.872986 0.400146
0.539917 0.874268 0.406586
0.592682 0.876404 0.411407
0.641388 0.879333 0.420624
0.688568 0.883484 0.429749
0.726624 0.886414 0.423035
0.772675 0.886414 0.429993
0.810760 0.887787 0.435547
0.847565 0.894257 0.443787
0.886658 0.895020 0.450745
0.933594 0.900940 0.462891
0.970154 0.913483 0.482239
0.996826 0.923218 0.496643
0.000000 0.894897 0.418488
0.000641 0.896149 0.409882
0.000885 0.895264 0.409241
0.004303 0.892609 0.409607
0.003296 0.892212 0.409241
0.006592 0.895508 0.419098
0.006592 0.894897 0.418488
0.006592 0.895508 0.419098
0.001007 0.896149 0.410889
0.006195 0.892212 0.416962
0.007202 0.892975 0.417847
0.006592 0.894257 0.419739
0.004303 0.894257 0.426331
0.032837 0.896149 0.423645
0.157593 0.891602 0.431641
0.255768 0.889709 0.428223
0.307800 0.889557 0.435425
0.373474 0.895508 0.441620
0.437225 0.897797 0.445557
0.493774 0.897034 0.444794
0.542206 0.900055 0.452362
0.591797 0.902740 0.461609
0.637451 0.903351 0.460724
0.680847 0.903992 0.467438
0.718658 0.908539 0.467682
0.761536 0.911072 0.480957
0.798096 0.912476 0.486420
0.841125 0.915741 0.490570
0.870972 0.912476 0.496796
0.910431 0.913086 0.502838
0.945618 0.924591 0.520691
0.984314 0.930054 0.537384
0.000519 0.922974 0.460724
0.003418 0.920044 0.460724
0.003418 0.920044 0.459717
0.003418 0.920044 0.459717
0.001007 0.923981 0.460205
0.000519 0.923462 0.459717
0.000519 0.923462 0.461243
0.004425 0.920563 0.460205
0.004822 0.918671 0.467560
0.003784 0.920044 0.474884
0.005188 0.918274 0.467560
0.005432 0.918518 0.468567
0.024231 0.921570 0.476410
0.141785 0.926880 0.477051
0.235016 0.922211 0.476288
