mpv/luts/Presetpro - HDR Color.cube
#Created by: Adobe Photoshop Export Color Lookup Plugin
#Copyright: (C) Copyright 2018 https://www.presetpro.com and Tim Martin
TITLE "Presetpro - HDR Color"
#LUT size
LUT_3D_SIZE 32
#data domain
DOMAIN_MIN 0.0 0.0 0.0
DOMAIN_MAX 1.0 1.0 1.0
#LUT data points
0.000000 0.003937 0.000000
0.039734 0.000000 0.003784
0.071594 0.000244 0.000000
0.103485 0.000000 0.003540
0.144714 0.000000 0.000000
0.199249 0.000641 0.000000
0.249207 0.003174 0.000000
0.309418 0.000885 0.000000
0.356079 0.002899 0.001007
0.414673 0.000000 0.002777
0.462463 0.003937 0.000000
0.511688 0.000000 0.001404
0.554199 0.001526 0.000000
0.609222 0.002289 0.000000
0.653748 0.001770 0.002167
0.691956 0.001892 0.001892
0.735626 0.000000 0.004059
0.767242 0.000000 0.001770
0.799011 0.001648 0.001648
0.835571 0.003937 0.002411
0.861115 0.000000 0.000000
0.895660 0.002655 0.000000
0.923218 0.002777 0.001129
0.952820 0.001007 0.000000
0.980774 0.000885 0.000000
0.999237 0.003174 0.003174
0.999359 0.003296 0.003296
0.999481 0.003418 0.003418
0.996063 0.000000 0.000000
0.996063 0.000000 0.000000
0.996063 0.000000 0.007599
0.996063 0.000000 0.007843
0.004059 0.032013 0.000000
0.043518 0.031891 0.003784
0.071350 0.031738 0.000000
0.104248 0.028076 0.000122
0.155090 0.024048 0.000000
0.204926 0.011383 0.000122
0.259460 0.000244 0.000000
0.309662 0.000000 0.001526
0.359253 0.002899 0.001007
0.415802 0.000000 0.002899
0.462463 0.003937 0.000000
0.516754 0.000000 0.001251
0.556732 0.000000 0.000122
0.604279 0.002289 0.004547
0.651978 0.000000 0.002167
0.691833 0.000000 0.000000
0.729797 0.001892 0.003815
0.767242 0.000000 0.001770
0.799622 0.002289 0.000000
0.833160 0.003784 0.000000
0.864014 0.000122 0.000122
0.898163 0.002533 0.001526
0.923218 0.002777 0.001129
0.953827 0.000000 0.000000
0.980530 0.006714 0.000000
0.996063 0.000000 0.000000
0.996063 0.000000 0.000000
0.996063 0.000000 0.000000
0.996063 0.003784 0.000000
0.996063 0.000244 0.000000
0.996063 0.000000 0.000000
0.996216 0.000122 0.000122
0.007843 0.063995 0.000244
0.046692 0.064148 0.003662
0.071838 0.067688 0.000000
0.112091 0.064392 0.000000
0.153320 0.059845 0.000000
0.210999 0.055664 0.000244
0.257050 0.039459 0.000000
0.320923 0.012268 0.000000
0.364685 0.007324 0.000000
0.414673 0.000000 0.000000
0.462463 0.003937 0.000519
0.514221 0.002533 0.001404
0.558105 0.000244 0.001251
0.608856 0.000000 0.001404
0.648956 0.000000 0.002167
0.693451 0.000000 0.003662
0.729431 0.003662 0.000000
0.767242 0.000000 0.000000
0.797607 0.000244 0.000000
0.834656 0.000000 0.001526
0.865021 0.003937 0.002533
0.896667 0.003662 0.001251
0.920959 0.003937 0.001129
0.952332 0.001251 0.000000
0.977997 0.002777 0.003052
0.999237 0.003174 0.003174
0.996063 0.000000 0.000000
1.000000 0.003937 0.003937
0.996063 0.000000 0.000000
0.996063 0.000000 0.000000
0.996063 0.000000 0.000000
0.999756 0.003662 0.003662
0.000000 0.111694 0.000763
0.034790 0.107910 0.003540
0.070587 0.108521 0.000000
0.112091 0.104980 0.003540
0.159882 0.104614 0.000122
0.211243 0.100677 0.003296
0.258179 0.095642 0.000000
0.319916 0.080200 0.003052
0.368500 0.057037 0.004181
0.419708 0.031372 0.003540
0.466644 0.009613 0.000763
0.517761 0.000000 0.002014
0.558105 0.000366 0.001129
0.604279 0.002289 0.005829
0.654510 0.000366 0.002167
0.692200 0.000000 0.002411
0.728790 0.000000 0.001648
0.767242 0.000000 0.001770
0.799622 0.000366 0.003815
0.837067 0.002014 0.003540
0.863251 0.002167 0.000000
0.895660 0.002655 0.000000
0.922089 0.002777 0.000000
0.952454 0.001007 0.000000
0.977753 0.003052 0.003052
0.999237 0.003174 0.003174
0.996063 0.000000 0.000000
0.996460 0.000366 0.000366
0.996063 0.000000 0.000000
0.996063 0.000000 0.000000
0.996063 0.000000 0.000000
0.996063 0.000000 0.000000
0.006836 0.159882 0.010254
0.010376 0.164185 0.006836
0.039978 0.163818 0.000000
0.110046 0.160400 0.000885
0.152557 0.160400 0.003418
0.216064 0.152039 0.007202
0.265137 0.144958 0.000000
0.318268 0.142944 0.003052
0.372284 0.127502 0.003937
0.419586 0.111572 0.000519
0.469574 0.095367 0.000000
0.514709 0.072876 0.000519
0.566833 0.038818 0.007843
0.605286 0.014923 0.003296
0.645905 0.007446 0.001251
0.688049 0.001007 0.002533
0.728668 0.003937 0.000519
0.763214 0.002258 0.000000
0.797363 0.000000 0.000519
0.833160 0.001526 0.001007
0.861115 0.000000 0.000000
0.893494 0.000000 0.003174
0.919800 0.000519 0.001007
0.952332 0.000000 0.001526
0.977356 0.003418 0.003937
0.998749 0.002655 0.004181
0.998871 0.002777 0.002777
0.998993 0.002899 0.002899
0.998871 0.004303 0.003540
0.996338 0.005798 0.006592
0.992279 0.027069 0.000000
1.000000 0.069305 0.003418
0.000000 0.216187 0.000641
0.000000 0.218842 0.000000
0.004791 0.215546 0.000000
0.082367 0.212250 0.011627
0.137512 0.208984 0.001251
0.213013 0.215546 0.007202
0.253235 0.214661 0.000641
0.321686 0.204559 0.004181
0.373688 0.188354 0.003662
0.425659 0.176453 0.002777
0.465759 0.167877 0.002655
0.515991 0.151306 0.000000
0.562042 0.142944 0.000000
0.605927 0.126892 0.000641
0.649811 0.104248 0.000000
0.689941 0.090057 0.000641
0.729675 0.071442 0.000000
0.764862 0.050201 0.000000
0.795074 0.030334 0.001648
0.833160 0.012634 0.005066
0.859222 0.013885 0.000641
0.887054 0.010742 0.000000
0.920319 0.014008 0.001129
0.952179 0.013000 0.000641
0.978363 0.015656 0.003296
0.998596 0.019592 0.000000
0.999359 0.036926 0.000641
1.000000 0.056793 0.006836
0.996063 0.085510 0.003296
0.996948 0.111176 0.006317
0.996704 0.134583 0.001251
1.000000 0.153442 0.001251
0.003937 0.271973 0.000000
0.003937 0.267303 0.003174
0.000000 0.267303 0.001007
0.037689 0.266907 0.000763
0.126251 0.267792 0.003662
0.190369 0.266541 0.009613
0.252350 0.259460 0.000763
0.318024 0.257050 0.007721
0.373169 0.248199 0.004181
0.421356 0.239471 0.003937
0.468567 0.227814 0.005310
0.514221 0.217072 0.000641
0.565186 0.207703 0.001526
0.606049 0.197449 0.000000
0.646545 0.187836 0.000000
0.681946 0.177460 0.000000
0.725769 0.163177 0.001282
0.762207 0.156219 0.001404
0.793427 0.148743 0.000000
0.822784 0.142426 0.000000
0.858978 0.133820 0.004303
0.889832 0.133057 0.001251
0.920197 0.133057 0.001129
0.949158 0.134216 0.004303
0.975464 0.140015 0.000000
0.997742 0.146484 0.000000
0.993561 0.154572 0.000000
0.996826 0.160522 0.000519
0.998871 0.171143 0.000763
0.998993 0.182281 0.001007
0.999237 0.197327 0.000000
1.000000 0.209991 0.004669
0.003052 0.316864 0.003052
0.004059 0.319794 0.000000
0.000885 0.319916 0.000000
0.009491 0.318909 0.000000
0.088409 0.315094 0.000000
0.175842 0.312317 0.000885
0.232635 0.315094 0.000000
0.304626 0.312073 0.000885
0.362152 0.310944 0.000122
0.413391 0.300049 0.003540
0.470825 0.287781 0.005310
0.509796 0.277924 0.000000
0.560516 0.270081 0.001770
0.605164 0.257172 0.000000
0.643250 0.249329 0.000000
0.680054 0.243500 0.000000
0.722595 0.234375 0.001770
0.758026 0.225800 0.000000
0.790527 0.222992 0.001648
0.821381 0.220978 0.000000
0.854156 0.210999 0.003143
0.886047 0.208344 0.001251
0.913116 0.206177 0.001892
0.945862 0.207062 0.002899
0.974701 0.210114 0.000000
0.995453 0.215668 0.000763
0.997589 0.223663 0.003296
0.999481 0.229218 0.001404
1.000000 0.236816 0.002655
0.998230 0.244019 0.000000
1.000000 0.255157 0.002899
1.000000 0.262360 0.000885
0.002899 0.365845 0.000000
0.000000 0.367737 0.000000
0.000244 0.365570 0.002899
0.001404 0.366211 0.000000
0.029480 0.366333 0.000000
0.145996 0.367218 0.000000
0.223145 0.366852 0.007324
0.288025 0.362152 0.003174
0.346222 0.361908 0.000000
0.409607 0.354950 0.000000
0.457794 0.350647 0.003662
0.507751 0.337616 0.006317
0.552673 0.331055 0.000519
0.598724 0.316254 0.000641
0.640198 0.311188 0.000763
0.683105 0.302338 0.000000
0.718933 0.294342 0.000000
0.754852 0.288269 0.001129
0.788513 0.284241 0.001282
0.822296 0.279175 0.001404
0.848328 0.274750 0.001404
0.884125 0.268158 0.001648
0.910309 0.269806 0.001770
0.947876 0.269806 0.000000
0.974823 0.270813 0.002014
0.997467 0.275146 0.000000
1.000000 0.281952 0.002289
1.000000 0.285492 0.000000
0.998993 0.292969 0.007599
1.000000 0.302582 0.000244
0.999878 0.310822 0.001007
0.994171 0.314850 0.000000
0.002258 0.414673 0.000000
0.006714 0.417450 0.001129
0.000000 0.413788 0.000000
0.001129 0.414673 0.000000
0.003662 0.416809 0.000000
0.112091 0.411377 0.006836
0.203400 0.411499 0.005951
0.276031 0.406830 0.000000
0.338013 0.409607 0.002777
0.395050 0.402893 0.000000
0.451843 0.400360 0.004944
0.507263 0.391388 0.001129
0.555450 0.381775 0.000000
0.595825 0.374939 0.002289
0.637939 0.366974 0.003296
0.676880 0.362152 0.004669
0.711212 0.351929 0.000000
0.753204 0.347992 0.001007
0.787750 0.341797 0.001129
0.817596 0.333435 0.000000
0.847076 0.329529 0.000000
0.878571 0.325592 0.001251
0.909180 0.325592 0.001129
0.943848 0.324585 0.001770
0.969910 0.328644 0.000000
0.994568 0.329529 0.000000
0.999359 0.332825 0.000000
0.998871 0.343567 0.002289
0.996460 0.348358 0.002258
0.998596 0.351654 0.000000
0.998871 0.359497 0.002655
1.000000 0.363678 0.002777
0.005310 0.457153 0.002655
0.005066 0.457306 0.002655
0.005310 0.455902 0.002655
0.001251 0.460327 0.002655
0.000519 0.457794 0.000763
0.074860 0.454620 0.000641
0.189758 0.456268 0.000000
0.259064 0.453735 0.000000
0.324219 0.453369 0.000000
0.383148 0.448303 0.000000
0.438934 0.448181 0.000000
0.493469 0.441620 0.001251
0.544830 0.434784 0.000000
0.594421 0.427826 0.000763
0.634521 0.418732 0.001770
0.669556 0.412262 0.002533
0.708801 0.407562 0.000000
0.746765 0.398468 0.000000
0.784332 0.391876 0.001007
0.818878 0.386719 0.001129
0.845551 0.381500 0.000000
0.878693 0.380005 0.002655
0.906647 0.378876 0.000000
0.937897 0.376190 0.001251
0.972931 0.377075 0.004425
0.998474 0.378113 0.003418
0.998749 0.380127 0.000641
1.000000 0.386719 0.000000
1.000000 0.393158 0.003937
0.998474 0.399475 0.000244
0.997467 0.403534 0.001251
0.998749 0.407562 0.000000
0.003937 0.497131 0.001404
0.000000 0.498535 0.000000
0.000244 0.498779 0.001648
0.000000 0.496002 0.001404
0.000885 0.497131 0.002655
0.053375 0.496521 0.000000
0.171417 0.497894 0.002533
0.244141 0.496765 0.000000
0.316498 0.494751 0.002411
0.372650 0.490936 0.001404
0.429718 0.486755 0.000000
0.485382 0.486755 0.000000
0.543579 0.489044 0.000122
0.591125 0.477295 0.000244
0.628448 0.466766 0.000000
0.669434 0.459442 0.004059
0.711456 0.454742 0.000000
0.744873 0.443634 0.000763
0.778137 0.439697 0.000885
0.811798 0.434387 0.001007
0.840118 0.431854 0.000000
0.874664 0.426666 0.000000
0.905273 0.425415 0.000000
0.937134 0.426422 0.000000
0.965973 0.424286 0.001404
0.994812 0.427185 0.001770
0.997986 0.431122 0.003815
0.996704 0.435272 0.000000
0.997223 0.435791 0.000000
0.996063 0.442230 0.002533
0.996216 0.447174 0.000000
0.996063 0.447296 0.000000
0.000000 0.544220 0.000000
0.000244 0.539398 0.000000
0.002411 0.536102 0.001526
0.000000 0.539764 0.000366
0.003021 0.538513 0.006958
0.033112 0.538757 0.002136
0.164429 0.532166 0.002258
0.237549 0.537872 0.000000
0.309021 0.534973 0.000000
0.369629 0.535095 0.002411
0.428192 0.529388 0.000000
0.481323 0.527618 0.000000
0.533051 0.525208 0.001526
0.582520 0.523468 0.001526
0.627197 0.513458 0.000244
0.668304 0.507507 0.001892
0.702240 0.501678 0.000000
0.742340 0.495605 0.000641
0.775970 0.489166 0.000000
0.812927 0.483612 0.000885
0.841492 0.478149 0.001404
0.877289 0.474243 0.000000
0.909180 0.471466 0.001282
0.939148 0.469299 0.000000
0.969910 0.467926 0.001526
0.996979 0.471222 0.001648
0.998230 0.476013 0.000641
0.993805 0.480072 0.000000
1.000000 0.481720 0.001526
0.995697 0.484253 0.001526
0.998352 0.486145 0.005432
0.998474 0.485107 0.002411
0.003937 0.572906 0.006195
0.000000 0.576843 0.001648
0.002289 0.579102 0.001648
0.002289 0.574554 0.000000
0.002289 0.579102 0.007965
0.037170 0.576843 0.000000
0.165314 0.575958 0.003174
0.240204 0.571136 0.000000
0.306122 0.569000 0.005554
0.364319 0.569000 0.006195
0.420227 0.566711 0.000000
0.475647 0.561646 0.000000
0.522186 0.561279 0.001770
0.574554 0.559509 0.001648
0.622894 0.557098 0.000000
0.666901 0.553040 0.000000
0.708435 0.543823 0.006439
0.744110 0.538757 0.003296
0.777100 0.531403 0.001648
0.805817 0.524963 0.000000
0.839233 0.522675 0.002533
0.871094 0.516357 0.001648
0.905762 0.516876 0.000000
0.937500 0.515717 0.000000
0.966492 0.511566 0.002289
0.997742 0.512451 0.001526
0.998352 0.515747 0.001648
0.999481 0.519775 0.003296
1.000000 0.521545 0.000763
1.000000 0.521942 0.000000
1.000000 0.524078 0.002167
1.000000 0.528137 0.001648
0.000000 0.609222 0.000000
0.000000 0.616547 0.000000
0.000000 0.613007 0.000000
0.004700 0.613770 0.002167
0.000000 0.613892 0.005585
0.055481 0.610352 0.000641
0.176849 0.605682 0.004303
0.244141 0.607056 0.000000
0.308289 0.608093 0.001007
0.362671 0.606445 0.001129
0.421600 0.600739 0.002777
0.474609 0.600006 0.002167
0.519135 0.600983 0.000000
0.570770 0.593292 0.000122
0.614532 0.589233 0.000000
0.656921 0.589355 0.001892
0.704376 0.587463 0.000000
0.740173 0.577454 0.001770
0.776093 0.572906 0.003540
0.811401 0.567841 0.004181
0.839966 0.559998 0.003143
0.869446 0.557861 0.001251
0.903107 0.556091 0.000000
0.933075 0.553925 0.000000
0.963837 0.553925 0.002167
0.997742 0.553925 0.002533
0.998474 0.555450 0.001770
0.997833 0.559631 0.001770
0.997833 0.557861 0.000000
0.997833 0.557861 0.000000
0.999878 0.559875 0.000000
1.000000 0.561768 0.001770
0.002014 0.643005 0.001892
0.001770 0.648560 0.001770
0.002014 0.646790 0.000000
0.000000 0.644775 0.000000
0.004547 0.650330 0.002014
0.080933 0.644897 0.003143
0.188721 0.642120 0.004303
0.252594 0.635162 0.000000
0.315979 0.637939 0.002014
0.365570 0.638184 0.002014
0.421234 0.632996 0.001251
0.472473 0.634155 0.000519
0.519287 0.635040 0.000000
0.568726 0.631104 0.000000
0.612762 0.625427 0.002167
0.656677 0.623260 0.001892
0.698456 0.625031 0.000122
0.737762 0.619080 0.000000
0.773193 0.612762 0.001648
0.807220 0.607056 0.000000
0.837585 0.601624 0.001404
0.873383 0.597717 0.002014
0.901337 0.597717 0.000885
0.937134 0.594788 0.002014
0.958252 0.591888 0.000000
0.993805 0.592651 0.001892
0.998108 0.595825 0.000000
0.998108 0.595825 0.000000
1.000000 0.589996 0.003937
1.000000 0.589996 0.003937
1.000000 0.591888 0.002014
1.000000 0.591888 0.002014
0.001892 0.674774 0.001892
0.005676 0.670990 0.001892
0.000000 0.678589 0.002411
0.004303 0.674774 0.005951
0.010620 0.676178 0.004791
0.127777 0.676178 0.000000
0.204559 0.673492 0.005310
0.266144 0.673157 0.001129
0.324860 0.668823 0.000000
0.371643 0.670715 0.000000
0.429199 0.668823 0.000000
0.475006 0.666199 0.000000
0.518402 0.663025 0.000000
0.566833 0.661133 0.000000
0.606934 0.663147 0.000275
0.652618 0.659088 0.005676
0.694122 0.655182 0.001892
0.736115 0.652893 0.000000
0.773834 0.649597 0.000000
0.807098 0.647339 0.000000
0.837585 0.643402 0.002014
0.870087 0.636810 0.000000
0.907166 0.639496 0.000763
0.933228 0.634674 0.000000
0.965088 0.633667 0.000000
0.994690 0.631653 0.001129
0.998108 0.629761 0.001892
0.998596 0.631134 0.000000
0.998108 0.633148 0.000000
1.000000 0.633911 0.003296
0.998108 0.631500 0.000122
0.998108 0.635437 0.000000
0.001770 0.702728 0.000000
0.004181 0.706390 0.002014
0.003540 0.708801 0.003540
0.010498 0.704132 0.000000
0.084900 0.706146 0.002655
0.168762 0.702728 0.003937
0.221008 0.706665 0.000000
0.285492 0.703125 0.000000
0.334076 0.700592 0.000000
0.381409 0.702362 0.000000
0.430725 0.701843 0.000000
0.475769 0.699585 0.003143
0.522430 0.693115 0.001526
0.566193 0.694366 0.000000
0.612366 0.690979 0.000000
0.647186 0.691101 0.000275
0.692505 0.686798 0.000000
0.730194 0.688812 0.000000
0.769531 0.684906 0.000122
0.809631 0.685272 0.003662
0.837189 0.677429 0.000000
0.872864 0.673523 0.002167
0.903107 0.675293 0.000641
0.936737 0.670593 0.000763
0.962067 0.670471 0.000885
0.993042 0.667450 0.000000
1.000000 0.670227 0.003296
0.997345 0.669098 0.001251
0.999634 0.666687 0.002167
0.999756 0.666809 0.002167
0.997833 0.663910 0.000000
1.000000 0.666046 0.002167
0.003937 0.730042 0.001648
0.002289 0.730804 0.002167
0.011139 0.734863 0.001648
0.075806 0.736145 0.000000
0.147400 0.732971 0.001770
0.195587 0.733337 0.000000
0.248962 0.736267 0.000000
0.301453 0.730682 0.000000
0.345215 0.729034 0.000000
0.394562 0.730682 0.000000
0.445160 0.727417 0.001251
0.486755 0.726776 0.000000
0.525208 0.726013 0.003296
0.569000 0.725769 0.001648
0.616180 0.724487 0.002289
0.654877 0.722473 0.000000
0.688446 0.722839 0.000000
0.728424 0.716766 0.000000
0.765991 0.718933 0.003937
0.801910 0.717285 0.000122
0.834412 0.712738 0.001892
0.868835 0.708801 0.002014
0.902466 0.711090 0.001129
0.932312 0.705505 0.001007
0.961182 0.705505 0.000000
0.990753 0.703247 0.000000
0.998352 0.700958 0.000000
0.998352 0.703247 0.000000
1.000000 0.697021 0.003937
1.000000 0.695648 0.002533
1.000000 0.697662 0.002289
1.000000 0.699310 0.000000
0.007233 0.758636 0.000000
0.051270 0.761047 0.000122
0.107697 0.764069 0.005188
0.153198 0.766479 0.003021
0.195831 0.759155 0.001892
0.232117 0.763184 0.001526
0.277802 0.760925 0.000000
0.322083 0.762573 0.000000
0.366730 0.762573 0.000000
0.406586 0.761292 0.000000
0.450348 0.761292 0.000000
0.490173 0.759674 0.000000
0.530914 0.758636 0.002411
0.576202 0.756226 0.003937
0.616028 0.752960 0.000000
0.659454 0.750946 0.002411
0.688049 0.750793 0.000000
0.726013 0.746887 0.002167
0.763580 0.744598 0.002289
0.801788 0.742950 0.000000
0.835175 0.742950 0.000000
0.863647 0.740295 0.002411
0.896515 0.739044 0.000000
0.932312 0.738159 0.000000
0.960297 0.734222 0.000000
0.991394 0.732697 0.000763
0.999359 0.732971 0.004181
0.999481 0.732208 0.003418
1.000000 0.727661 0.000366
1.000000 0.727264 0.000000
0.999878 0.727142 0.000000
1.000000 0.727264 0.000000
0.112732 0.791901 0.005310
0.144501 0.791656 0.002411
0.167267 0.796722 0.000000
0.204712 0.794434 0.000000
0.241028 0.790527 0.002533
0.263885 0.791290 0.000641
0.310181 0.791656 0.000000
0.344208 0.794434 0.000885
0.390503 0.790527 0.000000
0.428070 0.790527 0.001404
0.468933 0.789246 0.000000
0.504730 0.786591 0.001129
0.540924 0.787628 0.000000
0.586304 0.784332 0.000000
0.625671 0.787354 0.000000
0.667542 0.786591 0.000641
0.698303 0.783569 0.005432
0.734497 0.780151 0.000366
0.769897 0.784058 0.000000
0.805695 0.780151 0.000000
0.842896 0.780151 0.002533
0.878448 0.778748 0.002533
0.907806 0.778748 0.002533
0.935242 0.769775 0.000000
0.965088 0.772308 0.000000
0.993164 0.772308 0.000000
0.998596 0.773438 0.002533
0.996582 0.770416 0.000000
1.000000 0.772430 0.003662
1.000000 0.766998 0.000000
1.000000 0.761932 0.000000
1.000000 0.764465 0.000000
0.183197 0.826324 0.002655
0.208496 0.821014 0.000000
0.223785 0.821136 0.000000
0.250336 0.824677 0.002899
0.275665 0.822388 0.005188
0.297394 0.825073 0.000000
0.334839 0.819122 0.000000
0.371552 0.822784 0.000000
0.407715 0.823029 0.000000
0.442505 0.818481 0.000000
0.482208 0.818481 0.001251
0.519409 0.813171 0.001282
0.555206 0.819366 0.001129
0.592285 0.814789 0.001648
0.629333 0.814056 0.001770
0.667542 0.812653 0.002014
0.704895 0.809875 0.002533
0.739288 0.810638 0.000519
0.774200 0.812927 0.000000
0.813049 0.813049 0.002411
0.841492 0.810638 0.002533
0.876038 0.812042 0.000000
0.905121 0.809387 0.000000
0.933472 0.805695 0.000000
0.964722 0.805817 0.000366
0.993805 0.808624 0.003418
1.000000 0.806702 0.003937
1.000000 0.802795 0.000000
0.994690 0.799377 0.000366
1.000000 0.797485 0.000000
1.000000 0.789642 0.001251
0.998749 0.790894 0.000000
0.235809 0.850342 0.000000
0.249359 0.851624 0.002899
0.264008 0.854034 0.006195
0.285645 0.854279 0.004822
0.306763 0.852142 0.000000
0.327911 0.851501 0.002258
0.357239 0.849609 0.003174
0.395569 0.849213 0.002014
0.424164 0.847565 0.000000
0.457184 0.847565 0.000000
0.496887 0.848694 0.000000
0.530426 0.848969 0.001404
0.563446 0.849213 0.001282
0.599243 0.847565 0.000000
0.637939 0.846313 0.000000
0.671967 0.848328 0.000000
0.708557 0.841370 0.003540
0.746490 0.841492 0.000000
0.780029 0.842010 0.002777
0.813934 0.841003 0.000000
0.842896 0.839478 0.002533
0.877289 0.835815 0.000000
0.910828 0.838593 0.002777
0.937012 0.837708 0.002777
0.967621 0.839478 0.000000
0.994171 0.838593 0.000366
0.997223 0.837463 0.006714
1.000000 0.834656 0.006714
1.000000 0.825165 0.000000
0.996338 0.821503 0.000000
1.000000 0.817322 0.000000
1.000000 0.817322 0.001129
0.262756 0.878326 0.000000
0.289307 0.879333 0.002899
0.301849 0.882233 0.000000
0.314850 0.881866 0.002899
0.335754 0.876923 0.000000
0.352448 0.880341 0.001007
0.380768 0.875153 0.000763
0.413269 0.877289 0.003784
0.440338 0.881226 0.003937
0.472107 0.875397 0.002899
0.508911 0.874146 0.001251
0.541656 0.876404 0.001007
0.572174 0.879211 0.000000
0.608215 0.873108 0.000000
0.643372 0.874390 0.001007
0.678162 0.872498 0.000000
0.716919 0.871490 0.000885
0.746887 0.868561 0.002777
0.780670 0.866302 0.000000
0.808228 0.867554 0.000000
0.843140 0.868195 0.000000
0.875397 0.867554 0.000000
0.905273 0.868683 0.002777
0.935242 0.863647 0.000000
0.962311 0.859833 0.000000
0.995056 0.867065 0.000000
0.996338 0.860992 0.000641
0.995575 0.860229 0.000000
0.997101 0.852875 0.000641
1.000000 0.848450 0.000244
0.998993 0.844025 0.003784
1.000000 0.845032 0.004944
0.314117 0.909302 0.000000
0.332977 0.916260 0.003937
0.337891 0.916901 0.004547
0.357513 0.914490 0.000885
0.375854 0.913605 0.004303
0.392670 0.914734 0.000000
0.415436 0.913239 0.004669
0.438843 0.914124 0.010010
0.467926 0.913116 0.001770
0.496887 0.914124 0.000000
0.532318 0.914124 0.001770
0.559875 0.915771 0.000000
0.599487 0.915009 0.000000
0.634766 0.914124 0.001648
0.663239 0.915009 0.000000
0.696014 0.912231 0.001892
0.731842 0.911072 0.000000
0.766357 0.911957 0.002167
0.797363 0.911072 0.000000
0.831390 0.911713 0.002411
0.862000 0.911072 0.002533
0.893860 0.910187 0.000000
0.917908 0.910187 0.000000
0.949799 0.910187 0.000000
0.977753 0.906281 0.000885
1.000000 0.903229 0.000885
1.000000 0.902985 0.000885
0.996948 0.899689 0.000885
0.998749 0.894897 0.000000
0.999115 0.891479 0.000641
1.000000 0.883636 0.000000
1.000000 0.883636 0.006073
0.352325 0.938904 0.000000
0.359528 0.942841 0.000000
0.372681 0.942841 0.000000
0.375336 0.942444 0.000000
0.393799 0.939667 0.000000
0.410858 0.943970 0.000000
0.436188 0.934967 0.000763
0.455170 0.942078 0.000000
0.481964 0.941071 0.002167
0.510559 0.937012 0.002014
0.540802 0.939667 0.000000
0.572662 0.939667 0.000000
0.602905 0.941315 0.000763
0.639587 0.941315 0.001526
0.671967 0.940308 0.000000
0.704346 0.939667 0.000000
0.727417 0.942078 0.000000
0.765472 0.940674 0.000000
0.799774 0.935730 0.000000
0.832397 0.934967 0.000000
0.857941 0.935730 0.000000
0.891724 0.938385 0.000000
0.913483 0.935364 0.000763
0.942841 0.931824 0.000763
0.974701 0.931824 0.000000
0.996826 0.934235 0.000000
1.000000 0.930420 0.000000
1.000000 0.930817 0.000763
1.000000 0.923218 0.000000
0.996063 0.916138 0.000000
0.996063 0.908295 0.003174
0.998474 0.910706 0.006317
0.372040 0.958893 0.003937
0.366486 0.966736 0.000000
0.389618 0.964691 0.000000
0.395203 0.966370 0.000641
0.410614 0.965607 0.000000
0.419464 0.963440 0.000641
0.446564 0.959534 0.000000
0.472870 0.959534 0.002411
0.494629 0.959534 0.001892
0.521057 0.963959 0.000641
0.550903 0.962799 0.000000
0.580139 0.966736 0.001892
0.613525 0.965210 0.003540
0.642487 0.963440 0.001648
0.670197 0.963440 0.000000
0.697784 0.963440 0.000000
0.737518 0.963440 0.000000
0.767242 0.959534 0.000641
0.793427 0.963440 0.000641
0.821381 0.959778 0.000000
0.857819 0.960663 0.002533
0.883118 0.956238 0.000000
0.913727 0.955597 0.000000
0.942444 0.958252 0.000000
0.964203 0.954956 0.000000
0.991150 0.958130 0.000641
0.999359 0.958893 0.000000
0.999481 0.955353 0.000000
0.999756 0.950806 0.000366
0.999634 0.939545 0.000000
1.000000 0.932068 0.000000
1.000000 0.930817 0.000641
0.389130 0.987213 0.003418
0.388367 0.986847 0.000000
0.398987 0.989624 0.000000
0.411133 0.986328 0.000519
0.413269 0.982788 0.000000
0.441742 0.976593 0.000000
0.456177 0.978638 0.003174
0.478302 0.983673 0.004791
0.501587 0.986206 0.005829
0.530670 0.984436 0.001129
0.561920 0.982788 0.000000
0.585938 0.980774 0.000000
0.617706 0.985718 0.000000
0.642365 0.983307 0.000000
0.668549 0.983307 0.000000
