mpv/luts/Presetpro - Moody Blue.cube
#Created by: Adobe Photoshop Export Color Lookup Plugin
#Copyright: (C) Copyright 2022 Tim Martin and Presetpro.com
TITLE "Presetpro - Moody Blue"
#LUT size
LUT_3D_SIZE 8
#data domain
#LUT data points
DOMAIN_MIN 0.000000 0.000000 0.000000
DOMAIN_MAX 0.903226 0.903226 0.903226
0.000000 0.000000 0.000000
0.036804 0.004425 0.000000
0.121674 0.026428 0.004944
0.261597 0.025940 0.007843
0.406219 0.025543 0.002014
0.539551 0.050995 0.000000
0.682739 0.085388 0.000000
0.845154 0.117279 0.000000
0.000000 0.072601 0.015686
0.020111 0.076538 0.008850
0.156464 0.088287 0.006836
0.287415 0.095642 0.007324
0.416595 0.111328 0.003418
0.545990 0.127502 0.002014
0.686279 0.150146 0.005310
0.846039 0.181519 0.008209
0.001007 0.207062 0.024536
0.003418 0.212402 0.021118
0.137360 0.229584 0.007965
0.317993 0.250580 0.001007
0.442535 0.239319 0.001892
0.568512 0.249725 0.001526
0.706268 0.269836 0.000000
0.861847 0.286011 0.001007
0.003937 0.387970 0.028961
0.000000 0.389496 0.029358
0.001007 0.394287 0.027954
0.274231 0.420868 0.000000
0.494385 0.453613 0.001892
0.615570 0.423767 0.001007
0.740051 0.403656 0.003296
0.883881 0.417450 0.003540
0.000000 0.559143 0.072754
0.003540 0.556122 0.075287
0.000000 0.559296 0.086273
0.120087 0.569031 0.073883
0.418121 0.596344 0.049347
0.670837 0.631653 0.000519
0.796478 0.595459 0.001007
0.918152 0.572937 0.000000
0.000000 0.705627 0.184082
0.000000 0.704254 0.181305
0.003418 0.708679 0.185455
0.003021 0.699951 0.198364
0.333862 0.717407 0.195099
0.590515 0.736755 0.205963
0.812012 0.765472 0.207855
0.941040 0.751312 0.189911
0.000885 0.834808 0.324982
0.000885 0.835297 0.327271
0.005951 0.833801 0.337891
0.006317 0.834167 0.335236
0.280121 0.834656 0.345612
0.547638 0.851379 0.362427
0.734589 0.855286 0.379883
0.908539 0.880219 0.407104
0.000000 0.947510 0.507538
0.000366 0.947876 0.504883
0.002533 0.950043 0.512848
0.185944 0.949280 0.521179
0.397369 0.947510 0.535492
0.566620 0.948883 0.553589
0.725128 0.952301 0.569763
0.850220 0.956116 0.589874
0.003418 0.000000 0.063751
0.028473 0.003418 0.059845
0.127014 0.014160 0.070587
0.269806 0.000000 0.069183
0.415955 0.001526 0.075012
0.549286 0.021118 0.062744
0.685394 0.055542 0.052612
0.849091 0.097168 0.025665
0.003418 0.064270 0.076538
0.030853 0.072113 0.080444
0.145844 0.082855 0.084381
0.287018 0.083862 0.080444
0.422394 0.101074 0.071594
0.551819 0.114746 0.062225
0.695892 0.138275 0.046051
0.849579 0.165833 0.013794
0.000519 0.208984 0.115753
0.000519 0.213409 0.100555
0.141815 0.224670 0.094727
0.318390 0.238312 0.080444
0.449219 0.234039 0.072479
0.572418 0.243256 0.055420
0.713226 0.255157 0.025055
0.862244 0.278564 0.006195
0.001526 0.388977 0.114868
0.000000 0.391388 0.123077
0.001526 0.393402 0.118774
0.282593 0.419342 0.102570
0.492981 0.442993 0.074615
0.609222 0.414398 0.030090
0.740540 0.404175 0.005554
0.884766 0.411499 0.001404
0.001526 0.559662 0.157501
0.002014 0.561066 0.150665
0.001007 0.559662 0.161774
0.132874 0.572296 0.165466
0.422272 0.594330 0.157501
0.674042 0.624817 0.133209
0.796082 0.594086 0.091980
0.914246 0.567017 0.023682
0.001404 0.704742 0.241364
0.003937 0.702209 0.241364
0.002014 0.701324 0.242889
0.008728 0.699463 0.255676
0.344482 0.716522 0.252747
0.595978 0.734741 0.264648
0.819733 0.767487 0.273499
0.940918 0.746887 0.250610
0.000000 0.835175 0.361176
0.002655 0.831757 0.364960
0.001770 0.835938 0.364197
0.003021 0.835541 0.372559
0.299072 0.836334 0.384460
0.551056 0.846954 0.397858
0.742065 0.854401 0.420380
0.910950 0.876801 0.446808
0.003418 0.947754 0.528412
0.003418 0.947510 0.534607
0.001404 0.946503 0.535614
0.218964 0.945984 0.542053
0.412811 0.947388 0.551178
0.575592 0.951813 0.573456
0.724609 0.952698 0.584808
0.853271 0.956604 0.607086
0.000000 0.003937 0.161926
0.006836 0.000000 0.157990
0.133453 0.000000 0.169647
0.269806 0.002411 0.167358
0.411163 0.001007 0.169769
0.554840 0.002533 0.167877
0.691589 0.000885 0.174683
0.844543 0.014435 0.167358
0.001007 0.059845 0.184418
0.000519 0.056915 0.188354
0.160889 0.060333 0.185944
0.290436 0.074005 0.192657
0.435547 0.050598 0.182037
0.559784 0.081482 0.183167
0.700958 0.102081 0.175079
0.860840 0.123199 0.171539
0.000000 0.198212 0.213898
0.000519 0.204559 0.222137
0.174683 0.219727 0.221741
0.324585 0.213409 0.219208
0.454285 0.218842 0.202148
0.585083 0.227570 0.194794
0.718903 0.242371 0.181641
0.867157 0.259308 0.171387
0.003418 0.385071 0.255524
0.005310 0.388458 0.257935
0.035400 0.392395 0.248688
0.303101 0.410980 0.243866
0.487061 0.421234 0.230072
0.604828 0.391510 0.199249
0.746490 0.392517 0.190369
0.882355 0.400604 0.178741
0.000000 0.558136 0.315857
0.003052 0.560028 0.310059
0.003784 0.562073 0.284637
0.171753 0.562561 0.288940
0.437592 0.586609 0.292480
0.668579 0.616455 0.287537
0.794586 0.574860 0.249329
0.910706 0.552338 0.210754
0.003937 0.703857 0.358612
0.001404 0.704742 0.347382
0.002014 0.703369 0.347870
0.002533 0.701324 0.349915
0.369904 0.711700 0.359131
0.607727 0.731323 0.370667
0.828339 0.768524 0.389374
0.938507 0.736633 0.351440
0.001007 0.834808 0.437683
0.001007 0.835693 0.435669
0.002777 0.834808 0.444397
0.002655 0.836456 0.448456
0.329193 0.829865 0.448578
0.563568 0.842010 0.471100
0.751312 0.854401 0.488556
0.919678 0.879333 0.511963
0.002533 0.946228 0.569122
0.003937 0.946503 0.575592
0.008606 0.946503 0.575592
0.275146 0.944733 0.581665
0.435059 0.946503 0.590118
0.583313 0.946869 0.602905
0.732574 0.951416 0.626312
0.856689 0.956726 0.640350
0.002411 0.000000 0.304108
0.002899 0.000000 0.311951
0.142303 0.003418 0.316376
0.293854 0.000000 0.317383
0.424805 0.000519 0.308014
0.561554 0.002533 0.313446
0.704742 0.003937 0.305603
0.859589 0.000000 0.293335
0.001007 0.032898 0.323334
0.000000 0.031891 0.329529
0.151550 0.010742 0.342438
0.310028 0.000000 0.332672
0.429352 0.040619 0.316345
0.572937 0.051086 0.321808
0.717010 0.013397 0.315979
0.861603 0.006470 0.303589
0.001526 0.200104 0.351288
0.000519 0.199097 0.352295
0.126007 0.185944 0.365967
0.322815 0.191895 0.366058
0.452271 0.224152 0.355591
0.587219 0.220734 0.344330
0.724609 0.216827 0.332062
0.873260 0.231506 0.322693
0.001526 0.372284 0.393402
0.000000 0.374817 0.393402
0.050476 0.385071 0.402771
0.326752 0.401245 0.419952
0.478699 0.393402 0.402130
0.613159 0.386810 0.373657
0.752441 0.381653 0.358734
0.886139 0.381653 0.344330
0.002014 0.553223 0.435669
0.003021 0.556641 0.445404
0.000000 0.561554 0.449219
0.249146 0.568909 0.446411
0.462494 0.582703 0.452362
0.657837 0.581696 0.434662
0.778870 0.547272 0.385956
0.905273 0.539917 0.365967
0.002411 0.699829 0.497284
0.003418 0.701843 0.500824
0.002411 0.704895 0.508148
0.144012 0.708160 0.483093
0.398376 0.707153 0.489929
0.626312 0.730194 0.510437
0.824829 0.755737 0.516632
0.934082 0.719940 0.463776
0.002411 0.830231 0.569885
0.002777 0.830231 0.571655
0.001404 0.828857 0.549530
0.128113 0.831757 0.542816
0.383942 0.831757 0.546997
0.582947 0.841003 0.560791
0.762054 0.852264 0.580780
0.930695 0.882599 0.607849
0.048004 0.942444 0.648956
0.064697 0.944977 0.646179
0.163055 0.945862 0.636292
0.334198 0.942444 0.644653
0.474792 0.945099 0.651978
0.607971 0.943451 0.655273
0.744598 0.949402 0.671844
0.867432 0.950287 0.697662
0.000000 0.000000 0.467072
0.000000 0.002014 0.476807
0.063568 0.000000 0.480865
0.298767 0.000519 0.496796
0.441498 0.001892 0.486664
0.569885 0.002014 0.470856
0.714111 0.000885 0.464142
0.875031 0.003937 0.465546
0.002899 0.002411 0.489441
0.001526 0.000000 0.490082
0.064728 0.000000 0.500336
0.295502 0.000519 0.509827
0.455444 0.000000 0.508301
0.581421 0.001892 0.478821
0.725494 0.059967 0.477173
0.872345 0.022003 0.471497
0.002014 0.158875 0.515137
0.000000 0.143677 0.516022
0.001007 0.147980 0.523865
0.305847 0.146729 0.534119
0.472015 0.165833 0.526917
0.596832 0.212524 0.504639
0.730042 0.238434 0.493500
0.883728 0.220886 0.486176
0.000000 0.360016 0.531586
0.004913 0.362030 0.532837
0.001007 0.364563 0.548279
0.276642 0.363922 0.562561
0.489441 0.385437 0.571289
0.612671 0.407074 0.540558
0.756226 0.385071 0.525757
0.887299 0.364960 0.498047
0.002014 0.539429 0.574860
0.005829 0.541565 0.573090
0.003021 0.549286 0.587494
0.261719 0.557648 0.592560
0.502350 0.570923 0.610138
0.641998 0.556641 0.585358
0.774841 0.537537 0.548401
0.900818 0.522736 0.521973
0.001404 0.701355 0.609619
0.002899 0.697052 0.607239
0.004791 0.701843 0.607849
0.260681 0.706146 0.617981
0.464661 0.713623 0.619995
0.652374 0.721466 0.634674
0.819611 0.721954 0.617981
0.922974 0.681213 0.560669
0.000000 0.824921 0.643524
0.000000 0.828857 0.646576
0.000885 0.823914 0.656067
0.326355 0.829865 0.662994
0.455566 0.827850 0.650360
0.609131 0.831757 0.653259
0.778870 0.846436 0.679718
0.937012 0.877441 0.691467
0.003937 0.944489 0.714233
0.143677 0.939026 0.711212
0.333923 0.938538 0.719299
0.432922 0.941559 0.723480
0.512085 0.940033 0.716644
0.628082 0.943451 0.723358
0.753845 0.945984 0.729431
0.878937 0.953308 0.758636
0.002533 0.000000 0.637573
0.002014 0.000519 0.634796
0.000000 0.000000 0.640106
0.265381 0.001404 0.662262
0.459229 0.003418 0.672882
0.612671 0.003937 0.661102
0.748535 0.000519 0.633667
0.884125 0.000366 0.622650
0.003418 0.000000 0.646820
0.000000 0.000000 0.650482
0.004791 0.000000 0.657318
0.259430 0.000000 0.661102
0.460236 0.001892 0.679199
0.625580 0.000000 0.661865
0.753204 0.002533 0.636566
0.885376 0.036011 0.632660
0.001526 0.096649 0.663635
0.000519 0.095123 0.662109
0.004181 0.084991 0.669312
0.240967 0.072968 0.678436
0.469330 0.064606 0.696411
0.638580 0.083954 0.682007
0.761566 0.172638 0.655304
0.891449 0.259827 0.637451
0.000000 0.340912 0.675049
0.000000 0.344055 0.683105
0.001526 0.314331 0.690216
0.207031 0.316376 0.705383
0.463531 0.337860 0.712097
0.649353 0.357086 0.705627
0.773956 0.384430 0.671997
0.896393 0.402649 0.660980
0.005310 0.522705 0.692993
0.008209 0.523346 0.700348
0.002014 0.527649 0.696167
0.184357 0.536499 0.700684
0.452759 0.534607 0.721954
0.669830 0.550812 0.730957
0.779755 0.556122 0.701233
0.901215 0.534363 0.677307
0.000000 0.687164 0.718536
0.006836 0.683258 0.720825
0.006195 0.687164 0.731567
0.205780 0.695374 0.736237
0.487183 0.703735 0.746246
0.692474 0.716003 0.763062
0.800385 0.689941 0.732330
0.912201 0.666565 0.695770
0.003540 0.823914 0.741943
0.002014 0.824280 0.740936
0.004028 0.825287 0.740936
0.277252 0.827332 0.746735
0.510345 0.826202 0.759644
0.662628 0.834290 0.765106
0.802155 0.844025 0.775848
0.935608 0.847809 0.763947
0.000366 0.941437 0.770416
0.000000 0.938904 0.777740
0.206299 0.942444 0.778015
0.410980 0.937012 0.781525
0.576477 0.938019 0.797363
0.670715 0.939667 0.798615
0.774963 0.939148 0.800659
0.893372 0.948273 0.816071
0.003937 0.000000 0.789520
0.005585 0.002533 0.792175
0.001007 0.000000 0.792664
0.125793 0.000885 0.802551
0.430634 0.000000 0.804321
0.643646 0.003418 0.823425
0.799500 0.000000 0.804321
0.915253 0.003052 0.777222
0.000885 0.000000 0.796478
0.000519 0.000885 0.791412
0.000885 0.000519 0.799744
0.194885 0.001526 0.805695
0.445190 0.000000 0.824432
0.646942 0.000000 0.826965
0.803558 0.002533 0.810394
0.917023 0.002533 0.777222
0.000000 0.003021 0.804321
0.000000 0.001007 0.805328
0.000885 0.000000 0.813904
0.170227 0.000885 0.813293
0.434692 0.000000 0.827698
0.656799 0.001526 0.832642
0.812286 0.001007 0.816956
0.921326 0.062683 0.785095
0.005432 0.252472 0.822144
0.000885 0.237427 0.812775
0.000000 0.239044 0.819366
0.055450 0.242218 0.823914
0.424072 0.256897 0.830353
0.657715 0.278900 0.840607
0.821503 0.301910 0.823029
0.919922 0.351135 0.796326
0.000000 0.507172 0.810120
0.000000 0.505127 0.817963
0.003937 0.500336 0.810242
0.006195 0.474945 0.833008
0.392303 0.475677 0.831757
0.650757 0.499695 0.842377
0.823029 0.514008 0.841644
0.919037 0.536499 0.801910
0.002533 0.667572 0.821381
0.003937 0.666412 0.827850
0.001404 0.670471 0.836182
0.004059 0.668945 0.829254
0.419891 0.671478 0.832764
0.653900 0.673248 0.853149
0.822144 0.693115 0.850861
0.913605 0.691864 0.820892
0.000000 0.812164 0.842651
0.000000 0.812653 0.841644
0.004059 0.813293 0.839478
0.211609 0.812408 0.854156
0.489838 0.817841 0.853149
0.677185 0.825317 0.858459
0.839600 0.839600 0.872742
0.921204 0.812164 0.847321
0.003418 0.939148 0.854919
0.000366 0.936127 0.851868
0.025757 0.936615 0.850861
0.353027 0.939270 0.852234
0.538422 0.937012 0.858063
0.698547 0.937012 0.866302
0.812164 0.935608 0.876282
0.916260 0.940552 0.884125
0.000000 0.000000 0.923981
0.000000 0.000000 0.916901
0.000000 0.000366 0.924347
0.000000 0.002014 0.926239
0.351593 0.000366 0.929169
0.614563 0.000000 0.938660
0.822144 0.003052 0.946381
0.974945 0.003540 0.936493
0.000000 0.003052 0.924744
0.000000 0.000000 0.923981
0.000763 0.000000 0.919281
0.000000 0.002014 0.936646
0.370178 0.000000 0.934357
0.622406 0.000000 0.946259
0.834930 0.000519 0.948517
0.975830 0.003418 0.936127
0.000000 0.000000 0.926758
0.000000 0.000366 0.931427
0.000000 0.000366 0.936890
0.024750 0.000519 0.926758
0.404846 0.000000 0.939667
0.632782 0.001526 0.945099
0.832642 0.002411 0.948273
0.977112 0.001404 0.935730
0.002014 0.123810 0.941681
0.002014 0.118256 0.939667
0.001007 0.108887 0.935974
0.006317 0.096344 0.939392
0.373840 0.073669 0.941162
0.622406 0.049377 0.946228
0.830750 0.067596 0.948883
0.976105 0.166168 0.938538
0.003540 0.460999 0.930176
0.005432 0.443298 0.936005
0.001007 0.401947 0.938141
0.000000 0.364868 0.938263
0.305023 0.382568 0.940796
0.600525 0.396606 0.946106
0.821014 0.429504 0.943939
0.967102 0.456573 0.935608
0.005066 0.652893 0.930817
0.002533 0.650726 0.922821
0.003052 0.647430 0.929047
0.003021 0.643768 0.932068
0.334412 0.620392 0.938507
0.586853 0.606476 0.937897
0.811127 0.641388 0.944977
0.948639 0.657196 0.937012
0.000366 0.793304 0.932190
0.000366 0.796844 0.929169
0.004059 0.795959 0.926239
0.001404 0.794434 0.931946
0.397125 0.792023 0.933960
0.622925 0.791901 0.935486
0.800385 0.798126 0.943970
0.943573 0.819489 0.943573
0.003937 0.931824 0.940430
0.003937 0.928284 0.943970
0.003937 0.926270 0.942963
0.287903 0.929932 0.939514
0.505890 0.924225 0.941559
0.672241 0.926880 0.946869
0.820007 0.931305 0.946503
0.944336 0.940430 0.960022
