mpv/luts/Presetpro - Moody Blue.cube
#Created by: Adobe Photoshop Export Color Lookup Plugin
#Copyright: (C) Copyright 2022 Tim Martin and Presetpro.com
TITLE "Presetpro - Moody Blue"
#LUT size
LUT_3D_SIZE 5
#data domain
#LUT data points
DOMAIN_MIN 0.000000 0.000000 0.000000
DOMAIN_MAX 0.903226 0.903226 0.903226
0.000000 0.000000 0.000000
0.100677 0.022644 0.006073
0.336853 0.023529 0.007843
0.571411 0.060211 0.000000
0.845154 0.117279 0.000000
0.000000 0.170013 0.020477
0.100677 0.185699 0.018738
0.367859 0.198730 0.005188
0.602783 0.219727 0.000885
0.859467 0.253754 0.000000
0.003937 0.479431 0.048828
0.003937 0.479431 0.048828
0.340027 0.512939 0.004303
0.676025 0.519531 0.000000
0.892975 0.486877 0.001770
0.002655 0.738800 0.215820
0.004425 0.734344 0.223785
0.092102 0.740051 0.231628
0.632904 0.774078 0.245789
0.948761 0.794952 0.259613
0.000000 0.947510 0.507538
0.000885 0.948761 0.509552
0.309540 0.947510 0.523590
0.611664 0.950531 0.554199
0.850220 0.956116 0.589874
0.000000 0.003052 0.129028
0.099792 0.000885 0.136871
0.348236 0.000000 0.142548
0.589752 0.001770 0.148651
0.846802 0.040985 0.129913
0.003052 0.161285 0.173035
0.134705 0.173920 0.181763
0.386963 0.177856 0.169128
0.613281 0.199249 0.151672
0.865540 0.230103 0.133331
0.000000 0.477264 0.258423
0.002655 0.480316 0.229706
0.353546 0.508636 0.229706
0.669586 0.500793 0.182770
0.895630 0.475891 0.150391
0.000000 0.740051 0.338257
0.000000 0.735626 0.337372
0.174896 0.734863 0.353577
0.644653 0.767883 0.367126
0.940918 0.789246 0.374084
0.001648 0.945618 0.557617
0.001251 0.944855 0.561554
0.348755 0.946625 0.579376
0.621643 0.947876 0.597351
0.860352 0.958771 0.633514
0.001770 0.000000 0.394928
0.042755 0.000000 0.393646
0.369629 0.000000 0.403137
0.594452 0.000000 0.384796
0.865143 0.001770 0.383545
0.002167 0.131165 0.431488
0.003937 0.117645 0.435028
0.392273 0.127747 0.441986
0.621124 0.192657 0.415802
0.874908 0.165192 0.394928
0.003937 0.461578 0.492950
0.000885 0.467651 0.488159
0.410980 0.489410 0.516876
0.661591 0.466766 0.477631
0.896149 0.454132 0.435547
0.001251 0.731842 0.560547
0.004791 0.734375 0.570526
0.326080 0.741821 0.561401
0.671234 0.758789 0.581909
0.929535 0.755737 0.543579
0.216003 0.941803 0.690460
0.294861 0.941803 0.689026
0.430481 0.943970 0.680450
0.644653 0.940918 0.688690
0.877289 0.955719 0.728912
0.000000 0.000000 0.677307
0.000000 0.001770 0.682861
0.356079 0.001251 0.698181
0.659088 0.000000 0.695648
0.894012 0.000885 0.663025
0.000000 0.021729 0.693878
0.001770 0.002655 0.704376
0.353058 0.000000 0.719940
0.680847 0.000885 0.713470
0.898285 0.179108 0.676422
0.000885 0.433258 0.719177
0.000000 0.433258 0.725250
0.317352 0.414398 0.744446
0.701843 0.448944 0.743958
0.904724 0.481201 0.705505
0.003937 0.720428 0.758392
0.004791 0.719543 0.758392
0.365326 0.726135 0.766632
0.738800 0.754486 0.797607
0.913086 0.701721 0.734741
0.002655 0.942688 0.793701
0.094330 0.940552 0.797729
0.478180 0.937897 0.802795
0.706543 0.937012 0.808868
0.896790 0.946991 0.829346
0.000000 0.000000 0.923981
0.000763 0.000000 0.924347
0.145782 0.003540 0.932190
0.671234 0.000000 0.937378
0.974945 0.003540 0.936493
0.000000 0.000366 0.931427
0.000000 0.000000 0.930054
0.250946 0.002655 0.936981
0.683502 0.000885 0.936859
0.977997 0.001251 0.934357
0.003906 0.266602 0.937500
0.000000 0.244385 0.936981
0.122650 0.247406 0.939423
0.673126 0.276245 0.945221
0.973175 0.334076 0.939667
0.003052 0.685150 0.934479
0.003937 0.684265 0.929169
0.180450 0.680328 0.932709
0.646820 0.658966 0.937378
0.946625 0.705658 0.939667
0.003937 0.931824 0.940430
0.003540 0.931824 0.940033
0.411224 0.930054 0.940430
0.708679 0.920807 0.940033
0.944336 0.940430 0.960022
