mpv/luts/Presetpro - HDR Color.cube
#Created by: Adobe Photoshop Export Color Lookup Plugin
#Copyright: (C) Copyright 2018 https://www.presetpro.com and Tim Martin
TITLE "Presetpro - HDR Color"
#LUT size
LUT_3D_SIZE 8
#data domain
#LUT data points
DOMAIN_MIN 0.000000 0.000000 0.000000
DOMAIN_MAX 0.903226 0.903226 0.903226
0.000000 0.003937 0.000000
0.144714 0.000000 0.000000
0.356079 0.002899 0.001007
0.554199 0.001526 0.000000
0.735626 0.000000 0.004059
0.861115 0.000000 0.000000
0.980774 0.000885 0.000000
0.996063 0.000000 0.000000
0.006836 0.159882 0.010254
0.152557 0.160400 0.003418
0.372284 0.127502 0.003937
0.566833 0.038818 0.007843
0.728668 0.003937 0.000519
0.861115 0.000000 0.000000
0.977356 0.003418 0.003937
0.998871 0.004303 0.003540
0.002899 0.365845 0.000000
0.029480 0.366333 0.000000
0.346222 0.361908 0.000000
0.552673 0.331055 0.000519
0.718933 0.294342 0.000000
0.848328 0.274750 0.001404
0.974823 0.270813 0.002014
0.998993 0.292969 0.007599
0.000000 0.544220 0.000000
0.003021 0.538513 0.006958
0.309021 0.534973 0.000000
0.533051 0.525208 0.001526
0.702240 0.501678 0.000000
0.841492 0.478149 0.001404
0.969910 0.467926 0.001526
1.000000 0.481720 0.001526
0.001892 0.674774 0.001892
0.010620 0.676178 0.004791
0.324860 0.668823 0.000000
0.518402 0.663025 0.000000
0.694122 0.655182 0.001892
0.837585 0.643402 0.002014
0.965088 0.633667 0.000000
0.998108 0.633148 0.000000
0.112732 0.791901 0.005310
0.241028 0.790527 0.002533
0.390503 0.790527 0.000000
0.540924 0.787628 0.000000
0.698303 0.783569 0.005432
0.842896 0.780151 0.002533
0.965088 0.772308 0.000000
1.000000 0.772430 0.003662
0.314117 0.909302 0.000000
0.375854 0.913605 0.004303
0.467926 0.913116 0.001770
0.599487 0.915009 0.000000
0.731842 0.911072 0.000000
0.862000 0.911072 0.002533
0.977753 0.906281 0.000885
0.998749 0.894897 0.000000
0.437714 1.000000 0.000000
0.466675 1.000000 0.006073
0.535980 0.998993 0.000000
0.637177 1.000000 0.002014
0.736389 0.999634 0.000000
0.850098 1.000000 0.000000
0.958527 0.999634 0.000000
1.000000 0.999237 0.003540
0.000000 0.000000 0.152039
0.135864 0.000519 0.140778
0.358490 0.002899 0.114746
0.553192 0.000000 0.083862
0.725769 0.000000 0.050964
0.861603 0.000519 0.000519
0.978241 0.002533 0.003052
0.996063 0.000000 0.000000
0.003937 0.144196 0.152039
0.158875 0.144714 0.140289
0.367340 0.130920 0.116760
0.556091 0.062347 0.086395
0.721832 0.008362 0.028076
0.859070 0.002014 0.001007
0.980286 0.000519 0.003937
0.996460 0.000366 0.006439
0.000000 0.359497 0.111328
0.084869 0.358490 0.092712
0.355072 0.354065 0.070190
0.549255 0.326111 0.020630
0.717407 0.299164 0.005310
0.852112 0.272339 0.001404
0.973328 0.265503 0.000519
0.999115 0.284607 0.000519
0.000000 0.534454 0.006958
0.003540 0.534088 0.003021
0.318787 0.530151 0.002899
0.540802 0.515472 0.004822
0.702240 0.501678 0.000000
0.840363 0.472839 0.000000
0.967133 0.469940 0.001007
1.000000 0.471832 0.004822
0.001892 0.675293 0.000000
0.051758 0.675293 0.001892
0.332703 0.671753 0.001007
0.524841 0.664398 0.003540
0.698303 0.655182 0.000000
0.841370 0.641510 0.002533
0.964600 0.633148 0.001404
0.998108 0.633148 0.001526
0.142212 0.788361 0.003418
0.248596 0.793945 0.000000
0.396973 0.790649 0.002777
0.549896 0.791534 0.003784
0.700195 0.782684 0.001892
0.839966 0.776733 0.000000
0.966492 0.770905 0.001892
0.997986 0.769012 0.000000
0.319794 0.915009 0.002533
0.371155 0.918427 0.005066
0.475891 0.918030 0.000885
0.602142 0.916016 0.002258
0.735138 0.913483 0.002411
0.858582 0.911713 0.000519
0.973816 0.905884 0.005066
1.000000 0.896271 0.000366
0.423920 0.999634 0.003052
0.466278 0.996216 0.003052
0.533447 0.997467 0.006073
0.629456 0.996948 0.000519
0.736755 1.000000 0.000000
0.850220 0.999481 0.000000
0.958130 1.000000 0.000000
0.996582 0.999237 0.000763
0.002899 0.000000 0.369751
0.001526 0.002899 0.364441
0.317780 0.000000 0.349243
0.544830 0.000000 0.309540
0.717926 0.001007 0.275635
0.856689 0.000000 0.250580
0.971924 0.000000 0.194183
0.995056 0.001404 0.084991
0.000519 0.115234 0.370758
0.067169 0.112823 0.366333
0.342316 0.096130 0.354584
0.547729 0.046173 0.319275
0.713104 0.009979 0.285492
0.844025 0.007965 0.248169
0.966614 0.002533 0.183899
1.000000 0.002533 0.060699
0.000000 0.339386 0.351166
0.046051 0.341309 0.347748
0.338379 0.338379 0.338379
0.534973 0.323212 0.316376
0.709076 0.304077 0.280457
0.846313 0.286896 0.228455
0.969025 0.277649 0.157104
0.995697 0.278809 0.014282
0.003418 0.523315 0.301178
0.000519 0.523315 0.295258
0.317871 0.516876 0.282471
0.533966 0.513855 0.257935
0.695923 0.492340 0.228455
0.833801 0.473236 0.191254
0.964600 0.465515 0.096252
0.996582 0.470306 0.000000
0.000000 0.667816 0.248169
0.074646 0.668823 0.240448
0.328766 0.665039 0.231476
0.524200 0.660492 0.205566
0.694244 0.652130 0.166809
0.835693 0.637970 0.096222
0.963074 0.631653 0.008972
0.996582 0.627228 0.000366
0.140686 0.791901 0.203003
0.246552 0.789642 0.202515
0.390137 0.790527 0.187439
0.547729 0.784698 0.166840
0.695923 0.783691 0.106354
0.833801 0.775848 0.005035
0.964600 0.769012 0.002014
1.000000 0.766998 0.002777
0.299316 0.915009 0.032593
0.358887 0.917542 0.027649
0.458191 0.915009 0.002014
0.595428 0.915131 0.000885
0.725769 0.910065 0.000000
0.857178 0.913239 0.002533
0.977753 0.907166 0.004059
1.000000 0.893372 0.000000
0.403534 1.000000 0.000000
0.442627 0.999634 0.000000
0.515747 0.996063 0.000000
0.617584 1.000000 0.000519
0.732605 0.998993 0.000000
0.849731 1.000000 0.000366
0.958008 1.000000 0.001007
1.000000 0.999237 0.000000
0.003937 0.000000 0.547241
0.002411 0.000000 0.544830
0.217834 0.002899 0.536987
0.498657 0.003937 0.529144
0.696777 0.001526 0.501190
0.842896 0.001526 0.462982
0.969025 0.000000 0.420837
0.995697 0.001892 0.370117
0.000000 0.084381 0.549255
0.002533 0.081848 0.546234
0.260956 0.049957 0.542816
0.514862 0.001007 0.526733
0.697296 0.002014 0.501678
0.836060 0.003906 0.461456
0.963959 0.004303 0.420105
0.997986 0.001007 0.367584
0.001007 0.297272 0.542297
0.000000 0.298676 0.531677
0.298157 0.301575 0.528137
0.516357 0.287903 0.514862
0.692352 0.285004 0.485504
0.829224 0.282990 0.449310
0.959534 0.275757 0.410492
0.999634 0.264893 0.356964
0.002411 0.509521 0.518280
0.004425 0.509521 0.519287
0.292847 0.504608 0.505615
0.514984 0.497772 0.485992
0.679596 0.482086 0.464508
0.825684 0.473236 0.440338
0.956604 0.466400 0.397308
0.997986 0.461334 0.334076
0.000000 0.659485 0.468292
0.006561 0.656189 0.465881
0.315887 0.656555 0.456146
0.514984 0.648346 0.441467
0.686554 0.643402 0.423248
0.826202 0.629761 0.402863
0.958771 0.625824 0.376556
0.999634 0.618500 0.301819
0.058105 0.785217 0.432861
0.218475 0.790527 0.435394
0.372925 0.785583 0.428833
0.535583 0.783203 0.419708
0.687286 0.777222 0.397064
0.831116 0.773315 0.363281
0.962555 0.767517 0.305084
1.000000 0.756622 0.181854
0.229858 0.911957 0.363159
0.313110 0.917542 0.368744
0.429962 0.915619 0.352783
0.574432 0.916504 0.336334
0.711975 0.910706 0.298004
0.850616 0.906281 0.247131
0.973816 0.906281 0.163116
0.999481 0.891846 0.002289
0.345001 1.000000 0.290039
0.395477 0.997467 0.291931
0.476013 0.998993 0.288910
0.591278 1.000000 0.264984
0.711578 1.000000 0.224884
0.831512 0.999634 0.162384
0.946747 1.000000 0.019684
0.998474 1.000000 0.001526
0.000000 0.000000 0.684509
0.000000 0.000000 0.678833
0.110016 0.000000 0.670837
0.432098 0.002411 0.670868
0.653137 0.003937 0.663025
0.822388 0.000519 0.637604
0.951294 0.002014 0.601013
0.998474 0.000366 0.571289
0.002411 0.036804 0.685669
0.001007 0.026428 0.685028
0.182861 0.001007 0.678680
0.454102 0.002411 0.669342
0.657196 0.003937 0.660980
0.821381 0.001526 0.634552
0.956238 0.000000 0.600281
0.996948 0.002899 0.570282
0.001007 0.265747 0.679443
0.002411 0.273102 0.672760
0.255127 0.268677 0.667938
0.479187 0.251099 0.660614
0.667084 0.237427 0.650360
0.816071 0.235016 0.620880
0.950409 0.235413 0.594330
0.997467 0.228943 0.563446
0.003021 0.464233 0.651764
0.002014 0.466278 0.655304
0.268799 0.468292 0.648834
0.486511 0.462463 0.642395
0.669952 0.457916 0.623810
0.811035 0.456543 0.608124
0.947876 0.454132 0.584473
0.999481 0.443237 0.558167
0.002014 0.643280 0.639343
0.002533 0.639984 0.640991
0.296387 0.641388 0.629761
0.497253 0.639496 0.619751
0.668976 0.627716 0.615814
0.812012 0.621918 0.596344
0.943451 0.614075 0.572815
0.998474 0.600128 0.526886
0.001404 0.782166 0.612396
0.174316 0.784851 0.606720
0.341797 0.780640 0.604950
0.505096 0.776733 0.590912
0.665558 0.769531 0.578247
0.821747 0.765594 0.560547
0.959290 0.755219 0.527649
0.997986 0.747772 0.465668
0.114075 0.913239 0.554993
0.228333 0.914612 0.562469
0.365723 0.914246 0.546143
0.527618 0.912079 0.535492
0.682617 0.909058 0.508789
0.833649 0.907410 0.485901
0.964966 0.901459 0.454926
1.000000 0.881470 0.392670
0.194916 0.996460 0.499573
0.287903 0.999634 0.502350
0.404022 0.999634 0.502869
0.541412 0.999481 0.492493
0.682495 0.997986 0.473785
0.812408 0.996460 0.451904
0.933075 1.000000 0.417603
0.997986 0.997589 0.354248
0.001404 0.000000 0.794434
0.003937 0.000000 0.797211
0.013123 0.001526 0.792053
0.395538 0.001404 0.789246
0.617096 0.001404 0.784698
0.799500 0.000000 0.769531
0.942963 0.000885 0.750793
1.000000 0.000000 0.731689
0.000000 0.000519 0.799377
0.001892 0.002014 0.799530
0.094330 0.000000 0.789001
0.414886 0.002014 0.785461
0.622772 0.003052 0.774841
0.800262 0.005432 0.771545
0.947021 0.000885 0.752319
0.998993 0.004303 0.728790
0.002411 0.224152 0.786346
0.001526 0.222260 0.781677
0.224518 0.218689 0.790894
0.448425 0.205414 0.779266
0.639984 0.179993 0.771790
0.804688 0.156067 0.760529
0.946472 0.151123 0.744995
0.998474 0.134186 0.729156
0.001007 0.431488 0.778259
0.003021 0.432861 0.773315
0.254761 0.430084 0.771545
0.466888 0.423645 0.766998
0.641632 0.416809 0.754730
0.808868 0.408966 0.743103
0.944611 0.415405 0.734100
0.997223 0.401886 0.714752
0.000000 0.609497 0.761810
0.000519 0.615082 0.762054
0.264374 0.610016 0.752838
0.467529 0.605957 0.755096
0.640869 0.598389 0.747375
0.809631 0.595856 0.740051
0.940430 0.591400 0.725494
0.999115 0.573181 0.701202
0.000000 0.772308 0.754089
0.114227 0.772797 0.751312
0.316498 0.770905 0.754211
0.484863 0.769409 0.745880
0.651245 0.759155 0.732208
0.810120 0.751312 0.723846
0.941071 0.749023 0.703369
1.000000 0.725250 0.661865
0.008484 0.908051 0.721191
0.156342 0.910187 0.727020
0.328156 0.908051 0.713501
0.487122 0.908661 0.708679
0.648224 0.906769 0.687286
0.816956 0.901855 0.675293
0.954224 0.899811 0.653656
0.998108 0.868835 0.613800
0.191772 0.993927 0.685394
0.295135 0.999481 0.683746
0.405060 0.998993 0.689087
0.522827 0.998474 0.681091
0.634918 1.000000 0.659607
0.786987 1.000000 0.646942
0.916901 0.999634 0.625946
1.000000 0.996063 0.591034
0.000885 0.000000 0.911072
0.000885 0.002533 0.909821
0.005035 0.000885 0.909058
0.383789 0.000000 0.905121
0.597626 0.000000 0.901459
0.785217 0.000000 0.889313
0.940674 0.003937 0.874908
0.993927 0.000000 0.860992
0.000885 0.000000 0.912354
0.005066 0.000000 0.911346
0.025391 0.002014 0.905121
0.398315 0.002411 0.901703
0.613190 0.003418 0.892365
0.791656 0.001892 0.887177
0.941559 0.003052 0.880981
1.000000 0.000000 0.865784
0.000000 0.149872 0.903229
0.001404 0.144440 0.907288
0.190491 0.132172 0.904358
0.437042 0.093201 0.897034
0.631653 0.019836 0.891602
0.803314 0.000885 0.886658
0.947266 0.000000 0.875793
0.998230 0.001770 0.856293
0.001526 0.385559 0.893860
0.003296 0.378479 0.891205
0.228210 0.372528 0.891327
0.455505 0.368622 0.889954
0.637451 0.359741 0.883362
0.808228 0.345703 0.880463
0.947876 0.340271 0.870331
1.000000 0.336334 0.853271
0.002014 0.581543 0.891602
0.003418 0.579132 0.886932
0.193878 0.575867 0.881836
0.427673 0.565857 0.881592
0.621643 0.557007 0.876678
0.801270 0.550171 0.876678
0.944336 0.539429 0.868195
1.000000 0.536011 0.841003
0.005951 0.744080 0.871857
0.002777 0.750549 0.877533
0.204895 0.743317 0.873230
0.425262 0.736511 0.873749
0.612549 0.728668 0.874908
0.782166 0.719940 0.864532
0.941559 0.715515 0.847961
0.999481 0.706024 0.826691
0.000000 0.902344 0.860107
0.001404 0.906281 0.861481
0.231842 0.903229 0.862885
0.445526 0.902344 0.859863
0.629608 0.900574 0.850494
0.799133 0.891968 0.849976
0.940308 0.883636 0.832642
1.000000 0.860474 0.812531
0.006439 0.999634 0.820251
0.187225 1.000000 0.824280
0.341797 0.996948 0.825317
0.501678 0.996948 0.823151
0.658600 1.000000 0.833282
0.797485 1.000000 0.838593
0.900574 0.999237 0.813812
1.000000 0.992279 0.789001
0.000000 0.000000 0.996063
0.001404 0.000000 0.996063
0.002533 0.000366 0.996063
0.365814 0.001892 1.000000
0.600403 0.003937 1.000000
0.784210 0.003540 1.000000
0.941956 0.000763 0.999115
1.000000 0.000366 0.994568
0.000000 0.000000 0.996063
0.000366 0.000000 0.996063
0.007080 0.003052 0.997223
0.387085 0.002411 0.999237
0.608124 0.000000 0.996979
0.788116 0.000000 0.999237
0.949524 0.000519 0.998474
1.000000 0.000366 0.995697
0.000000 0.000000 0.996063
0.000000 0.000763 0.996063
0.100128 0.000366 0.999634
0.419189 0.000000 1.000000
0.624298 0.001526 0.998230
0.799896 0.001404 0.997864
0.946503 0.003540 0.998474
1.000000 0.000366 0.987488
0.002014 0.292053 0.996063
0.002136 0.286987 1.000000
0.175079 0.280182 0.998871
0.434509 0.270050 1.000000
0.632141 0.240051 1.000000
0.801270 0.210449 0.999237
0.945984 0.182373 0.995941
0.998474 0.142883 0.988739
0.002014 0.527039 0.998871
0.002533 0.525146 0.994934
0.001007 0.516663 0.993683
0.381378 0.503510 0.998871
0.597107 0.493622 0.999237
0.777740 0.479095 0.998352
0.928162 0.460236 0.989502
0.996460 0.447449 0.983185
0.001404 0.714386 0.996338
0.000366 0.716003 0.999634
0.006836 0.706390 0.993530
0.340515 0.695648 0.996460
0.560547 0.679596 0.992279
0.748657 0.664398 0.989014
0.916504 0.655548 0.989746
1.000000 0.642761 0.971802
0.000000 0.878326 0.982666
0.008606 0.875793 0.982178
0.001007 0.873016 0.986603
0.363678 0.869324 0.980011
0.575226 0.864014 0.984192
0.749664 0.857330 0.978363
0.907532 0.847809 0.971680
0.999634 0.849854 0.955719
0.000000 1.000000 0.974945
0.000000 1.000000 0.968506
0.226562 0.997467 0.967499
0.443481 0.998474 0.967346
0.622406 1.000000 0.964844
0.786346 0.999237 0.969025
0.914124 0.991394 0.965729
0.989380 0.983948 0.963196
